(Project base banco didattico completo per  luig i2)
(Created by Estlcam version 11 build 11,244)
(Machining time about 00:02:45 hours)

(Required tools:)
(Nuovo utensile 11)

G90
G91.1
M03 S24000
G00 Z5.0000


(No. 1: Taglio 7)
G00 X59.0797 Y199.4054
G00 Z0.5000
G01 Z-5.0000 F1200 S24000
G01 Y245.4179
G01 X61.1947
G01 Y153.3929
G01 X59.0797
G01 Y199.4054
G01 X56.7847
G01 Y247.7129
G01 X63.4897
G01 Y151.0979
G01 X56.7847
G01 Y199.4054
G01 X54.4897
G01 Y250.0079
G01 X65.7847
G01 Y148.8029
G01 X54.4897
G01 Y199.4054
G01 X52.1947
G01 Y252.3029
G01 X68.0797
G01 Y146.5079
G01 X52.1947
G01 Y199.4054
G01 X49.8997
G01 Y254.5979
G01 X70.3747
G01 Y144.2129
G01 X49.8997
G01 Y199.4054
G01 X47.6047
G01 Y256.8929
G01 X72.6697
G01 Y141.9179
G01 X47.6047
G01 Y199.4054
G01 X45.3097
G01 Y259.1879
G01 X74.9647
G01 Y139.6229
G01 X45.3097
G01 Y199.4054
G01 X43.0147
G01 Y261.4829
G01 X77.2597
G01 Y137.3279
G01 X43.0147
G01 Y199.4054
G01 X40.7197
G01 Y263.7779
G01 X79.5547
G01 Y135.0329
G01 X40.7197
G01 Y199.4054
G01 X38.4247
G01 Y266.0729
G01 X81.8497
G01 Y132.7379
G01 X38.4247
G01 Y199.4054
G01 X37.2347
G01 Y267.2678
G01 X83.0353
G01 Y131.5479
G01 X37.2347
G01 Y199.4054
G00 Z5.0000
G00 X0.0000 Y0.0000

M05
M30
