(Project base banco didattico completo per  luig i2)
(Created by Estlcam version 11 build 11,244)
(Machining time about 00:28:42 hours)

(Required tools:)
(Nuovo utensile 10)

G90
G91.1
M03 S24000
G00 Z5.0000


(No. 1: Taglio 2)
G00 X140.1515 Y139.2145
G00 Z0.5000
G01 Z-3.0000 F1200 S24000
G01 Y228.3820
G01 X144.5165
G01 Y50.0470
G01 X140.1515
G01 Y139.2145
G01 X137.8565
G01 Y230.6770
G01 X146.8115
G01 Y47.7520
G01 X137.8565
G01 Y139.2145
G01 X135.5615
G01 Y232.9720
G01 X149.1065
G01 Y45.4570
G01 X135.5615
G01 Y139.2145
G01 X133.2665
G01 Y235.2670
G01 X151.4015
G01 Y43.1620
G01 X133.2665
G01 Y139.2145
G01 X130.9715
G01 Y237.5620
G01 X153.6965
G01 Y40.8670
G01 X130.9715
G01 Y139.2145
G01 X128.6765
G01 Y239.8570
G01 X155.9915
G01 Y38.5720
G01 X128.6765
G01 Y139.2145
G01 X126.3815
G01 Y242.1520
G01 X158.2865
G01 Y36.2770
G01 X126.3815
G01 Y139.2145
G01 X124.0865
G01 Y244.4470
G01 X160.5815
G01 Y33.9820
G01 X124.0865
G01 Y139.2145
G01 X121.7915
G01 Y246.7420
G01 X162.8765
G01 Y31.6870
G01 X121.7915
G01 Y139.2145
G01 X119.4965
G01 Y249.0370
G01 X165.1715
G01 Y29.3920
G01 X119.4965
G01 Y139.2145
G01 X117.2015
G01 Y251.3320
G01 X167.4665
G01 Y27.0970
G01 X117.2015
G01 Y139.2145
G01 X114.9065
G01 Y253.6270
G01 X169.7615
G01 Y24.8020
G01 X114.9065
G01 Y139.2145
G01 X112.6115
G01 Y255.9220
G01 X172.0565
G01 Y22.5070
G01 X112.6115
G01 Y139.2145
G01 X111.4215
G01 Y257.1170
G01 X173.2214
G01 Y21.3170
G01 X111.4215
G01 Y139.2145
G00 Z5.0000
G00 X140.1515
G00 Z-2.5000
G01 Z-6.0000
G01 Y228.3820
G01 X144.5165
G01 Y50.0470
G01 X140.1515
G01 Y139.2145
G01 X137.8565
G01 Y230.6770
G01 X146.8115
G01 Y47.7520
G01 X137.8565
G01 Y139.2145
G01 X135.5615
G01 Y232.9720
G01 X149.1065
G01 Y45.4570
G01 X135.5615
G01 Y139.2145
G01 X133.2665
G01 Y235.2670
G01 X151.4015
G01 Y43.1620
G01 X133.2665
G01 Y139.2145
G01 X130.9715
G01 Y237.5620
G01 X153.6965
G01 Y40.8670
G01 X130.9715
G01 Y139.2145
G01 X128.6765
G01 Y239.8570
G01 X155.9915
G01 Y38.5720
G01 X128.6765
G01 Y139.2145
G01 X126.3815
G01 Y242.1520
G01 X158.2865
G01 Y36.2770
G01 X126.3815
G01 Y139.2145
G01 X124.0865
G01 Y244.4470
G01 X160.5815
G01 Y33.9820
G01 X124.0865
G01 Y139.2145
G01 X121.7915
G01 Y246.7420
G01 X162.8765
G01 Y31.6870
G01 X121.7915
G01 Y139.2145
G01 X119.4965
G01 Y249.0370
G01 X165.1715
G01 Y29.3920
G01 X119.4965
G01 Y139.2145
G01 X117.2015
G01 Y251.3320
G01 X167.4665
G01 Y27.0970
G01 X117.2015
G01 Y139.2145
G01 X114.9065
G01 Y253.6270
G01 X169.7615
G01 Y24.8020
G01 X114.9065
G01 Y139.2145
G01 X112.6115
G01 Y255.9220
G01 X172.0565
G01 Y22.5070
G01 X112.6115
G01 Y139.2145
G01 X111.4215
G01 Y257.1170
G01 X173.2214
G01 Y21.3170
G01 X111.4215
G01 Y139.2145
G00 Z5.0000
G00 X140.1515
G00 Z-5.5000
G01 Z-9.0000
G01 Y228.3820
G01 X144.5165
G01 Y50.0470
G01 X140.1515
G01 Y139.2145
G01 X137.8565
G01 Y230.6770
G01 X146.8115
G01 Y47.7520
G01 X137.8565
G01 Y139.2145
G01 X135.5615
G01 Y232.9720
G01 X149.1065
G01 Y45.4570
G01 X135.5615
G01 Y139.2145
G01 X133.2665
G01 Y235.2670
G01 X151.4015
G01 Y43.1620
G01 X133.2665
G01 Y139.2145
G01 X130.9715
G01 Y237.5620
G01 X153.6965
G01 Y40.8670
G01 X130.9715
G01 Y139.2145
G01 X128.6765
G01 Y239.8570
G01 X155.9915
G01 Y38.5720
G01 X128.6765
G01 Y139.2145
G01 X126.3815
G01 Y242.1520
G01 X158.2865
G01 Y36.2770
G01 X126.3815
G01 Y139.2145
G01 X124.0865
G01 Y244.4470
G01 X160.5815
G01 Y33.9820
G01 X124.0865
G01 Y139.2145
G01 X121.7915
G01 Y246.7420
G01 X162.8765
G01 Y31.6870
G01 X121.7915
G01 Y139.2145
G01 X119.4965
G01 Y249.0370
G01 X165.1715
G01 Y29.3920
G01 X119.4965
G01 Y139.2145
G01 X117.2015
G01 Y251.3320
G01 X167.4665
G01 Y27.0970
G01 X117.2015
G01 Y139.2145
G01 X114.9065
G01 Y253.6270
G01 X169.7615
G01 Y24.8020
G01 X114.9065
G01 Y139.2145
G01 X112.6115
G01 Y255.9220
G01 X172.0565
G01 Y22.5070
G01 X112.6115
G01 Y139.2145
G01 X111.4215
G01 Y257.1170
G01 X173.2214
G01 Y21.3170
G01 X111.4215
G01 Y139.2145
G00 Z5.0000
G00 X140.1515
G00 Z-8.5000
G01 Z-12.0000
G01 Y228.3820
G01 X144.5165
G01 Y50.0470
G01 X140.1515
G01 Y139.2145
G01 X137.8565
G01 Y230.6770
G01 X146.8115
G01 Y47.7520
G01 X137.8565
G01 Y139.2145
G01 X135.5615
G01 Y232.9720
G01 X149.1065
G01 Y45.4570
G01 X135.5615
G01 Y139.2145
G01 X133.2665
G01 Y235.2670
G01 X151.4015
G01 Y43.1620
G01 X133.2665
G01 Y139.2145
G01 X130.9715
G01 Y237.5620
G01 X153.6965
G01 Y40.8670
G01 X130.9715
G01 Y139.2145
G01 X128.6765
G01 Y239.8570
G01 X155.9915
G01 Y38.5720
G01 X128.6765
G01 Y139.2145
G01 X126.3815
G01 Y242.1520
G01 X158.2865
G01 Y36.2770
G01 X126.3815
G01 Y139.2145
G01 X124.0865
G01 Y244.4470
G01 X160.5815
G01 Y33.9820
G01 X124.0865
G01 Y139.2145
G01 X121.7915
G01 Y246.7420
G01 X162.8765
G01 Y31.6870
G01 X121.7915
G01 Y139.2145
G01 X119.4965
G01 Y249.0370
G01 X165.1715
G01 Y29.3920
G01 X119.4965
G01 Y139.2145
G01 X117.2015
G01 Y251.3320
G01 X167.4665
G01 Y27.0970
G01 X117.2015
G01 Y139.2145
G01 X114.9065
G01 Y253.6270
G01 X169.7615
G01 Y24.8020
G01 X114.9065
G01 Y139.2145
G01 X112.6115
G01 Y255.9220
G01 X172.0565
G01 Y22.5070
G01 X112.6115
G01 Y139.2145
G01 X111.4215
G01 Y257.1170
G01 X173.2214
G01 Y21.3170
G01 X111.4215
G01 Y139.2145
G00 Z5.0000
G00 X140.1515
G00 Z-11.5000
G01 Z-15.0000
G01 Y228.3820
G01 X144.5165
G01 Y50.0470
G01 X140.1515
G01 Y139.2145
G01 X137.8565
G01 Y230.6770
G01 X146.8115
G01 Y47.7520
G01 X137.8565
G01 Y139.2145
G01 X135.5615
G01 Y232.9720
G01 X149.1065
G01 Y45.4570
G01 X135.5615
G01 Y139.2145
G01 X133.2665
G01 Y235.2670
G01 X151.4015
G01 Y43.1620
G01 X133.2665
G01 Y139.2145
G01 X130.9715
G01 Y237.5620
G01 X153.6965
G01 Y40.8670
G01 X130.9715
G01 Y139.2145
G01 X128.6765
G01 Y239.8570
G01 X155.9915
G01 Y38.5720
G01 X128.6765
G01 Y139.2145
G01 X126.3815
G01 Y242.1520
G01 X158.2865
G01 Y36.2770
G01 X126.3815
G01 Y139.2145
G01 X124.0865
G01 Y244.4470
G01 X160.5815
G01 Y33.9820
G01 X124.0865
G01 Y139.2145
G01 X121.7915
G01 Y246.7420
G01 X162.8765
G01 Y31.6870
G01 X121.7915
G01 Y139.2145
G01 X119.4965
G01 Y249.0370
G01 X165.1715
G01 Y29.3920
G01 X119.4965
G01 Y139.2145
G01 X117.2015
G01 Y251.3320
G01 X167.4665
G01 Y27.0970
G01 X117.2015
G01 Y139.2145
G01 X114.9065
G01 Y253.6270
G01 X169.7615
G01 Y24.8020
G01 X114.9065
G01 Y139.2145
G01 X112.6115
G01 Y255.9220
G01 X172.0565
G01 Y22.5070
G01 X112.6115
G01 Y139.2145
G01 X111.4215
G01 Y257.1170
G01 X173.2214
G01 Y21.3170
G01 X111.4215
G01 Y139.2145
G00 Z5.0000
G00 X0.0000 Y0.0000

M05
M30
