(Project base banco didattico completo per  luig i2)
(Created by Estlcam version 11 build 11,244)
(Machining time about 00:11:48 hours)

(Required tools:)
(Nuovo utensile 10)

G90
G91.1
M03 S24000
G00 Z5.0000


(No. 1: Taglio 1)
G00 X57.8500 Y58.7095
G00 Z0.5000
G01 Z-3.0000 F1200 S24000
G01 Y60.4870
G01 X61.4500
G01 Y56.9320
G01 X57.8500
G01 Y58.7095
G01 X55.5550
G01 Y62.7820
G01 X63.7450
G01 Y54.6370
G01 X55.5550
G01 Y58.7095
G01 X53.2600
G01 Y65.0770
G01 X66.0400
G01 Y52.3420
G01 X53.2600
G01 Y58.7095
G01 X50.9650
G01 Y67.3720
G01 X68.3350
G01 Y50.0470
G01 X50.9650
G01 Y58.7095
G01 X48.6700
G01 Y69.6670
G01 X70.6300
G01 Y47.7520
G01 X48.6700
G01 Y58.7095
G01 X46.3750
G01 Y71.9620
G01 X72.9250
G01 Y45.4570
G01 X46.3750
G01 Y58.7095
G01 X44.0800
G01 Y74.2570
G01 X75.2200
G01 Y43.1620
G01 X44.0800
G01 Y58.7095
G01 X41.7850
G01 Y76.5520
G01 X77.5150
G01 Y40.8670
G01 X41.7850
G01 Y58.7095
G01 X39.4900
G01 Y78.8470
G01 X79.8100
G01 Y38.5720
G01 X39.4900
G01 Y58.7095
G01 X37.1950
G01 Y81.1420
G01 X82.1050
G01 Y36.2770
G01 X37.1950
G01 Y58.7095
G01 X34.9000
G01 Y83.4370
G01 X84.4000
G01 Y33.9820
G01 X34.9000
G01 Y58.7095
G01 X32.6050
G01 Y85.7320
G01 X86.6950
G01 Y31.6870
G01 X32.6050
G01 Y58.7095
G01 X30.3100
G01 Y88.0270
G01 X88.9900
G01 Y29.3920
G01 X30.3100
G01 Y58.7095
G01 X28.0150
G01 Y90.3220
G01 X91.2850
G01 Y27.0970
G01 X28.0150
G01 Y58.7095
G01 X25.7200
G01 Y92.6170
G01 X93.5800
G01 Y24.8020
G01 X25.7200
G01 Y58.7095
G01 X23.4250
G01 Y94.9120
G01 X95.8750
G01 Y22.5070
G01 X23.4250
G01 Y58.7095
G01 X22.2350
G01 Y96.1170
G01 X97.0350
G01 Y21.3170
G01 X22.2350
G01 Y58.7095
G00 Z5.0000
G00 X57.8500
G00 Z-2.5000
G01 Z-6.0000
G01 Y60.4870
G01 X61.4500
G01 Y56.9320
G01 X57.8500
G01 Y58.7095
G01 X55.5550
G01 Y62.7820
G01 X63.7450
G01 Y54.6370
G01 X55.5550
G01 Y58.7095
G01 X53.2600
G01 Y65.0770
G01 X66.0400
G01 Y52.3420
G01 X53.2600
G01 Y58.7095
G01 X50.9650
G01 Y67.3720
G01 X68.3350
G01 Y50.0470
G01 X50.9650
G01 Y58.7095
G01 X48.6700
G01 Y69.6670
G01 X70.6300
G01 Y47.7520
G01 X48.6700
G01 Y58.7095
G01 X46.3750
G01 Y71.9620
G01 X72.9250
G01 Y45.4570
G01 X46.3750
G01 Y58.7095
G01 X44.0800
G01 Y74.2570
G01 X75.2200
G01 Y43.1620
G01 X44.0800
G01 Y58.7095
G01 X41.7850
G01 Y76.5520
G01 X77.5150
G01 Y40.8670
G01 X41.7850
G01 Y58.7095
G01 X39.4900
G01 Y78.8470
G01 X79.8100
G01 Y38.5720
G01 X39.4900
G01 Y58.7095
G01 X37.1950
G01 Y81.1420
G01 X82.1050
G01 Y36.2770
G01 X37.1950
G01 Y58.7095
G01 X34.9000
G01 Y83.4370
G01 X84.4000
G01 Y33.9820
G01 X34.9000
G01 Y58.7095
G01 X32.6050
G01 Y85.7320
G01 X86.6950
G01 Y31.6870
G01 X32.6050
G01 Y58.7095
G01 X30.3100
G01 Y88.0270
G01 X88.9900
G01 Y29.3920
G01 X30.3100
G01 Y58.7095
G01 X28.0150
G01 Y90.3220
G01 X91.2850
G01 Y27.0970
G01 X28.0150
G01 Y58.7095
G01 X25.7200
G01 Y92.6170
G01 X93.5800
G01 Y24.8020
G01 X25.7200
G01 Y58.7095
G01 X23.4250
G01 Y94.9120
G01 X95.8750
G01 Y22.5070
G01 X23.4250
G01 Y58.7095
G01 X22.2350
G01 Y96.1170
G01 X97.0350
G01 Y21.3170
G01 X22.2350
G01 Y58.7095
G00 Z5.0000
G00 X57.8500
G00 Z-5.5000
G01 Z-9.0000
G01 Y60.4870
G01 X61.4500
G01 Y56.9320
G01 X57.8500
G01 Y58.7095
G01 X55.5550
G01 Y62.7820
G01 X63.7450
G01 Y54.6370
G01 X55.5550
G01 Y58.7095
G01 X53.2600
G01 Y65.0770
G01 X66.0400
G01 Y52.3420
G01 X53.2600
G01 Y58.7095
G01 X50.9650
G01 Y67.3720
G01 X68.3350
G01 Y50.0470
G01 X50.9650
G01 Y58.7095
G01 X48.6700
G01 Y69.6670
G01 X70.6300
G01 Y47.7520
G01 X48.6700
G01 Y58.7095
G01 X46.3750
G01 Y71.9620
G01 X72.9250
G01 Y45.4570
G01 X46.3750
G01 Y58.7095
G01 X44.0800
G01 Y74.2570
G01 X75.2200
G01 Y43.1620
G01 X44.0800
G01 Y58.7095
G01 X41.7850
G01 Y76.5520
G01 X77.5150
G01 Y40.8670
G01 X41.7850
G01 Y58.7095
G01 X39.4900
G01 Y78.8470
G01 X79.8100
G01 Y38.5720
G01 X39.4900
G01 Y58.7095
G01 X37.1950
G01 Y81.1420
G01 X82.1050
G01 Y36.2770
G01 X37.1950
G01 Y58.7095
G01 X34.9000
G01 Y83.4370
G01 X84.4000
G01 Y33.9820
G01 X34.9000
G01 Y58.7095
G01 X32.6050
G01 Y85.7320
G01 X86.6950
G01 Y31.6870
G01 X32.6050
G01 Y58.7095
G01 X30.3100
G01 Y88.0270
G01 X88.9900
G01 Y29.3920
G01 X30.3100
G01 Y58.7095
G01 X28.0150
G01 Y90.3220
G01 X91.2850
G01 Y27.0970
G01 X28.0150
G01 Y58.7095
G01 X25.7200
G01 Y92.6170
G01 X93.5800
G01 Y24.8020
G01 X25.7200
G01 Y58.7095
G01 X23.4250
G01 Y94.9120
G01 X95.8750
G01 Y22.5070
G01 X23.4250
G01 Y58.7095
G01 X22.2350
G01 Y96.1170
G01 X97.0350
G01 Y21.3170
G01 X22.2350
G01 Y58.7095
G00 Z5.0000
G00 X57.8500
G00 Z-8.5000
G01 Z-12.0000
G01 Y60.4870
G01 X61.4500
G01 Y56.9320
G01 X57.8500
G01 Y58.7095
G01 X55.5550
G01 Y62.7820
G01 X63.7450
G01 Y54.6370
G01 X55.5550
G01 Y58.7095
G01 X53.2600
G01 Y65.0770
G01 X66.0400
G01 Y52.3420
G01 X53.2600
G01 Y58.7095
G01 X50.9650
G01 Y67.3720
G01 X68.3350
G01 Y50.0470
G01 X50.9650
G01 Y58.7095
G01 X48.6700
G01 Y69.6670
G01 X70.6300
G01 Y47.7520
G01 X48.6700
G01 Y58.7095
G01 X46.3750
G01 Y71.9620
G01 X72.9250
G01 Y45.4570
G01 X46.3750
G01 Y58.7095
G01 X44.0800
G01 Y74.2570
G01 X75.2200
G01 Y43.1620
G01 X44.0800
G01 Y58.7095
G01 X41.7850
G01 Y76.5520
G01 X77.5150
G01 Y40.8670
G01 X41.7850
G01 Y58.7095
G01 X39.4900
G01 Y78.8470
G01 X79.8100
G01 Y38.5720
G01 X39.4900
G01 Y58.7095
G01 X37.1950
G01 Y81.1420
G01 X82.1050
G01 Y36.2770
G01 X37.1950
G01 Y58.7095
G01 X34.9000
G01 Y83.4370
G01 X84.4000
G01 Y33.9820
G01 X34.9000
G01 Y58.7095
G01 X32.6050
G01 Y85.7320
G01 X86.6950
G01 Y31.6870
G01 X32.6050
G01 Y58.7095
G01 X30.3100
G01 Y88.0270
G01 X88.9900
G01 Y29.3920
G01 X30.3100
G01 Y58.7095
G01 X28.0150
G01 Y90.3220
G01 X91.2850
G01 Y27.0970
G01 X28.0150
G01 Y58.7095
G01 X25.7200
G01 Y92.6170
G01 X93.5800
G01 Y24.8020
G01 X25.7200
G01 Y58.7095
G01 X23.4250
G01 Y94.9120
G01 X95.8750
G01 Y22.5070
G01 X23.4250
G01 Y58.7095
G01 X22.2350
G01 Y96.1170
G01 X97.0350
G01 Y21.3170
G01 X22.2350
G01 Y58.7095
G00 Z5.0000
G00 X57.8500
G00 Z-11.5000
G01 Z-15.0000
G01 Y60.4870
G01 X61.4500
G01 Y56.9320
G01 X57.8500
G01 Y58.7095
G01 X55.5550
G01 Y62.7820
G01 X63.7450
G01 Y54.6370
G01 X55.5550
G01 Y58.7095
G01 X53.2600
G01 Y65.0770
G01 X66.0400
G01 Y52.3420
G01 X53.2600
G01 Y58.7095
G01 X50.9650
G01 Y67.3720
G01 X68.3350
G01 Y50.0470
G01 X50.9650
G01 Y58.7095
G01 X48.6700
G01 Y69.6670
G01 X70.6300
G01 Y47.7520
G01 X48.6700
G01 Y58.7095
G01 X46.3750
G01 Y71.9620
G01 X72.9250
G01 Y45.4570
G01 X46.3750
G01 Y58.7095
G01 X44.0800
G01 Y74.2570
G01 X75.2200
G01 Y43.1620
G01 X44.0800
G01 Y58.7095
G01 X41.7850
G01 Y76.5520
G01 X77.5150
G01 Y40.8670
G01 X41.7850
G01 Y58.7095
G01 X39.4900
G01 Y78.8470
G01 X79.8100
G01 Y38.5720
G01 X39.4900
G01 Y58.7095
G01 X37.1950
G01 Y81.1420
G01 X82.1050
G01 Y36.2770
G01 X37.1950
G01 Y58.7095
G01 X34.9000
G01 Y83.4370
G01 X84.4000
G01 Y33.9820
G01 X34.9000
G01 Y58.7095
G01 X32.6050
G01 Y85.7320
G01 X86.6950
G01 Y31.6870
G01 X32.6050
G01 Y58.7095
G01 X30.3100
G01 Y88.0270
G01 X88.9900
G01 Y29.3920
G01 X30.3100
G01 Y58.7095
G01 X28.0150
G01 Y90.3220
G01 X91.2850
G01 Y27.0970
G01 X28.0150
G01 Y58.7095
G01 X25.7200
G01 Y92.6170
G01 X93.5800
G01 Y24.8020
G01 X25.7200
G01 Y58.7095
G01 X23.4250
G01 Y94.9120
G01 X95.8750
G01 Y22.5070
G01 X23.4250
G01 Y58.7095
G01 X22.2350
G01 Y96.1170
G01 X97.0350
G01 Y21.3170
G01 X22.2350
G01 Y58.7095
G00 Z5.0000
G00 X0.0000 Y0.0000

M05
M30
