(Project base banco didattico completo per  luig i2)
(Created by Estlcam version 11 build 11,244)
(Machining time about 00:01:23 hours)

(Required tools:)
(Nuovo utensile 10)

G90
G91.1
M03 S24000
G00 Z5.0000


(No. 1: Taglio 4)
G00 X38.4231 Y263.8607
G00 Z0.5000
G01 Z-3.0000 F1200 S24000
G01 Y266.0657
G01 X81.8481
G01 Y261.6557
G01 X38.4231
G01 Y263.8607
G01 X37.2331 Y263.8614
G01 Y267.2694
G01 X83.0368
G01 Y260.4657
G01 X37.2331
G01 Y263.8614
G00 Z5.0000
G00 X38.4231 Y263.8612
G00 Z-2.5000
G01 Z-6.0000
G01 Y266.0657
G01 X81.8481
G01 Y261.6557
G01 X38.4231
G01 Y263.8612
G01 X37.2331 Y263.8619
G01 Y267.2694
G01 X83.0368
G01 Y260.4657
G01 X37.2331
G01 Y263.8619
G00 Z5.0000
G00 X38.4231 Y263.8616
G00 Z-5.5000
G01 Z-9.0000
G01 Y266.0657
G01 X81.8481
G01 Y261.6557
G01 X38.4231
G01 Y263.8616
G01 X37.2331 Y263.8623
G01 Y267.2694
G01 X83.0368
G01 Y260.4657
G01 X37.2331
G01 Y263.8623
G00 Z5.0000
G00 X38.4231 Y263.8619
G00 Z-8.5000
G01 Z-12.0000
G01 Y266.0657
G01 X81.8481
G01 Y261.6557
G01 X38.4231
G01 Y263.8619
G01 X37.2331 Y263.8625
G01 Y267.2694
G01 X83.0368
G01 Y260.4657
G01 X37.2331
G01 Y263.8625
G00 Z5.0000
G00 X38.4231 Y263.8621
G00 Z-11.5000
G01 Z-15.0000
G01 Y266.0657
G01 X81.8481
G01 Y261.6557
G01 X38.4231
G01 Y263.8621
G01 X37.2331 Y263.8627
G01 Y267.2694
G01 X83.0368
G01 Y260.4657
G01 X37.2331
G01 Y263.8627
G00 Z5.0000
G00 X38.4231 Y263.8622
G00 Z-14.5000
G01 Z-18.0000
G01 Y266.0657
G01 X81.8481
G01 Y261.6557
G01 X38.4231
G01 Y263.8622
G01 X37.2331 Y263.8628
G01 Y267.2694
G01 X83.0368
G01 Y260.4657
G01 X37.2331
G01 Y263.8628
G00 Z5.0000
G00 X0.0000 Y0.0000

M05
M30
