(Project modifica_boccole)
(Created by Estlcam version 11 build 11,244)
(Machining time about 00:02:27 hours)

(Required tools:)
(Nuovo utensile 7)

G90
G91.1
M03 S18000
G00 Z5.0000


(No. 1: Taglio 1)
G00 X4.9680 Y5.8995
G00 Z0.5000
G01 Z-2.0000 F900 S18000
G01 Y6.8310 F1800
G01 X45.8460
G01 Y4.9680
G01 X4.9680
G01 Y5.8995
G01 X3.5910
G01 Y8.2080
G01 X47.2230
G01 Y3.5910
G01 X3.5910
G01 Y5.8995
G01 X2.2140
G01 Y9.5850
G01 X48.6000
G01 Y2.2140
G01 X2.2140
G01 Y5.8995
G01 X1.5000 Y5.8996
G01 Y10.3037
G01 X49.3037
G01 Y1.5000
G01 X1.5000
G01 Y5.8996
G00 Z5.0000
G00 X4.9680 Y5.8995
G00 Z-1.5000
G01 Z-4.0000 F900
G01 Y6.8310 F1800
G01 X45.8460
G01 Y4.9680
G01 X4.9680
G01 Y5.8995
G01 X3.5910
G01 Y8.2080
G01 X47.2230
G01 Y3.5910
G01 X3.5910
G01 Y5.8995
G01 X2.2140
G01 Y9.5850
G01 X48.6000
G01 Y2.2140
G01 X2.2140
G01 Y5.8995
G01 X1.5000 Y5.8996
G01 Y10.3037
G01 X49.3037
G01 Y1.5000
G01 X1.5000
G01 Y5.8996
G00 Z5.0000
G00 X4.9680 Y5.8995
G00 Z-3.5000
G01 Z-6.0000 F900
G01 Y6.8310 F1800
G01 X45.8460
G01 Y4.9680
G01 X4.9680
G01 Y5.8995
G01 X3.5910
G01 Y8.2080
G01 X47.2230
G01 Y3.5910
G01 X3.5910
G01 Y5.8995
G01 X2.2140
G01 Y9.5850
G01 X48.6000
G01 Y2.2140
G01 X2.2140
G01 Y5.8995
G01 X1.5000 Y5.8996
G01 Y10.3037
G01 X49.3037
G01 Y1.5000
G01 X1.5000
G01 Y5.8996
G00 Z5.0000
G00 X4.9680 Y5.8995
G00 Z-5.5000
G01 Z-8.0000 F900
G01 Y6.8310 F1800
G01 X45.8460
G01 Y4.9680
G01 X4.9680
G01 Y5.8995
G01 X3.5910
G01 Y8.2080
G01 X47.2230
G01 Y3.5910
G01 X3.5910
G01 Y5.8995
G01 X2.2140
G01 Y9.5850
G01 X48.6000
G01 Y2.2140
G01 X2.2140
G01 Y5.8995
G01 X1.5000 Y5.8996
G01 Y10.3037
G01 X49.3037
G01 Y1.5000
G01 X1.5000
G01 Y5.8996
G00 Z5.0000
G00 X4.9680 Y5.8995
G00 Z-7.5000
G01 Z-10.0000 F900
G01 Y6.8310 F1800
G01 X45.8460
G01 Y4.9680
G01 X4.9680
G01 Y5.8995
G01 X3.5910
G01 Y8.2080
G01 X47.2230
G01 Y3.5910
G01 X3.5910
G01 Y5.8995
G01 X2.2140
G01 Y9.5850
G01 X48.6000
G01 Y2.2140
G01 X2.2140
G01 Y5.8995
G01 X1.5000 Y5.8996
G01 Y10.3037
G01 X49.3037
G01 Y1.5000
G01 X1.5000
G01 Y5.8996
G00 Z5.0000
G00 X4.9680 Y5.8995
G00 Z-9.5000
G01 Z-12.0000 F900
G01 Y6.8310 F1800
G01 X45.8460
G01 Y4.9680
G01 X4.9680
G01 Y5.8995
G01 X3.5910
G01 Y8.2080
G01 X47.2230
G01 Y3.5910
G01 X3.5910
G01 Y5.8995
G01 X2.2140
G01 Y9.5850
G01 X48.6000
G01 Y2.2140
G01 X2.2140
G01 Y5.8995
G01 X1.5000 Y5.8996
G01 Y10.3037
G01 X49.3037
G01 Y1.5000
G01 X1.5000
G01 Y5.8996
G00 Z5.0000
G00 X4.9680 Y5.8995
G00 Z-11.5000
G01 Z-14.0000 F900
G01 Y6.8310 F1800
G01 X45.8460
G01 Y4.9680
G01 X4.9680
G01 Y5.8995
G01 X3.5910
G01 Y8.2080
G01 X47.2230
G01 Y3.5910
G01 X3.5910
G01 Y5.8995
G01 X2.2140
G01 Y9.5850
G01 X48.6000
G01 Y2.2140
G01 X2.2140
G01 Y5.8995
G01 X1.5000 Y5.8996
G01 Y10.3037
G01 X49.3037
G01 Y1.5000
G01 X1.5000
G01 Y5.8996
G00 Z5.0000
G00 X4.9680 Y5.8995
G00 Z-13.5000
G01 Z-16.0000 F900
G01 Y6.8310 F1800
G01 X45.8460
G01 Y4.9680
G01 X4.9680
G01 Y5.8995
G01 X3.5910
G01 Y8.2080
G01 X47.2230
G01 Y3.5910
G01 X3.5910
G01 Y5.8995
G01 X2.2140
G01 Y9.5850
G01 X48.6000
G01 Y2.2140
G01 X2.2140
G01 Y5.8995
G01 X1.5000 Y5.8996
G01 Y10.3037
G01 X49.3037
G01 Y1.5000
G01 X1.5000
G01 Y5.8996
G00 Z5.0000
G00 X4.9680 Y5.8995
G00 Z-15.5000
G01 Z-18.0000 F900
G01 Y6.8310 F1800
G01 X45.8460
G01 Y4.9680
G01 X4.9680
G01 Y5.8995
G01 X3.5910
G01 Y8.2080
G01 X47.2230
G01 Y3.5910
G01 X3.5910
G01 Y5.8995
G01 X2.2140
G01 Y9.5850
G01 X48.6000
G01 Y2.2140
G01 X2.2140
G01 Y5.8995
G01 X1.5000 Y5.8996
G01 Y10.3037
G01 X49.3037
G01 Y1.5000
G01 X1.5000
G01 Y5.8996
G00 Z5.0000
G00 X4.9680 Y5.8995
G00 Z-17.5000
G01 Z-19.0000 F900
G01 Y6.8310 F1800
G01 X45.8460
G01 Y4.9680
G01 X4.9680
G01 Y5.8995
G01 X3.5910
G01 Y8.2080
G01 X47.2230
G01 Y3.5910
G01 X3.5910
G01 Y5.8995
G01 X2.2140
G01 Y9.5850
G01 X48.6000
G01 Y2.2140
G01 X2.2140
G01 Y5.8995
G01 X1.5000 Y5.8996
G01 Y10.3037
G01 X49.3037
G01 Y1.5000
G01 X1.5000
G01 Y5.8996
G00 Z5.0000
G00 X0.0000 Y0.0000

M05
M30
