(Project supporto_freno)
(Created by Estlcam version 11 build 11,244)
(Machining time about 00:10:08 hours)

(Required tools:)
(Nuovo utensile 7)

G90
G91.1
M03 S18000
G00 Z5.0000


(No. 1: Taglio 2)
G00 X27.5317 Y24.0035
G00 Z0.5000
G01 Z-2.0000 F900 S18000
G01 X27.4777 Y24.1115 F1800
G01 Y24.3545
G01 X27.6397 Y24.6515
G01 X38.2507 Y24.6785
G01 X38.4127 Y24.3005
G01 X38.2777 Y23.9225
G01 X27.5857 Y23.8955
G01 X27.5317 Y24.0035
G01 X26.3418 Y23.2779
G01 X26.1817 Y23.5715
G02 X26.6677 Y25.6505 I1.9441 J0.6418
G01 X27.2077 Y26.0285
G01 X38.6557 Y26.0555
G02 X38.7637 Y22.5455 I-0.8323 J-1.7823
G01 X27.0727 Y22.5185
G01 X26.5057 Y22.9775
G01 X26.3418 Y23.2779
G01 X25.0837 Y22.6734
G02 X26.8837 Y27.4055 I3.0360 J1.5535
G01 X38.9257 Y27.4325
G02 X39.0877 Y21.1685 I-1.1098 J-3.1628
G01 X26.8027 Y21.1415
G02 X25.0837 Y22.6734 I0.9904 J2.8418
G01 X23.7977 Y22.1290
G02 X26.6677 Y28.7825 I4.3264 J2.0795
G01 X39.1147 Y28.8095
G02 X39.2497 Y19.7645 I-1.2810 J-4.5426
G01 X26.5597
G02 X23.7977 Y22.1290 I1.4001 J4.4308
G01 X22.6113 Y21.4114
G02 X22.8734 Y27.4742 I5.4194 J2.8028
G02 X26.4787 Y30.1595 I5.2517 J-3.2882
G01 X39.3037 Y30.1865
G02 X39.4387 Y18.3875 I-1.4441 J-5.9168
G01 X26.3707
G02 X22.6113 Y21.4114 I1.6401 J5.8879
G01 X21.4603 Y20.6369
G02 X26.3167 Y31.5365 I6.6136 J3.5849
G01 X39.4117 Y31.5635
G02 X39.6007 Y17.0105 I-1.5078 J-7.2973
G01 X26.2087
G02 X21.4603 Y20.6369 I1.7202 J7.1743
G01 X20.1594 Y20.1283
G02 X26.2087 Y32.9135 I7.8975 J4.0870
G01 X39.4927 Y32.9405
G02 X39.7357 Y15.6335 I-1.5365 J-8.6768
G01 X26.1007
G02 X20.1594 Y20.1283 I1.7952 J8.5470
G01 X18.8476 Y19.6575
G02 X26.1007 Y34.2905 I9.1788 J4.5644
G01 X39.5737 Y34.3175
G02 X39.8437 Y14.2565 I-1.5801 J-10.0536
G01 X25.9657
G02 X18.8476 Y19.6575 I1.9104 J9.9087
G01 X17.5003 Y19.2972
G02 X26.0197 Y35.6675 I10.5124 J4.9311
G01 X39.6277 Y35.6945
G02 X39.9517 Y12.8795 I-1.6025 J-11.4326
G01 X25.9387
G02 X17.5003 Y19.2972 I1.6600 J10.9390
G01 X16.2465 Y18.7346
G02 X15.5009 Y21.1416 I12.1599 J5.0859
G02 X25.9657 Y37.0445 I12.3413 J3.2734
G01 X39.6817 Y37.0715
G02 X40.0057 Y11.5025 I-1.6268 J-12.8072
G01 X26.1817 Y11.4755
G02 X16.2465 Y18.7346 I1.4210 J12.3733
G01 X14.9953 Y18.1470
G02 X14.2134 Y20.5579 I8.8467 J4.2014
G02 X13.7700 Y23.5146 I29.2421 J5.8969
G02 X25.9387 Y38.4215 I13.9801 J1.0080
G01 X39.7087 Y38.4485
G02 X40.0327 Y10.1255 I-1.6225 J-14.1819
G01 X26.2087 Y10.0985
G02 X14.9953 Y18.1470 I1.3599 J13.7302
G01 X13.7000 Y17.6574
G02 X12.4680 Y22.9986 I12.4991 J5.6957
G02 X12.4323 Y25.2640 I24.4321 J1.5173
G02 X26.2627 Y39.8255 I15.2161 J-0.6034
G01 X39.6817
G02 X51.8093 Y31.8150 I-1.4517 J-15.3836
G02 X40.0597 Y8.7485 I-13.7183 J-7.5380
G01 X26.2627 Y8.7215
G02 X13.7000 Y17.6574 I1.2515 J15.0581
G01 X12.3564 Y17.2659
G02 X11.0761 Y23.5778 I14.3260 J6.1917
G02 X11.1421 Y26.1367 I53.4323 J-0.0991
G02 X26.3707 Y41.2025 I16.4079 J-1.3558
G01 X39.6007
G02 X53.4247 Y31.3745 I-1.1356 J-16.2336
G02 X39.9787 Y7.3715 I-15.1081 J-7.3044
G01 X26.3437 Y7.3445
G02 X12.3564 Y17.2659 I1.1003 J16.3715
G01 X11.1816 Y16.5100
G02 X9.7436 Y25.3701 I15.9790 J7.1401
G02 X10.2248 Y28.7270 I39.9002 J-4.0068
G02 X26.5327 Y42.5795 I17.1289 J-3.6395
G01 X39.4387
G02 X55.2607 Y30.3485 I-0.8634 J-17.4661
G02 X39.4387 Y5.9675 I-16.8203 J-6.4089
G01 X26.5327
G02 X11.1816 Y16.5100 I0.8747 J17.7213
G01 X10.4594 Y16.4157
G02 X9.2864 Y27.4737 I17.3485 J7.4314
G02 X12.8842 Y36.1649 I20.9131 J-3.5669
G02 X19.1641 Y41.3614 I14.2391 J-10.8149
G02 X27.4580 Y43.3118 I8.2696 J-16.5556
G01 X38.5419
G02 X52.6471 Y36.7710 I0.0621 J-18.3455
G02 X56.1772 Y29.7758 I-15.8725 J-12.3982
G02 X56.8391 Y20.9206 I-19.8138 J-5.9334
G02 X38.5419 Y5.2535 I-18.2817 J2.8327
G01 X27.4580
G02 X10.4594 Y16.4157 I-0.0219 J18.4911
G00 Z5.0000
G00 X27.5317 Y24.0035
G00 Z-1.5000
G01 Z-4.0000 F900
G01 X27.4777 Y24.1115 F1800
G01 Y24.3545
G01 X27.6397 Y24.6515
G01 X38.2507 Y24.6785
G01 X38.4127 Y24.3005
G01 X38.2777 Y23.9225
G01 X27.5857 Y23.8955
G01 X27.5317 Y24.0035
G01 X26.3418 Y23.2779
G01 X26.1817 Y23.5715
G02 X26.6677 Y25.6505 I1.9441 J0.6418
G01 X27.2077 Y26.0285
G01 X38.6557 Y26.0555
G02 X38.7637 Y22.5455 I-0.8323 J-1.7823
G01 X27.0727 Y22.5185
G01 X26.5057 Y22.9775
G01 X26.3418 Y23.2779
G01 X25.0837 Y22.6734
G02 X26.8837 Y27.4055 I3.0360 J1.5535
G01 X38.9257 Y27.4325
G02 X39.0877 Y21.1685 I-1.1098 J-3.1628
G01 X26.8027 Y21.1415
G02 X25.0837 Y22.6734 I0.9904 J2.8418
G01 X23.7977 Y22.1290
G02 X26.6677 Y28.7825 I4.3264 J2.0795
G01 X39.1147 Y28.8095
G02 X39.2497 Y19.7645 I-1.2810 J-4.5426
G01 X26.5597
G02 X23.7977 Y22.1290 I1.4001 J4.4308
G01 X22.6113 Y21.4114
G02 X22.8734 Y27.4742 I5.4194 J2.8028
G02 X26.4787 Y30.1595 I5.2517 J-3.2882
G01 X39.3037 Y30.1865
G02 X39.4387 Y18.3875 I-1.4441 J-5.9168
G01 X26.3707
G02 X22.6113 Y21.4114 I1.6401 J5.8879
G01 X21.4603 Y20.6369
G02 X26.3167 Y31.5365 I6.6136 J3.5849
G01 X39.4117 Y31.5635
G02 X39.6007 Y17.0105 I-1.5078 J-7.2973
G01 X26.2087
G02 X21.4603 Y20.6369 I1.7202 J7.1743
G01 X20.1594 Y20.1283
G02 X26.2087 Y32.9135 I7.8975 J4.0870
G01 X39.4927 Y32.9405
G02 X39.7357 Y15.6335 I-1.5365 J-8.6768
G01 X26.1007
G02 X20.1594 Y20.1283 I1.7952 J8.5470
G01 X18.8476 Y19.6575
G02 X26.1007 Y34.2905 I9.1788 J4.5644
G01 X39.5737 Y34.3175
G02 X39.8437 Y14.2565 I-1.5801 J-10.0536
G01 X25.9657
G02 X18.8476 Y19.6575 I1.9104 J9.9087
G01 X17.5003 Y19.2972
G02 X26.0197 Y35.6675 I10.5124 J4.9311
G01 X39.6277 Y35.6945
G02 X39.9517 Y12.8795 I-1.6025 J-11.4326
G01 X25.9387
G02 X17.5003 Y19.2972 I1.6600 J10.9390
G01 X16.2465 Y18.7346
G02 X15.5009 Y21.1416 I12.1599 J5.0859
G02 X25.9657 Y37.0445 I12.3413 J3.2734
G01 X39.6817 Y37.0715
G02 X40.0057 Y11.5025 I-1.6268 J-12.8072
G01 X26.1817 Y11.4755
G02 X16.2465 Y18.7346 I1.4210 J12.3733
G01 X14.9953 Y18.1470
G02 X14.2134 Y20.5579 I8.8467 J4.2014
G02 X13.7700 Y23.5146 I29.2421 J5.8969
G02 X25.9387 Y38.4215 I13.9801 J1.0080
G01 X39.7087 Y38.4485
G02 X40.0327 Y10.1255 I-1.6225 J-14.1819
G01 X26.2087 Y10.0985
G02 X14.9953 Y18.1470 I1.3599 J13.7302
G01 X13.7000 Y17.6574
G02 X12.4680 Y22.9986 I12.4991 J5.6957
G02 X12.4323 Y25.2640 I24.4321 J1.5173
G02 X26.2627 Y39.8255 I15.2161 J-0.6034
G01 X39.6817
G02 X51.8093 Y31.8150 I-1.4517 J-15.3836
G02 X40.0597 Y8.7485 I-13.7183 J-7.5380
G01 X26.2627 Y8.7215
G02 X13.7000 Y17.6574 I1.2515 J15.0581
G01 X12.3564 Y17.2659
G02 X11.0761 Y23.5778 I14.3260 J6.1917
G02 X11.1421 Y26.1367 I53.4323 J-0.0991
G02 X26.3707 Y41.2025 I16.4079 J-1.3558
G01 X39.6007
G02 X53.4247 Y31.3745 I-1.1356 J-16.2336
G02 X39.9787 Y7.3715 I-15.1081 J-7.3044
G01 X26.3437 Y7.3445
G02 X12.3564 Y17.2659 I1.1003 J16.3715
G01 X11.1816 Y16.5100
G02 X9.7436 Y25.3701 I15.9790 J7.1401
G02 X10.2248 Y28.7270 I39.9002 J-4.0068
G02 X26.5327 Y42.5795 I17.1289 J-3.6395
G01 X39.4387
G02 X55.2607 Y30.3485 I-0.8634 J-17.4661
G02 X39.4387 Y5.9675 I-16.8203 J-6.4089
G01 X26.5327
G02 X11.1816 Y16.5100 I0.8747 J17.7213
G01 X10.4594 Y16.4157
G02 X9.2864 Y27.4737 I17.3485 J7.4314
G02 X12.8842 Y36.1649 I20.9131 J-3.5669
G02 X19.1641 Y41.3614 I14.2391 J-10.8149
G02 X27.4580 Y43.3118 I8.2696 J-16.5556
G01 X38.5419
G02 X52.6471 Y36.7710 I0.0621 J-18.3455
G02 X56.1772 Y29.7758 I-15.8725 J-12.3982
G02 X56.8391 Y20.9206 I-19.8138 J-5.9334
G02 X38.5419 Y5.2535 I-18.2817 J2.8327
G01 X27.4580
G02 X10.4594 Y16.4157 I-0.0219 J18.4911
G00 Z5.0000
G00 X27.5317 Y24.0035
G00 Z-3.5000
G01 Z-6.0000 F900
G01 X27.4777 Y24.1115 F1800
G01 Y24.3545
G01 X27.6397 Y24.6515
G01 X38.2507 Y24.6785
G01 X38.4127 Y24.3005
G01 X38.2777 Y23.9225
G01 X27.5857 Y23.8955
G01 X27.5317 Y24.0035
G01 X26.3418 Y23.2779
G01 X26.1817 Y23.5715
G02 X26.6677 Y25.6505 I1.9441 J0.6418
G01 X27.2077 Y26.0285
G01 X38.6557 Y26.0555
G02 X38.7637 Y22.5455 I-0.8323 J-1.7823
G01 X27.0727 Y22.5185
G01 X26.5057 Y22.9775
G01 X26.3418 Y23.2779
G01 X25.0837 Y22.6734
G02 X26.8837 Y27.4055 I3.0360 J1.5535
G01 X38.9257 Y27.4325
G02 X39.0877 Y21.1685 I-1.1098 J-3.1628
G01 X26.8027 Y21.1415
G02 X25.0837 Y22.6734 I0.9904 J2.8418
G01 X23.7977 Y22.1290
G02 X26.6677 Y28.7825 I4.3264 J2.0795
G01 X39.1147 Y28.8095
G02 X39.2497 Y19.7645 I-1.2810 J-4.5426
G01 X26.5597
G02 X23.7977 Y22.1290 I1.4001 J4.4308
G01 X22.6113 Y21.4114
G02 X22.8734 Y27.4742 I5.4194 J2.8028
G02 X26.4787 Y30.1595 I5.2517 J-3.2882
G01 X39.3037 Y30.1865
G02 X39.4387 Y18.3875 I-1.4441 J-5.9168
G01 X26.3707
G02 X22.6113 Y21.4114 I1.6401 J5.8879
G01 X21.4603 Y20.6369
G02 X26.3167 Y31.5365 I6.6136 J3.5849
G01 X39.4117 Y31.5635
G02 X39.6007 Y17.0105 I-1.5078 J-7.2973
G01 X26.2087
G02 X21.4603 Y20.6369 I1.7202 J7.1743
G01 X20.1594 Y20.1283
G02 X26.2087 Y32.9135 I7.8975 J4.0870
G01 X39.4927 Y32.9405
G02 X39.7357 Y15.6335 I-1.5365 J-8.6768
G01 X26.1007
G02 X20.1594 Y20.1283 I1.7952 J8.5470
G01 X18.8476 Y19.6575
G02 X26.1007 Y34.2905 I9.1788 J4.5644
G01 X39.5737 Y34.3175
G02 X39.8437 Y14.2565 I-1.5801 J-10.0536
G01 X25.9657
G02 X18.8476 Y19.6575 I1.9104 J9.9087
G01 X17.5003 Y19.2972
G02 X26.0197 Y35.6675 I10.5124 J4.9311
G01 X39.6277 Y35.6945
G02 X39.9517 Y12.8795 I-1.6025 J-11.4326
G01 X25.9387
G02 X17.5003 Y19.2972 I1.6600 J10.9390
G01 X16.2465 Y18.7346
G02 X15.5009 Y21.1416 I12.1599 J5.0859
G02 X25.9657 Y37.0445 I12.3413 J3.2734
G01 X39.6817 Y37.0715
G02 X40.0057 Y11.5025 I-1.6268 J-12.8072
G01 X26.1817 Y11.4755
G02 X16.2465 Y18.7346 I1.4210 J12.3733
G01 X14.9953 Y18.1470
G02 X14.2134 Y20.5579 I8.8467 J4.2014
G02 X13.7700 Y23.5146 I29.2421 J5.8969
G02 X25.9387 Y38.4215 I13.9801 J1.0080
G01 X39.7087 Y38.4485
G02 X40.0327 Y10.1255 I-1.6225 J-14.1819
G01 X26.2087 Y10.0985
G02 X14.9953 Y18.1470 I1.3599 J13.7302
G01 X13.7000 Y17.6574
G02 X12.4680 Y22.9986 I12.4991 J5.6957
G02 X12.4323 Y25.2640 I24.4321 J1.5173
G02 X26.2627 Y39.8255 I15.2161 J-0.6034
G01 X39.6817
G02 X51.8093 Y31.8150 I-1.4517 J-15.3836
G02 X40.0597 Y8.7485 I-13.7183 J-7.5380
G01 X26.2627 Y8.7215
G02 X13.7000 Y17.6574 I1.2515 J15.0581
G01 X12.3564 Y17.2659
G02 X11.0761 Y23.5778 I14.3260 J6.1917
G02 X11.1421 Y26.1367 I53.4323 J-0.0991
G02 X26.3707 Y41.2025 I16.4079 J-1.3558
G01 X39.6007
G02 X53.4247 Y31.3745 I-1.1356 J-16.2336
G02 X39.9787 Y7.3715 I-15.1081 J-7.3044
G01 X26.3437 Y7.3445
G02 X12.3564 Y17.2659 I1.1003 J16.3715
G01 X11.1816 Y16.5100
G02 X9.7436 Y25.3701 I15.9790 J7.1401
G02 X10.2248 Y28.7270 I39.9002 J-4.0068
G02 X26.5327 Y42.5795 I17.1289 J-3.6395
G01 X39.4387
G02 X55.2607 Y30.3485 I-0.8634 J-17.4661
G02 X39.4387 Y5.9675 I-16.8203 J-6.4089
G01 X26.5327
G02 X11.1816 Y16.5100 I0.8747 J17.7213
G01 X10.4594 Y16.4157
G02 X9.2864 Y27.4737 I17.3485 J7.4314
G02 X12.8842 Y36.1649 I20.9131 J-3.5669
G02 X19.1641 Y41.3614 I14.2391 J-10.8149
G02 X27.4580 Y43.3118 I8.2696 J-16.5556
G01 X38.5419
G02 X52.6471 Y36.7710 I0.0621 J-18.3455
G02 X56.1772 Y29.7758 I-15.8725 J-12.3982
G02 X56.8391 Y20.9206 I-19.8138 J-5.9334
G02 X38.5419 Y5.2535 I-18.2817 J2.8327
G01 X27.4580
G02 X10.4594 Y16.4157 I-0.0219 J18.4911
G00 Z5.0000
G00 X27.5317 Y24.0035
G00 Z-5.5000
G01 Z-8.0000 F900
G01 X27.4777 Y24.1115 F1800
G01 Y24.3545
G01 X27.6397 Y24.6515
G01 X38.2507 Y24.6785
G01 X38.4127 Y24.3005
G01 X38.2777 Y23.9225
G01 X27.5857 Y23.8955
G01 X27.5317 Y24.0035
G01 X26.3418 Y23.2779
G01 X26.1817 Y23.5715
G02 X26.6677 Y25.6505 I1.9441 J0.6418
G01 X27.2077 Y26.0285
G01 X38.6557 Y26.0555
G02 X38.7637 Y22.5455 I-0.8323 J-1.7823
G01 X27.0727 Y22.5185
G01 X26.5057 Y22.9775
G01 X26.3418 Y23.2779
G01 X25.0837 Y22.6734
G02 X26.8837 Y27.4055 I3.0360 J1.5535
G01 X38.9257 Y27.4325
G02 X39.0877 Y21.1685 I-1.1098 J-3.1628
G01 X26.8027 Y21.1415
G02 X25.0837 Y22.6734 I0.9904 J2.8418
G01 X23.7977 Y22.1290
G02 X26.6677 Y28.7825 I4.3264 J2.0795
G01 X39.1147 Y28.8095
G02 X39.2497 Y19.7645 I-1.2810 J-4.5426
G01 X26.5597
G02 X23.7977 Y22.1290 I1.4001 J4.4308
G01 X22.6113 Y21.4114
G02 X22.8734 Y27.4742 I5.4194 J2.8028
G02 X26.4787 Y30.1595 I5.2517 J-3.2882
G01 X39.3037 Y30.1865
G02 X39.4387 Y18.3875 I-1.4441 J-5.9168
G01 X26.3707
G02 X22.6113 Y21.4114 I1.6401 J5.8879
G01 X21.4603 Y20.6369
G02 X26.3167 Y31.5365 I6.6136 J3.5849
G01 X39.4117 Y31.5635
G02 X39.6007 Y17.0105 I-1.5078 J-7.2973
G01 X26.2087
G02 X21.4603 Y20.6369 I1.7202 J7.1743
G01 X20.1594 Y20.1283
G02 X26.2087 Y32.9135 I7.8975 J4.0870
G01 X39.4927 Y32.9405
G02 X39.7357 Y15.6335 I-1.5365 J-8.6768
G01 X26.1007
G02 X20.1594 Y20.1283 I1.7952 J8.5470
G01 X18.8476 Y19.6575
G02 X26.1007 Y34.2905 I9.1788 J4.5644
G01 X39.5737 Y34.3175
G02 X39.8437 Y14.2565 I-1.5801 J-10.0536
G01 X25.9657
G02 X18.8476 Y19.6575 I1.9104 J9.9087
G01 X17.5003 Y19.2972
G02 X26.0197 Y35.6675 I10.5124 J4.9311
G01 X39.6277 Y35.6945
G02 X39.9517 Y12.8795 I-1.6025 J-11.4326
G01 X25.9387
G02 X17.5003 Y19.2972 I1.6600 J10.9390
G01 X16.2465 Y18.7346
G02 X15.5009 Y21.1416 I12.1599 J5.0859
G02 X25.9657 Y37.0445 I12.3413 J3.2734
G01 X39.6817 Y37.0715
G02 X40.0057 Y11.5025 I-1.6268 J-12.8072
G01 X26.1817 Y11.4755
G02 X16.2465 Y18.7346 I1.4210 J12.3733
G01 X14.9953 Y18.1470
G02 X14.2134 Y20.5579 I8.8467 J4.2014
G02 X13.7700 Y23.5146 I29.2421 J5.8969
G02 X25.9387 Y38.4215 I13.9801 J1.0080
G01 X39.7087 Y38.4485
G02 X40.0327 Y10.1255 I-1.6225 J-14.1819
G01 X26.2087 Y10.0985
G02 X14.9953 Y18.1470 I1.3599 J13.7302
G01 X13.7000 Y17.6574
G02 X12.4680 Y22.9986 I12.4991 J5.6957
G02 X12.4323 Y25.2640 I24.4321 J1.5173
G02 X26.2627 Y39.8255 I15.2161 J-0.6034
G01 X39.6817
G02 X51.8093 Y31.8150 I-1.4517 J-15.3836
G02 X40.0597 Y8.7485 I-13.7183 J-7.5380
G01 X26.2627 Y8.7215
G02 X13.7000 Y17.6574 I1.2515 J15.0581
G01 X12.3564 Y17.2659
G02 X11.0761 Y23.5778 I14.3260 J6.1917
G02 X11.1421 Y26.1367 I53.4323 J-0.0991
G02 X26.3707 Y41.2025 I16.4079 J-1.3558
G01 X39.6007
G02 X53.4247 Y31.3745 I-1.1356 J-16.2336
G02 X39.9787 Y7.3715 I-15.1081 J-7.3044
G01 X26.3437 Y7.3445
G02 X12.3564 Y17.2659 I1.1003 J16.3715
G01 X11.1816 Y16.5100
G02 X9.7436 Y25.3701 I15.9790 J7.1401
G02 X10.2248 Y28.7270 I39.9002 J-4.0068
G02 X26.5327 Y42.5795 I17.1289 J-3.6395
G01 X39.4387
G02 X55.2607 Y30.3485 I-0.8634 J-17.4661
G02 X39.4387 Y5.9675 I-16.8203 J-6.4089
G01 X26.5327
G02 X11.1816 Y16.5100 I0.8747 J17.7213
G01 X10.4594 Y16.4157
G02 X9.2864 Y27.4737 I17.3485 J7.4314
G02 X12.8842 Y36.1649 I20.9131 J-3.5669
G02 X19.1641 Y41.3614 I14.2391 J-10.8149
G02 X27.4580 Y43.3118 I8.2696 J-16.5556
G01 X38.5419
G02 X52.6471 Y36.7710 I0.0621 J-18.3455
G02 X56.1772 Y29.7758 I-15.8725 J-12.3982
G02 X56.8391 Y20.9206 I-19.8138 J-5.9334
G02 X38.5419 Y5.2535 I-18.2817 J2.8327
G01 X27.4580
G02 X10.4594 Y16.4157 I-0.0219 J18.4911
G00 Z5.0000
G00 X27.5317 Y24.0035
G00 Z-7.5000
G01 Z-10.0000 F900
G01 X27.4777 Y24.1115 F1800
G01 Y24.3545
G01 X27.6397 Y24.6515
G01 X38.2507 Y24.6785
G01 X38.4127 Y24.3005
G01 X38.2777 Y23.9225
G01 X27.5857 Y23.8955
G01 X27.5317 Y24.0035
G01 X26.3418 Y23.2779
G01 X26.1817 Y23.5715
G02 X26.6677 Y25.6505 I1.9441 J0.6418
G01 X27.2077 Y26.0285
G01 X38.6557 Y26.0555
G02 X38.7637 Y22.5455 I-0.8323 J-1.7823
G01 X27.0727 Y22.5185
G01 X26.5057 Y22.9775
G01 X26.3418 Y23.2779
G01 X25.0837 Y22.6734
G02 X26.8837 Y27.4055 I3.0360 J1.5535
G01 X38.9257 Y27.4325
G02 X39.0877 Y21.1685 I-1.1098 J-3.1628
G01 X26.8027 Y21.1415
G02 X25.0837 Y22.6734 I0.9904 J2.8418
G01 X23.7977 Y22.1290
G02 X26.6677 Y28.7825 I4.3264 J2.0795
G01 X39.1147 Y28.8095
G02 X39.2497 Y19.7645 I-1.2810 J-4.5426
G01 X26.5597
G02 X23.7977 Y22.1290 I1.4001 J4.4308
G01 X22.6113 Y21.4114
G02 X22.8734 Y27.4742 I5.4194 J2.8028
G02 X26.4787 Y30.1595 I5.2517 J-3.2882
G01 X39.3037 Y30.1865
G02 X39.4387 Y18.3875 I-1.4441 J-5.9168
G01 X26.3707
G02 X22.6113 Y21.4114 I1.6401 J5.8879
G01 X21.4603 Y20.6369
G02 X26.3167 Y31.5365 I6.6136 J3.5849
G01 X39.4117 Y31.5635
G02 X39.6007 Y17.0105 I-1.5078 J-7.2973
G01 X26.2087
G02 X21.4603 Y20.6369 I1.7202 J7.1743
G01 X20.1594 Y20.1283
G02 X26.2087 Y32.9135 I7.8975 J4.0870
G01 X39.4927 Y32.9405
G02 X39.7357 Y15.6335 I-1.5365 J-8.6768
G01 X26.1007
G02 X20.1594 Y20.1283 I1.7952 J8.5470
G01 X18.8476 Y19.6575
G02 X26.1007 Y34.2905 I9.1788 J4.5644
G01 X39.5737 Y34.3175
G02 X39.8437 Y14.2565 I-1.5801 J-10.0536
G01 X25.9657
G02 X18.8476 Y19.6575 I1.9104 J9.9087
G01 X17.5003 Y19.2972
G02 X26.0197 Y35.6675 I10.5124 J4.9311
G01 X39.6277 Y35.6945
G02 X39.9517 Y12.8795 I-1.6025 J-11.4326
G01 X25.9387
G02 X17.5003 Y19.2972 I1.6600 J10.9390
G01 X16.2465 Y18.7346
G02 X15.5009 Y21.1416 I12.1599 J5.0859
G02 X25.9657 Y37.0445 I12.3413 J3.2734
G01 X39.6817 Y37.0715
G02 X40.0057 Y11.5025 I-1.6268 J-12.8072
G01 X26.1817 Y11.4755
G02 X16.2465 Y18.7346 I1.4210 J12.3733
G01 X14.9953 Y18.1470
G02 X14.2134 Y20.5579 I8.8467 J4.2014
G02 X13.7700 Y23.5146 I29.2421 J5.8969
G02 X25.9387 Y38.4215 I13.9801 J1.0080
G01 X39.7087 Y38.4485
G02 X40.0327 Y10.1255 I-1.6225 J-14.1819
G01 X26.2087 Y10.0985
G02 X14.9953 Y18.1470 I1.3599 J13.7302
G01 X13.7000 Y17.6574
G02 X12.4680 Y22.9986 I12.4991 J5.6957
G02 X12.4323 Y25.2640 I24.4321 J1.5173
G02 X26.2627 Y39.8255 I15.2161 J-0.6034
G01 X39.6817
G02 X51.8093 Y31.8150 I-1.4517 J-15.3836
G02 X40.0597 Y8.7485 I-13.7183 J-7.5380
G01 X26.2627 Y8.7215
G02 X13.7000 Y17.6574 I1.2515 J15.0581
G01 X12.3564 Y17.2659
G02 X11.0761 Y23.5778 I14.3260 J6.1917
G02 X11.1421 Y26.1367 I53.4323 J-0.0991
G02 X26.3707 Y41.2025 I16.4079 J-1.3558
G01 X39.6007
G02 X53.4247 Y31.3745 I-1.1356 J-16.2336
G02 X39.9787 Y7.3715 I-15.1081 J-7.3044
G01 X26.3437 Y7.3445
G02 X12.3564 Y17.2659 I1.1003 J16.3715
G01 X11.1816 Y16.5100
G02 X9.7436 Y25.3701 I15.9790 J7.1401
G02 X10.2248 Y28.7270 I39.9002 J-4.0068
G02 X26.5327 Y42.5795 I17.1289 J-3.6395
G01 X39.4387
G02 X55.2607 Y30.3485 I-0.8634 J-17.4661
G02 X39.4387 Y5.9675 I-16.8203 J-6.4089
G01 X26.5327
G02 X11.1816 Y16.5100 I0.8747 J17.7213
G01 X10.4594 Y16.4157
G02 X9.2864 Y27.4737 I17.3485 J7.4314
G02 X12.8842 Y36.1649 I20.9131 J-3.5669
G02 X19.1641 Y41.3614 I14.2391 J-10.8149
G02 X27.4580 Y43.3118 I8.2696 J-16.5556
G01 X38.5419
G02 X52.6471 Y36.7710 I0.0621 J-18.3455
G02 X56.1772 Y29.7758 I-15.8725 J-12.3982
G02 X56.8391 Y20.9206 I-19.8138 J-5.9334
G02 X38.5419 Y5.2535 I-18.2817 J2.8327
G01 X27.4580
G02 X10.4594 Y16.4157 I-0.0219 J18.4911
G00 Z5.0000
G00 X27.5317 Y24.0035
G00 Z-9.5000
G01 Z-12.0000 F900
G01 X27.4777 Y24.1115 F1800
G01 Y24.3545
G01 X27.6397 Y24.6515
G01 X38.2507 Y24.6785
G01 X38.4127 Y24.3005
G01 X38.2777 Y23.9225
G01 X27.5857 Y23.8955
G01 X27.5317 Y24.0035
G01 X26.3418 Y23.2779
G01 X26.1817 Y23.5715
G02 X26.6677 Y25.6505 I1.9441 J0.6418
G01 X27.2077 Y26.0285
G01 X38.6557 Y26.0555
G02 X38.7637 Y22.5455 I-0.8323 J-1.7823
G01 X27.0727 Y22.5185
G01 X26.5057 Y22.9775
G01 X26.3418 Y23.2779
G01 X25.0837 Y22.6734
G02 X26.8837 Y27.4055 I3.0360 J1.5535
G01 X38.9257 Y27.4325
G02 X39.0877 Y21.1685 I-1.1098 J-3.1628
G01 X26.8027 Y21.1415
G02 X25.0837 Y22.6734 I0.9904 J2.8418
G01 X23.7977 Y22.1290
G02 X26.6677 Y28.7825 I4.3264 J2.0795
G01 X39.1147 Y28.8095
G02 X39.2497 Y19.7645 I-1.2810 J-4.5426
G01 X26.5597
G02 X23.7977 Y22.1290 I1.4001 J4.4308
G01 X22.6113 Y21.4114
G02 X22.8734 Y27.4742 I5.4194 J2.8028
G02 X26.4787 Y30.1595 I5.2517 J-3.2882
G01 X39.3037 Y30.1865
G02 X39.4387 Y18.3875 I-1.4441 J-5.9168
G01 X26.3707
G02 X22.6113 Y21.4114 I1.6401 J5.8879
G01 X21.4603 Y20.6369
G02 X26.3167 Y31.5365 I6.6136 J3.5849
G01 X39.4117 Y31.5635
G02 X39.6007 Y17.0105 I-1.5078 J-7.2973
G01 X26.2087
G02 X21.4603 Y20.6369 I1.7202 J7.1743
G01 X20.1594 Y20.1283
G02 X26.2087 Y32.9135 I7.8975 J4.0870
G01 X39.4927 Y32.9405
G02 X39.7357 Y15.6335 I-1.5365 J-8.6768
G01 X26.1007
G02 X20.1594 Y20.1283 I1.7952 J8.5470
G01 X18.8476 Y19.6575
G02 X26.1007 Y34.2905 I9.1788 J4.5644
G01 X39.5737 Y34.3175
G02 X39.8437 Y14.2565 I-1.5801 J-10.0536
G01 X25.9657
G02 X18.8476 Y19.6575 I1.9104 J9.9087
G01 X17.5003 Y19.2972
G02 X26.0197 Y35.6675 I10.5124 J4.9311
G01 X39.6277 Y35.6945
G02 X39.9517 Y12.8795 I-1.6025 J-11.4326
G01 X25.9387
G02 X17.5003 Y19.2972 I1.6600 J10.9390
G01 X16.2465 Y18.7346
G02 X15.5009 Y21.1416 I12.1599 J5.0859
G02 X25.9657 Y37.0445 I12.3413 J3.2734
G01 X39.6817 Y37.0715
G02 X40.0057 Y11.5025 I-1.6268 J-12.8072
G01 X26.1817 Y11.4755
G02 X16.2465 Y18.7346 I1.4210 J12.3733
G01 X14.9953 Y18.1470
G02 X14.2134 Y20.5579 I8.8467 J4.2014
G02 X13.7700 Y23.5146 I29.2421 J5.8969
G02 X25.9387 Y38.4215 I13.9801 J1.0080
G01 X39.7087 Y38.4485
G02 X40.0327 Y10.1255 I-1.6225 J-14.1819
G01 X26.2087 Y10.0985
G02 X14.9953 Y18.1470 I1.3599 J13.7302
G01 X13.7000 Y17.6574
G02 X12.4680 Y22.9986 I12.4991 J5.6957
G02 X12.4323 Y25.2640 I24.4321 J1.5173
G02 X26.2627 Y39.8255 I15.2161 J-0.6034
G01 X39.6817
G02 X51.8093 Y31.8150 I-1.4517 J-15.3836
G02 X40.0597 Y8.7485 I-13.7183 J-7.5380
G01 X26.2627 Y8.7215
G02 X13.7000 Y17.6574 I1.2515 J15.0581
G01 X12.3564 Y17.2659
G02 X11.0761 Y23.5778 I14.3260 J6.1917
G02 X11.1421 Y26.1367 I53.4323 J-0.0991
G02 X26.3707 Y41.2025 I16.4079 J-1.3558
G01 X39.6007
G02 X53.4247 Y31.3745 I-1.1356 J-16.2336
G02 X39.9787 Y7.3715 I-15.1081 J-7.3044
G01 X26.3437 Y7.3445
G02 X12.3564 Y17.2659 I1.1003 J16.3715
G01 X11.1816 Y16.5100
G02 X9.7436 Y25.3701 I15.9790 J7.1401
G02 X10.2248 Y28.7270 I39.9002 J-4.0068
G02 X26.5327 Y42.5795 I17.1289 J-3.6395
G01 X39.4387
G02 X55.2607 Y30.3485 I-0.8634 J-17.4661
G02 X39.4387 Y5.9675 I-16.8203 J-6.4089
G01 X26.5327
G02 X11.1816 Y16.5100 I0.8747 J17.7213
G01 X10.4594 Y16.4157
G02 X9.2864 Y27.4737 I17.3485 J7.4314
G02 X12.8842 Y36.1649 I20.9131 J-3.5669
G02 X19.1641 Y41.3614 I14.2391 J-10.8149
G02 X27.4580 Y43.3118 I8.2696 J-16.5556
G01 X38.5419
G02 X52.6471 Y36.7710 I0.0621 J-18.3455
G02 X56.1772 Y29.7758 I-15.8725 J-12.3982
G02 X56.8391 Y20.9206 I-19.8138 J-5.9334
G02 X38.5419 Y5.2535 I-18.2817 J2.8327
G01 X27.4580
G02 X10.4594 Y16.4157 I-0.0219 J18.4911
G00 Z5.0000
G00 X27.5317 Y24.0035
G00 Z-11.5000
G01 Z-14.0000 F900
G01 X27.4777 Y24.1115 F1800
G01 Y24.3545
G01 X27.6397 Y24.6515
G01 X38.2507 Y24.6785
G01 X38.4127 Y24.3005
G01 X38.2777 Y23.9225
G01 X27.5857 Y23.8955
G01 X27.5317 Y24.0035
G01 X26.3418 Y23.2779
G01 X26.1817 Y23.5715
G02 X26.6677 Y25.6505 I1.9441 J0.6418
G01 X27.2077 Y26.0285
G01 X38.6557 Y26.0555
G02 X38.7637 Y22.5455 I-0.8323 J-1.7823
G01 X27.0727 Y22.5185
G01 X26.5057 Y22.9775
G01 X26.3418 Y23.2779
G01 X25.0837 Y22.6734
G02 X26.8837 Y27.4055 I3.0360 J1.5535
G01 X38.9257 Y27.4325
G02 X39.0877 Y21.1685 I-1.1098 J-3.1628
G01 X26.8027 Y21.1415
G02 X25.0837 Y22.6734 I0.9904 J2.8418
G01 X23.7977 Y22.1290
G02 X26.6677 Y28.7825 I4.3264 J2.0795
G01 X39.1147 Y28.8095
G02 X39.2497 Y19.7645 I-1.2810 J-4.5426
G01 X26.5597
G02 X23.7977 Y22.1290 I1.4001 J4.4308
G01 X22.6113 Y21.4114
G02 X22.8734 Y27.4742 I5.4194 J2.8028
G02 X26.4787 Y30.1595 I5.2517 J-3.2882
G01 X39.3037 Y30.1865
G02 X39.4387 Y18.3875 I-1.4441 J-5.9168
G01 X26.3707
G02 X22.6113 Y21.4114 I1.6401 J5.8879
G01 X21.4603 Y20.6369
G02 X26.3167 Y31.5365 I6.6136 J3.5849
G01 X39.4117 Y31.5635
G02 X39.6007 Y17.0105 I-1.5078 J-7.2973
G01 X26.2087
G02 X21.4603 Y20.6369 I1.7202 J7.1743
G01 X20.1594 Y20.1283
G02 X26.2087 Y32.9135 I7.8975 J4.0870
G01 X39.4927 Y32.9405
G02 X39.7357 Y15.6335 I-1.5365 J-8.6768
G01 X26.1007
G02 X20.1594 Y20.1283 I1.7952 J8.5470
G01 X18.8476 Y19.6575
G02 X26.1007 Y34.2905 I9.1788 J4.5644
G01 X39.5737 Y34.3175
G02 X39.8437 Y14.2565 I-1.5801 J-10.0536
G01 X25.9657
G02 X18.8476 Y19.6575 I1.9104 J9.9087
G01 X17.5003 Y19.2972
G02 X26.0197 Y35.6675 I10.5124 J4.9311
G01 X39.6277 Y35.6945
G02 X39.9517 Y12.8795 I-1.6025 J-11.4326
G01 X25.9387
G02 X17.5003 Y19.2972 I1.6600 J10.9390
G01 X16.2465 Y18.7346
G02 X15.5009 Y21.1416 I12.1599 J5.0859
G02 X25.9657 Y37.0445 I12.3413 J3.2734
G01 X39.6817 Y37.0715
G02 X40.0057 Y11.5025 I-1.6268 J-12.8072
G01 X26.1817 Y11.4755
G02 X16.2465 Y18.7346 I1.4210 J12.3733
G01 X14.9953 Y18.1470
G02 X14.2134 Y20.5579 I8.8467 J4.2014
G02 X13.7700 Y23.5146 I29.2421 J5.8969
G02 X25.9387 Y38.4215 I13.9801 J1.0080
G01 X39.7087 Y38.4485
G02 X40.0327 Y10.1255 I-1.6225 J-14.1819
G01 X26.2087 Y10.0985
G02 X14.9953 Y18.1470 I1.3599 J13.7302
G01 X13.7000 Y17.6574
G02 X12.4680 Y22.9986 I12.4991 J5.6957
G02 X12.4323 Y25.2640 I24.4321 J1.5173
G02 X26.2627 Y39.8255 I15.2161 J-0.6034
G01 X39.6817
G02 X51.8093 Y31.8150 I-1.4517 J-15.3836
G02 X40.0597 Y8.7485 I-13.7183 J-7.5380
G01 X26.2627 Y8.7215
G02 X13.7000 Y17.6574 I1.2515 J15.0581
G01 X12.3564 Y17.2659
G02 X11.0761 Y23.5778 I14.3260 J6.1917
G02 X11.1421 Y26.1367 I53.4323 J-0.0991
G02 X26.3707 Y41.2025 I16.4079 J-1.3558
G01 X39.6007
G02 X53.4247 Y31.3745 I-1.1356 J-16.2336
G02 X39.9787 Y7.3715 I-15.1081 J-7.3044
G01 X26.3437 Y7.3445
G02 X12.3564 Y17.2659 I1.1003 J16.3715
G01 X11.1816 Y16.5100
G02 X9.7436 Y25.3701 I15.9790 J7.1401
G02 X10.2248 Y28.7270 I39.9002 J-4.0068
G02 X26.5327 Y42.5795 I17.1289 J-3.6395
G01 X39.4387
G02 X55.2607 Y30.3485 I-0.8634 J-17.4661
G02 X39.4387 Y5.9675 I-16.8203 J-6.4089
G01 X26.5327
G02 X11.1816 Y16.5100 I0.8747 J17.7213
G01 X10.4594 Y16.4157
G02 X9.2864 Y27.4737 I17.3485 J7.4314
G02 X12.8842 Y36.1649 I20.9131 J-3.5669
G02 X19.1641 Y41.3614 I14.2391 J-10.8149
G02 X27.4580 Y43.3118 I8.2696 J-16.5556
G01 X38.5419
G02 X52.6471 Y36.7710 I0.0621 J-18.3455
G02 X56.1772 Y29.7758 I-15.8725 J-12.3982
G02 X56.8391 Y20.9206 I-19.8138 J-5.9334
G02 X38.5419 Y5.2535 I-18.2817 J2.8327
G01 X27.4580
G02 X10.4594 Y16.4157 I-0.0219 J18.4911
G00 Z5.0000
G00 X27.5317 Y24.0035
G00 Z-13.5000
G01 Z-15.0000 F900
G01 X27.4777 Y24.1115 F1800
G01 Y24.3545
G01 X27.6397 Y24.6515
G01 X38.2507 Y24.6785
G01 X38.4127 Y24.3005
G01 X38.2777 Y23.9225
G01 X27.5857 Y23.8955
G01 X27.5317 Y24.0035
G01 X26.3418 Y23.2779
G01 X26.1817 Y23.5715
G02 X26.6677 Y25.6505 I1.9441 J0.6418
G01 X27.2077 Y26.0285
G01 X38.6557 Y26.0555
G02 X38.7637 Y22.5455 I-0.8323 J-1.7823
G01 X27.0727 Y22.5185
G01 X26.5057 Y22.9775
G01 X26.3418 Y23.2779
G01 X25.0837 Y22.6734
G02 X26.8837 Y27.4055 I3.0360 J1.5535
G01 X38.9257 Y27.4325
G02 X39.0877 Y21.1685 I-1.1098 J-3.1628
G01 X26.8027 Y21.1415
G02 X25.0837 Y22.6734 I0.9904 J2.8418
G01 X23.7977 Y22.1290
G02 X26.6677 Y28.7825 I4.3264 J2.0795
G01 X39.1147 Y28.8095
G02 X39.2497 Y19.7645 I-1.2810 J-4.5426
G01 X26.5597
G02 X23.7977 Y22.1290 I1.4001 J4.4308
G01 X22.6113 Y21.4114
G02 X22.8734 Y27.4742 I5.4194 J2.8028
G02 X26.4787 Y30.1595 I5.2517 J-3.2882
G01 X39.3037 Y30.1865
G02 X39.4387 Y18.3875 I-1.4441 J-5.9168
G01 X26.3707
G02 X22.6113 Y21.4114 I1.6401 J5.8879
G01 X21.4603 Y20.6369
G02 X26.3167 Y31.5365 I6.6136 J3.5849
G01 X39.4117 Y31.5635
G02 X39.6007 Y17.0105 I-1.5078 J-7.2973
G01 X26.2087
G02 X21.4603 Y20.6369 I1.7202 J7.1743
G01 X20.1594 Y20.1283
G02 X26.2087 Y32.9135 I7.8975 J4.0870
G01 X39.4927 Y32.9405
G02 X39.7357 Y15.6335 I-1.5365 J-8.6768
G01 X26.1007
G02 X20.1594 Y20.1283 I1.7952 J8.5470
G01 X18.8476 Y19.6575
G02 X26.1007 Y34.2905 I9.1788 J4.5644
G01 X39.5737 Y34.3175
G02 X39.8437 Y14.2565 I-1.5801 J-10.0536
G01 X25.9657
G02 X18.8476 Y19.6575 I1.9104 J9.9087
G01 X17.5003 Y19.2972
G02 X26.0197 Y35.6675 I10.5124 J4.9311
G01 X39.6277 Y35.6945
G02 X39.9517 Y12.8795 I-1.6025 J-11.4326
G01 X25.9387
G02 X17.5003 Y19.2972 I1.6600 J10.9390
G01 X16.2465 Y18.7346
G02 X15.5009 Y21.1416 I12.1599 J5.0859
G02 X25.9657 Y37.0445 I12.3413 J3.2734
G01 X39.6817 Y37.0715
G02 X40.0057 Y11.5025 I-1.6268 J-12.8072
G01 X26.1817 Y11.4755
G02 X16.2465 Y18.7346 I1.4210 J12.3733
G01 X14.9953 Y18.1470
G02 X14.2134 Y20.5579 I8.8467 J4.2014
G02 X13.7700 Y23.5146 I29.2421 J5.8969
G02 X25.9387 Y38.4215 I13.9801 J1.0080
G01 X39.7087 Y38.4485
G02 X40.0327 Y10.1255 I-1.6225 J-14.1819
G01 X26.2087 Y10.0985
G02 X14.9953 Y18.1470 I1.3599 J13.7302
G01 X13.7000 Y17.6574
G02 X12.4680 Y22.9986 I12.4991 J5.6957
G02 X12.4323 Y25.2640 I24.4321 J1.5173
G02 X26.2627 Y39.8255 I15.2161 J-0.6034
G01 X39.6817
G02 X51.8093 Y31.8150 I-1.4517 J-15.3836
G02 X40.0597 Y8.7485 I-13.7183 J-7.5380
G01 X26.2627 Y8.7215
G02 X13.7000 Y17.6574 I1.2515 J15.0581
G01 X12.3564 Y17.2659
G02 X11.0761 Y23.5778 I14.3260 J6.1917
G02 X11.1421 Y26.1367 I53.4323 J-0.0991
G02 X26.3707 Y41.2025 I16.4079 J-1.3558
G01 X39.6007
G02 X53.4247 Y31.3745 I-1.1356 J-16.2336
G02 X39.9787 Y7.3715 I-15.1081 J-7.3044
G01 X26.3437 Y7.3445
G02 X12.3564 Y17.2659 I1.1003 J16.3715
G01 X11.1816 Y16.5100
G02 X9.7436 Y25.3701 I15.9790 J7.1401
G02 X10.2248 Y28.7270 I39.9002 J-4.0068
G02 X26.5327 Y42.5795 I17.1289 J-3.6395
G01 X39.4387
G02 X55.2607 Y30.3485 I-0.8634 J-17.4661
G02 X39.4387 Y5.9675 I-16.8203 J-6.4089
G01 X26.5327
G02 X11.1816 Y16.5100 I0.8747 J17.7213
G01 X10.4594 Y16.4157
G02 X9.2864 Y27.4737 I17.3485 J7.4314
G02 X12.8842 Y36.1649 I20.9131 J-3.5669
G02 X19.1641 Y41.3614 I14.2391 J-10.8149
G02 X27.4580 Y43.3118 I8.2696 J-16.5556
G01 X38.5419
G02 X52.6471 Y36.7710 I0.0621 J-18.3455
G02 X56.1772 Y29.7758 I-15.8725 J-12.3982
G02 X56.8391 Y20.9206 I-19.8138 J-5.9334
G02 X38.5419 Y5.2535 I-18.2817 J2.8327
G01 X27.4580
G02 X10.4594 Y16.4157 I-0.0219 J18.4911
G00 Z5.0000


(No. 2: Taglio 3)
G00 X31.9721 Y23.5311 Z5.0000
G00 Z-14.5000
G01 Z-17.0000 F900
G02 X33.9826 Y24.3459 I1.0139 J0.3859 F1800
G02 X31.9721 Y23.5311 I-0.9962 J-0.4298
G01 X30.6715 Y23.0572
G02 X33.4136 Y26.3347 I2.3172 J0.8472
G02 X34.8810 Y22.3212 I-0.4249 J-2.4303
G02 X30.6715 Y23.0572 I-1.8923 J1.5832
G01 X29.3620 Y22.6133
G02 X36.5627 Y25.3232 I3.6292 J1.2783
G02 X29.3620 Y22.6133 I-3.5702 J-1.4352
G01 X28.7659 Y22.2580
G02 X33.6865 Y28.4092 I4.2360 J1.6551
G02 X36.5533 Y21.0722 I-0.6846 J-4.4961
G02 X28.7659 Y22.2580 I-3.5514 J2.8409
G00 Z5.0000
G00 X32.0095 Y23.4443
G00 Z-16.5000
G01 Z-19.0000 F900
G02 X33.9414 Y24.4311 I0.9765 J0.4728 F1800
G02 X32.0095 Y23.4443 I-0.9549 J-0.5150
G01 X30.7854 Y22.7940
G02 X33.1286 Y26.3676 I2.2032 J1.1104
G02 X35.0519 Y22.5516 I-0.1400 J-2.4632
G02 X30.7854 Y22.7940 I-2.0632 J1.3528
G01 X29.4874 Y22.3010
G02 X36.4241 Y25.6291 I3.5036 J1.5907
G02 X29.4874 Y22.3010 I-3.4315 J-1.7409
G01 X28.9025 Y21.9438
G02 X33.3460 Y28.4481 I4.0994 J1.9694
G02 X36.7571 Y21.3478 I-0.3441 J-4.5349
G02 X28.9025 Y21.9438 I-3.7552 J2.5654
G00 Z5.0000
G00 X32.0096 Y23.4443
G00 Z-18.5000
G01 Z-21.0000 F900
G02 X33.9414 Y24.4311 I0.9764 J0.4728 F1800
G02 X32.0096 Y23.4443 I-0.9549 J-0.5150
G01 X30.7854 Y22.7940
G02 X33.1286 Y26.3676 I2.2032 J1.1104
G02 X35.0519 Y22.5516 I-0.1400 J-2.4632
G02 X30.7854 Y22.7940 I-2.0632 J1.3528
G01 X29.4874 Y22.3010
G02 X36.4241 Y25.6291 I3.5036 J1.5907
G02 X29.4874 Y22.3010 I-3.4315 J-1.7409
G01 X28.9025 Y21.9438
G02 X33.3460 Y28.4481 I4.0994 J1.9694
G02 X36.7571 Y21.3478 I-0.3441 J-4.5349
G02 X28.9025 Y21.9438 I-3.7552 J2.5654
G00 Z5.0000
G00 X32.0096 Y23.4443
G00 Z-20.5000
G01 Z-23.0000 F900
G02 X33.9414 Y24.4311 I0.9764 J0.4728 F1800
G02 X32.0096 Y23.4443 I-0.9549 J-0.5150
G01 X30.7854 Y22.7940
G02 X33.1286 Y26.3676 I2.2032 J1.1104
G02 X35.0519 Y22.5516 I-0.1400 J-2.4632
G02 X30.7854 Y22.7940 I-2.0632 J1.3528
G01 X29.4874 Y22.3010
G02 X36.4241 Y25.6291 I3.5036 J1.5907
G02 X29.4874 Y22.3010 I-3.4315 J-1.7409
G01 X28.9025 Y21.9438
G02 X33.3460 Y28.4481 I4.0994 J1.9694
G02 X36.7571 Y21.3478 I-0.3441 J-4.5349
G02 X28.9025 Y21.9438 I-3.7552 J2.5654
G00 Z5.0000
G00 X32.0096 Y23.4443
G00 Z-22.5000
G01 Z-25.0000 F900
G02 X33.9414 Y24.4311 I0.9764 J0.4728 F1800
G02 X32.0096 Y23.4443 I-0.9549 J-0.5150
G01 X30.7854 Y22.7940
G02 X33.1286 Y26.3676 I2.2032 J1.1104
G02 X35.0519 Y22.5516 I-0.1400 J-2.4632
G02 X30.7854 Y22.7940 I-2.0632 J1.3528
G01 X29.4874 Y22.3010
G02 X36.4241 Y25.6291 I3.5036 J1.5907
G02 X29.4874 Y22.3010 I-3.4315 J-1.7409
G01 X28.9025 Y21.9438
G02 X33.3460 Y28.4481 I4.0994 J1.9694
G02 X36.7571 Y21.3478 I-0.3441 J-4.5349
G02 X28.9025 Y21.9438 I-3.7552 J2.5654
G00 Z5.0000
G00 X32.0096 Y23.4443
G00 Z-24.5000
G01 Z-27.0000 F900
G02 X33.9414 Y24.4311 I0.9764 J0.4728 F1800
G02 X32.0096 Y23.4443 I-0.9549 J-0.5150
G01 X30.7854 Y22.7940
G02 X33.1286 Y26.3676 I2.2032 J1.1104
G02 X35.0519 Y22.5516 I-0.1400 J-2.4632
G02 X30.7854 Y22.7940 I-2.0632 J1.3528
G01 X29.4874 Y22.3010
G02 X36.4241 Y25.6291 I3.5036 J1.5907
G02 X29.4874 Y22.3010 I-3.4315 J-1.7409
G01 X28.9025 Y21.9438
G02 X33.3460 Y28.4481 I4.0994 J1.9694
G02 X36.7571 Y21.3478 I-0.3441 J-4.5349
G02 X28.9025 Y21.9438 I-3.7552 J2.5654
G00 Z5.0000
G00 X32.0096 Y23.4443
G00 Z-26.5000
G01 Z-28.0000 F900
G02 X33.9414 Y24.4311 I0.9764 J0.4728 F1800
G02 X32.0096 Y23.4443 I-0.9549 J-0.5150
G01 X30.7854 Y22.7940
G02 X33.1286 Y26.3676 I2.2032 J1.1104
G02 X35.0519 Y22.5516 I-0.1400 J-2.4632
G02 X30.7854 Y22.7940 I-2.0632 J1.3528
G01 X29.4874 Y22.3010
G02 X36.4241 Y25.6291 I3.5036 J1.5907
G02 X29.4874 Y22.3010 I-3.4315 J-1.7409
G01 X28.9025 Y21.9438
G02 X33.3460 Y28.4481 I4.0994 J1.9694
G02 X36.7571 Y21.3478 I-0.3441 J-4.5349
G02 X28.9025 Y21.9438 I-3.7552 J2.5654
G00 Z5.0000


(No. 3: Parte 1)
G00 X-1.5000 Y22.7500 Z5.0000
G00 Z0.5000
G01 Z0.0000 F900
G01 Z-2.0000
G01 Y0.0000 F1800
G03 X0.0000 Y-1.5000 I1.5000 J0.0000
G01 X28.4760
G01 X28.4708 Y-5.8190
G03 X29.9708 Y-7.3208 I1.5000 J-0.0018
G01 X36.0291
G03 X37.5291 Y-5.8208 I0.0000 J1.5000
G01 Y-1.5000
G01 X66.0000
G03 X67.5000 Y0.0000 I0.0000 J1.5000
G01 Y22.7500
G00 Z0.0000
G01 Y27.2500
G01 Z-2.0000 F900
G01 Y50.0000 F1800
G03 X66.0000 Y51.5000 I-1.5000 J0.0000
G01 X35.2500
G00 Z0.0000
G01 X30.7500
G01 Z-2.0000 F900
G01 X0.5813 F1800
G00 Z0.0000
G03 X-0.3882 Y51.4489 I-0.3442 J-2.6921
G03 X-1.5000 Y50.0000 I0.3882 J-1.4489
G01 Y48.4371
G01 Z-2.0000 F900
G01 Y27.2500 F1800
G00 Z0.0000
G01 Y22.7500
G00 Z-1.5000
G01 Z-2.0000 F900
G01 Z-4.0000
G01 Y0.0000 F1800
G03 X0.0000 Y-1.5000 I1.5000 J0.0000
G01 X28.4760
G01 X28.4708 Y-5.8190
G03 X29.9708 Y-7.3208 I1.5000 J-0.0018
G01 X36.0291
G03 X37.5291 Y-5.8208 I0.0000 J1.5000
G01 Y-1.5000
G01 X66.0000
G03 X67.5000 Y0.0000 I0.0000 J1.5000
G01 Y22.7500
G00 Z0.0000
G01 Y27.2500
G00 Z-1.5000
G01 Z-2.0000 F900
G01 Z-4.0000
G01 Y50.0000 F1800
G03 X66.0000 Y51.5000 I-1.5000 J0.0000
G01 X35.2500
G00 Z0.0000
G01 X30.7500
G00 Z-1.5000
G01 Z-2.0000 F900
G01 Z-4.0000
G01 X0.5813 F1800
G00 Z0.0000
G03 X-0.3882 Y51.4489 I-0.3442 J-2.6921
G03 X-1.5000 Y50.0000 I0.3882 J-1.4489
G01 Y48.4371
G00 Z-1.5000
G01 Z-2.0000 F900
G01 Z-4.0000
G01 Y27.2500 F1800
G00 Z0.0000
G01 Y22.7500
G00 Z-3.5000
G01 Z-4.0000 F900
G01 Z-6.0000
G01 Y0.0000 F1800
G03 X0.0000 Y-1.5000 I1.5000 J0.0000
G01 X28.4760
G01 X28.4708 Y-5.8190
G03 X29.9708 Y-7.3208 I1.5000 J-0.0018
G01 X36.0291
G03 X37.5291 Y-5.8208 I0.0000 J1.5000
G01 Y-1.5000
G01 X66.0000
G03 X67.5000 Y0.0000 I0.0000 J1.5000
G01 Y22.7500
G00 Z0.0000
G01 Y27.2500
G00 Z-3.5000
G01 Z-4.0000 F900
G01 Z-6.0000
G01 Y50.0000 F1800
G03 X66.0000 Y51.5000 I-1.5000 J0.0000
G01 X35.2500
G00 Z0.0000
G01 X30.7500
G00 Z-3.5000
G01 Z-4.0000 F900
G01 Z-6.0000
G01 X0.5813 F1800
G00 Z0.0000
G03 X-0.3882 Y51.4489 I-0.3442 J-2.6921
G03 X-1.5000 Y50.0000 I0.3882 J-1.4489
G01 Y48.4371
G00 Z-3.5000
G01 Z-4.0000 F900
G01 Z-6.0000
G01 Y27.2500 F1800
G00 Z0.0000
G01 Y22.7500
G00 Z-5.5000
G01 Z-6.0000 F900
G01 Z-8.0000
G01 Y0.0000 F1800
G03 X0.0000 Y-1.5000 I1.5000 J0.0000
G01 X28.4760
G01 X28.4708 Y-5.8190
G03 X29.9708 Y-7.3208 I1.5000 J-0.0018
G01 X36.0291
G03 X37.5291 Y-5.8208 I0.0000 J1.5000
G01 Y-1.5000
G01 X66.0000
G03 X67.5000 Y0.0000 I0.0000 J1.5000
G01 Y22.7500
G00 Z0.0000
G01 Y27.2500
G00 Z-5.5000
G01 Z-6.0000 F900
G01 Z-8.0000
G01 Y50.0000 F1800
G03 X66.0000 Y51.5000 I-1.5000 J0.0000
G01 X35.2500
G00 Z0.0000
G01 X30.7500
G00 Z-5.5000
G01 Z-6.0000 F900
G01 Z-8.0000
G01 X0.5813 F1800
G00 Z0.0000
G03 X-0.3882 Y51.4489 I-0.3442 J-2.6921
G03 X-1.5000 Y50.0000 I0.3882 J-1.4489
G01 Y48.4371
G00 Z-5.5000
G01 Z-6.0000 F900
G01 Z-8.0000
G01 Y27.2500 F1800
G00 Z0.0000
G01 Y22.7500
G00 Z-7.5000
G01 Z-8.0000 F900
G01 Z-10.0000
G01 Y0.0000 F1800
G03 X0.0000 Y-1.5000 I1.5000 J0.0000
G01 X28.4760
G01 X28.4708 Y-5.8190
G03 X29.9708 Y-7.3208 I1.5000 J-0.0018
G01 X36.0291
G03 X37.5291 Y-5.8208 I0.0000 J1.5000
G01 Y-1.5000
G01 X66.0000
G03 X67.5000 Y0.0000 I0.0000 J1.5000
G01 Y22.7500
G00 Z0.0000
G01 Y27.2500
G00 Z-7.5000
G01 Z-8.0000 F900
G01 Z-10.0000
G01 Y50.0000 F1800
G03 X66.0000 Y51.5000 I-1.5000 J0.0000
G01 X35.2500
G00 Z0.0000
G01 X30.7500
G00 Z-7.5000
G01 Z-8.0000 F900
G01 Z-10.0000
G01 X0.5813 F1800
G00 Z0.0000
G03 X-0.3882 Y51.4489 I-0.3442 J-2.6921
G03 X-1.5000 Y50.0000 I0.3882 J-1.4489
G01 Y48.4371
G00 Z-7.5000
G01 Z-8.0000 F900
G01 Z-10.0000
G01 Y27.2500 F1800
G00 Z0.0000
G01 Y22.7500
G00 Z-9.5000
G01 Z-10.0000 F900
G01 Z-12.0000
G01 Y0.0000 F1800
G03 X0.0000 Y-1.5000 I1.5000 J0.0000
G01 X28.4760
G01 X28.4708 Y-5.8190
G03 X29.9708 Y-7.3208 I1.5000 J-0.0018
G01 X36.0291
G03 X37.5291 Y-5.8208 I0.0000 J1.5000
G01 Y-1.5000
G01 X66.0000
G03 X67.5000 Y0.0000 I0.0000 J1.5000
G01 Y22.7500
G00 Z0.0000
G01 Y27.2500
G00 Z-9.5000
G01 Z-10.0000 F900
G01 Z-12.0000
G01 Y50.0000 F1800
G03 X66.0000 Y51.5000 I-1.5000 J0.0000
G01 X35.2500
G00 Z0.0000
G01 X30.7500
G00 Z-9.5000
G01 Z-10.0000 F900
G01 Z-12.0000
G01 X0.5813 F1800
G00 Z0.0000
G03 X-0.3882 Y51.4489 I-0.3442 J-2.6921
G03 X-1.5000 Y50.0000 I0.3882 J-1.4489
G01 Y48.4371
G00 Z-9.5000
G01 Z-10.0000 F900
G01 Z-12.0000
G01 Y27.2500 F1800
G00 Z0.0000
G01 Y22.7500
G00 Z-11.5000
G01 Z-12.0000 F900
G01 Z-14.0000
G01 Y0.0000 F1800
G03 X0.0000 Y-1.5000 I1.5000 J0.0000
G01 X28.4760
G01 X28.4708 Y-5.8190
G03 X29.9708 Y-7.3208 I1.5000 J-0.0018
G01 X36.0291
G03 X37.5291 Y-5.8208 I0.0000 J1.5000
G01 Y-1.5000
G01 X66.0000
G03 X67.5000 Y0.0000 I0.0000 J1.5000
G01 Y22.7500
G00 Z0.0000
G01 Y27.2500
G00 Z-11.5000
G01 Z-12.0000 F900
G01 Z-14.0000
G01 Y50.0000 F1800
G03 X66.0000 Y51.5000 I-1.5000 J0.0000
G01 X35.2500
G00 Z0.0000
G01 X30.7500
G00 Z-11.5000
G01 Z-12.0000 F900
G01 Z-14.0000
G01 X0.5813 F1800
G00 Z0.0000
G03 X-0.3882 Y51.4489 I-0.3442 J-2.6921
G03 X-1.5000 Y50.0000 I0.3882 J-1.4489
G01 Y48.4371
G00 Z-11.5000
G01 Z-12.0000 F900
G01 Z-14.0000
G01 Y27.2500 F1800
G00 Z0.0000
G01 Y22.7500
G00 Z-13.5000
G01 Z-14.0000 F900
G01 Z-16.0000
G01 Y0.0000 F1800
G03 X0.0000 Y-1.5000 I1.5000 J0.0000
G01 X28.4760
G01 X28.4708 Y-5.8190
G03 X29.9708 Y-7.3208 I1.5000 J-0.0018
G01 X36.0291
G03 X37.5291 Y-5.8208 I0.0000 J1.5000
G01 Y-1.5000
G01 X66.0000
G03 X67.5000 Y0.0000 I0.0000 J1.5000
G01 Y22.7500
G00 Z0.0000
G01 Y27.2500
G00 Z-13.5000
G01 Z-14.0000 F900
G01 Z-16.0000
G01 Y50.0000 F1800
G03 X66.0000 Y51.5000 I-1.5000 J0.0000
G01 X35.2500
G00 Z0.0000
G01 X30.7500
G00 Z-13.5000
G01 Z-14.0000 F900
G01 Z-16.0000
G01 X0.5813 F1800
G00 Z0.0000
G03 X-0.3882 Y51.4489 I-0.3442 J-2.6921
G03 X-1.5000 Y50.0000 I0.3882 J-1.4489
G01 Y48.4371
G00 Z-13.5000
G01 Z-14.0000 F900
G01 Z-16.0000
G01 Y27.2500 F1800
G00 Z0.0000
G01 Y22.7500
G00 Z-15.5000
G01 Z-16.0000 F900
G01 Z-18.0000
G01 Y0.0000 F1800
G03 X0.0000 Y-1.5000 I1.5000 J0.0000
G01 X28.4760
G01 X28.4708 Y-5.8190
G03 X29.9708 Y-7.3208 I1.5000 J-0.0018
G01 X36.0291
G03 X37.5291 Y-5.8208 I0.0000 J1.5000
G01 Y-1.5000
G01 X66.0000
G03 X67.5000 Y0.0000 I0.0000 J1.5000
G01 Y22.7500
G00 Z0.0000
G01 Y27.2500
G00 Z-15.5000
G01 Z-16.0000 F900
G01 Z-18.0000
G01 Y50.0000 F1800
G03 X66.0000 Y51.5000 I-1.5000 J0.0000
G01 X35.2500
G00 Z0.0000
G01 X30.7500
G00 Z-15.5000
G01 Z-16.0000 F900
G01 Z-18.0000
G01 X0.5813 F1800
G00 Z0.0000
G03 X-0.3882 Y51.4489 I-0.3442 J-2.6921
G03 X-1.5000 Y50.0000 I0.3882 J-1.4489
G01 Y48.4371
G00 Z-15.5000
G01 Z-16.0000 F900
G01 Z-18.0000
G01 Y27.2500 F1800
G00 Z0.0000
G01 Y22.7500
G00 Z-17.5000
G01 Z-18.0000 F900
G01 Z-20.0000
G01 Y0.0000 F1800
G03 X0.0000 Y-1.5000 I1.5000 J0.0000
G01 X28.4760
G01 X28.4708 Y-5.8190
G03 X29.9708 Y-7.3208 I1.5000 J-0.0018
G01 X36.0291
G03 X37.5291 Y-5.8208 I0.0000 J1.5000
G01 Y-1.5000
G01 X66.0000
G03 X67.5000 Y0.0000 I0.0000 J1.5000
G01 Y22.7500
G00 Z0.0000
G01 Y27.2500
G00 Z-17.5000
G01 Z-18.0000 F900
G01 Z-20.0000
G01 Y50.0000 F1800
G03 X66.0000 Y51.5000 I-1.5000 J0.0000
G01 X35.2500
G00 Z0.0000
G01 X30.7500
G00 Z-17.5000
G01 Z-18.0000 F900
G01 Z-20.0000
G01 X0.5813 F1800
G00 Z0.0000
G03 X-0.3882 Y51.4489 I-0.3442 J-2.6921
G03 X-1.5000 Y50.0000 I0.3882 J-1.4489
G01 Y48.4371
G00 Z-17.5000
G01 Z-18.0000 F900
G01 Z-20.0000
G01 Y27.2500 F1800
G00 Z0.0000
G01 Y22.7500
G00 Z-19.5000
G01 Z-20.0000 F900
G01 Z-22.0000
G01 Y0.0000 F1800
G03 X0.0000 Y-1.5000 I1.5000 J0.0000
G01 X28.4760
G01 X28.4708 Y-5.8190
G03 X29.9708 Y-7.3208 I1.5000 J-0.0018
G01 X36.0291
G03 X37.5291 Y-5.8208 I0.0000 J1.5000
G01 Y-1.5000
G01 X66.0000
G03 X67.5000 Y0.0000 I0.0000 J1.5000
G01 Y22.7500
G00 Z0.0000
G01 Y27.2500
G00 Z-19.5000
G01 Z-20.0000 F900
G01 Z-22.0000
G01 Y50.0000 F1800
G03 X66.0000 Y51.5000 I-1.5000 J0.0000
G01 X35.2500
G00 Z0.0000
G01 X30.7500
G00 Z-19.5000
G01 Z-20.0000 F900
G01 Z-22.0000
G01 X0.5813 F1800
G00 Z0.0000
G03 X-0.3882 Y51.4489 I-0.3442 J-2.6921
G03 X-1.5000 Y50.0000 I0.3882 J-1.4489
G01 Y48.4371
G00 Z-19.5000
G01 Z-20.0000 F900
G01 Z-22.0000
G01 Y27.2500 F1800
G00 Z0.0000
G01 Y22.7500
G00 Z-21.5000
G01 Z-22.0000 F900
G01 Z-24.0000
G01 Y0.0000 F1800
G03 X0.0000 Y-1.5000 I1.5000 J0.0000
G01 X28.4760
G01 X28.4708 Y-5.8190
G03 X29.9708 Y-7.3208 I1.5000 J-0.0018
G01 X36.0291
G03 X37.5291 Y-5.8208 I0.0000 J1.5000
G01 Y-1.5000
G01 X66.0000
G03 X67.5000 Y0.0000 I0.0000 J1.5000
G01 Y22.7500
G00 Z0.0000
G01 Y27.2500
G00 Z-21.5000
G01 Z-22.0000 F900
G01 Z-24.0000
G01 Y50.0000 F1800
G03 X66.0000 Y51.5000 I-1.5000 J0.0000
G01 X35.2500
G00 Z0.0000
G01 X30.7500
G00 Z-21.5000
G01 Z-22.0000 F900
G01 Z-24.0000
G01 X0.5813 F1800
G00 Z0.0000
G03 X-0.3882 Y51.4489 I-0.3442 J-2.6921
G03 X-1.5000 Y50.0000 I0.3882 J-1.4489
G01 Y48.4371
G00 Z-21.5000
G01 Z-22.0000 F900
G01 Z-24.0000
G01 Y27.2500 F1800
G00 Z0.0000
G01 Y22.7500
G00 Z-23.5000
G01 Z-24.0000 F900
G01 Z-26.0000
G01 Y0.0000 F1800
G03 X0.0000 Y-1.5000 I1.5000 J0.0000
G01 X28.4760
G01 X28.4708 Y-5.8190
G03 X29.9708 Y-7.3208 I1.5000 J-0.0018
G01 X36.0291
G03 X37.5291 Y-5.8208 I0.0000 J1.5000
G01 Y-1.5000
G01 X66.0000
G03 X67.5000 Y0.0000 I0.0000 J1.5000
G01 Y22.7500
G00 Z0.0000
G01 Y27.2500
G00 Z-23.5000
G01 Z-24.0000 F900
G01 Z-26.0000
G01 Y50.0000 F1800
G03 X66.0000 Y51.5000 I-1.5000 J0.0000
G01 X35.2500
G00 Z0.0000
G01 X30.7500
G00 Z-23.5000
G01 Z-24.0000 F900
G01 Z-26.0000
G01 X0.5813 F1800
G00 Z0.0000
G03 X-0.3882 Y51.4489 I-0.3442 J-2.6921
G03 X-1.5000 Y50.0000 I0.3882 J-1.4489
G01 Y48.4371
G00 Z-23.5000
G01 Z-24.0000 F900
G01 Z-26.0000
G01 Y27.2500 F1800
G00 Z0.0000
G01 Y22.7500
G00 Z-25.5000
G01 Z-26.0000 F900
G01 Z-28.0000
G01 Y0.0000 F1800
G03 X0.0000 Y-1.5000 I1.5000 J0.0000
G01 X28.4760
G01 X28.4708 Y-5.8190
G03 X29.9708 Y-7.3208 I1.5000 J-0.0018
G01 X36.0291
G03 X37.5291 Y-5.8208 I0.0000 J1.5000
G01 Y-1.5000
G01 X66.0000
G03 X67.5000 Y0.0000 I0.0000 J1.5000
G01 Y22.7500
G00 Z0.0000
G01 Y27.2500
G00 Z-25.5000
G01 Z-26.0000 F900
G01 Z-28.0000
G01 Y50.0000 F1800
G03 X66.0000 Y51.5000 I-1.5000 J0.0000
G01 X35.2500
G00 Z0.0000
G01 X30.7500
G00 Z-25.5000
G01 Z-26.0000 F900
G01 Z-28.0000
G01 X0.5813 F1800
G00 Z0.0000
G03 X-0.3882 Y51.4489 I-0.3442 J-2.6921
G03 X-1.5000 Y50.0000 I0.3882 J-1.4489
G01 Y48.4371
G00 Z-25.5000
G01 Z-26.0000 F900
G01 Z-28.0000
G01 Y27.2500 F1800
G00 Z0.0000
G01 Y22.7500
G00 Z5.0000
G00 X0.0000 Y0.0000

M05
M30
