(Project supporto_motore_02)
(Created by Estlcam version 11 build 11,244)
(Machining time about 00:11:19 hours)

(Required tools:)
(Nuovo utensile 7)

G90
G91.1
M03 S18000
G00 Z5.0000


(No. 1: Taglio 1)
G00 X27.5317 Y24.0035
G00 Z0.5000
G01 Z-2.0000 F900 S18000
G01 X27.4777 Y24.1115 F1800
G01 Y24.3545
G01 X27.6397 Y24.6515
G01 X38.2507 Y24.6785
G01 X38.4127 Y24.3005
G01 X38.2777 Y23.9225
G01 X27.5857 Y23.8955
G01 X27.5317 Y24.0035
G01 X26.3418 Y23.2779
G01 X26.1817 Y23.5715
G02 X26.6677 Y25.6505 I1.9441 J0.6418
G01 X27.2077 Y26.0285
G01 X38.6557 Y26.0555
G02 X38.7637 Y22.5455 I-0.8323 J-1.7823
G01 X27.0727 Y22.5185
G01 X26.5057 Y22.9775
G01 X26.3418 Y23.2779
G01 X25.0837 Y22.6734
G02 X26.8837 Y27.4055 I3.0360 J1.5535
G01 X38.9257 Y27.4325
G02 X39.0877 Y21.1685 I-1.1098 J-3.1628
G01 X26.8027 Y21.1415
G02 X25.0837 Y22.6734 I0.9904 J2.8418
G01 X23.7977 Y22.1290
G02 X26.6677 Y28.7825 I4.3264 J2.0795
G01 X39.1147 Y28.8095
G02 X39.2497 Y19.7645 I-1.2810 J-4.5426
G01 X26.5597
G02 X23.7977 Y22.1290 I1.4001 J4.4308
G01 X22.6113 Y21.4114
G02 X22.8734 Y27.4742 I5.4194 J2.8028
G02 X26.4787 Y30.1595 I5.2517 J-3.2882
G01 X39.3037 Y30.1865
G02 X39.4387 Y18.3875 I-1.4441 J-5.9168
G01 X26.3707
G02 X22.6113 Y21.4114 I1.6401 J5.8879
G01 X21.4603 Y20.6369
G02 X26.3167 Y31.5365 I6.6136 J3.5849
G01 X39.4117 Y31.5635
G02 X39.6007 Y17.0105 I-1.5078 J-7.2973
G01 X26.2087
G02 X21.4603 Y20.6369 I1.7202 J7.1743
G01 X20.1594 Y20.1283
G02 X26.2087 Y32.9135 I7.8975 J4.0870
G01 X39.4927 Y32.9405
G02 X39.7357 Y15.6335 I-1.5365 J-8.6768
G01 X26.1007
G02 X20.1594 Y20.1283 I1.7952 J8.5470
G01 X18.8476 Y19.6575
G02 X26.1007 Y34.2905 I9.1788 J4.5644
G01 X39.5737 Y34.3175
G02 X39.8437 Y14.2565 I-1.5801 J-10.0536
G01 X25.9657
G02 X18.8476 Y19.6575 I1.9104 J9.9087
G01 X17.5003 Y19.2972
G02 X26.0197 Y35.6675 I10.5124 J4.9311
G01 X39.6277 Y35.6945
G02 X39.9517 Y12.8795 I-1.6025 J-11.4326
G01 X25.9387
G02 X17.5003 Y19.2972 I1.6600 J10.9390
G01 X16.2465 Y18.7346
G02 X15.5009 Y21.1416 I12.1599 J5.0859
G02 X25.9657 Y37.0445 I12.3413 J3.2734
G01 X39.6817 Y37.0715
G02 X40.0057 Y11.5025 I-1.6268 J-12.8072
G01 X26.1817 Y11.4755
G02 X16.2465 Y18.7346 I1.4210 J12.3733
G01 X14.9953 Y18.1470
G02 X14.2134 Y20.5579 I8.8467 J4.2014
G02 X13.7700 Y23.5146 I29.2421 J5.8969
G02 X25.9387 Y38.4215 I13.9801 J1.0080
G01 X39.7087 Y38.4485
G02 X40.0327 Y10.1255 I-1.6225 J-14.1819
G01 X26.2087 Y10.0985
G02 X14.9953 Y18.1470 I1.3599 J13.7302
G01 X13.7000 Y17.6574
G02 X12.4680 Y22.9986 I12.4991 J5.6957
G02 X12.4323 Y25.2640 I24.4321 J1.5173
G02 X26.2627 Y39.8255 I15.2161 J-0.6034
G01 X39.6817
G02 X51.8093 Y31.8150 I-1.4517 J-15.3836
G02 X40.0597 Y8.7485 I-13.7183 J-7.5380
G01 X26.2627 Y8.7215
G02 X13.7000 Y17.6574 I1.2515 J15.0581
G01 X12.3564 Y17.2659
G02 X11.0761 Y23.5778 I14.3260 J6.1917
G02 X11.1421 Y26.1367 I53.4323 J-0.0991
G02 X26.3707 Y41.2025 I16.4079 J-1.3558
G01 X39.6007
G02 X53.4247 Y31.3745 I-1.1356 J-16.2336
G02 X39.9787 Y7.3715 I-15.1081 J-7.3044
G01 X26.3437 Y7.3445
G02 X12.3564 Y17.2659 I1.1003 J16.3715
G01 X11.1816 Y16.5100
G02 X9.7436 Y25.3701 I15.9790 J7.1401
G02 X10.2248 Y28.7270 I39.9002 J-4.0068
G02 X26.5327 Y42.5795 I17.1289 J-3.6395
G01 X39.4387
G02 X55.2607 Y30.3485 I-0.8634 J-17.4661
G02 X39.4387 Y5.9675 I-16.8203 J-6.4089
G01 X26.5327
G02 X11.1816 Y16.5100 I0.8747 J17.7213
G01 X10.4594 Y16.4157
G02 X9.2864 Y27.4737 I17.3485 J7.4314
G02 X12.8842 Y36.1649 I20.9131 J-3.5669
G02 X19.1641 Y41.3614 I14.2391 J-10.8149
G02 X27.4580 Y43.3118 I8.2696 J-16.5556
G01 X38.5419
G02 X52.6471 Y36.7710 I0.0621 J-18.3455
G02 X56.1772 Y29.7758 I-15.8725 J-12.3982
G02 X56.8391 Y20.9206 I-19.8138 J-5.9334
G02 X38.5419 Y5.2535 I-18.2817 J2.8327
G01 X27.4580
G02 X10.4594 Y16.4157 I-0.0219 J18.4911
G00 Z5.0000
G00 X27.5317 Y24.0035
G00 Z-1.5000
G01 Z-4.0000 F900
G01 X27.4777 Y24.1115 F1800
G01 Y24.3545
G01 X27.6397 Y24.6515
G01 X38.2507 Y24.6785
G01 X38.4127 Y24.3005
G01 X38.2777 Y23.9225
G01 X27.5857 Y23.8955
G01 X27.5317 Y24.0035
G01 X26.3418 Y23.2779
G01 X26.1817 Y23.5715
G02 X26.6677 Y25.6505 I1.9441 J0.6418
G01 X27.2077 Y26.0285
G01 X38.6557 Y26.0555
G02 X38.7637 Y22.5455 I-0.8323 J-1.7823
G01 X27.0727 Y22.5185
G01 X26.5057 Y22.9775
G01 X26.3418 Y23.2779
G01 X25.0837 Y22.6734
G02 X26.8837 Y27.4055 I3.0360 J1.5535
G01 X38.9257 Y27.4325
G02 X39.0877 Y21.1685 I-1.1098 J-3.1628
G01 X26.8027 Y21.1415
G02 X25.0837 Y22.6734 I0.9904 J2.8418
G01 X23.7977 Y22.1290
G02 X26.6677 Y28.7825 I4.3264 J2.0795
G01 X39.1147 Y28.8095
G02 X39.2497 Y19.7645 I-1.2810 J-4.5426
G01 X26.5597
G02 X23.7977 Y22.1290 I1.4001 J4.4308
G01 X22.6113 Y21.4114
G02 X22.8734 Y27.4742 I5.4194 J2.8028
G02 X26.4787 Y30.1595 I5.2517 J-3.2882
G01 X39.3037 Y30.1865
G02 X39.4387 Y18.3875 I-1.4441 J-5.9168
G01 X26.3707
G02 X22.6113 Y21.4114 I1.6401 J5.8879
G01 X21.4603 Y20.6369
G02 X26.3167 Y31.5365 I6.6136 J3.5849
G01 X39.4117 Y31.5635
G02 X39.6007 Y17.0105 I-1.5078 J-7.2973
G01 X26.2087
G02 X21.4603 Y20.6369 I1.7202 J7.1743
G01 X20.1594 Y20.1283
G02 X26.2087 Y32.9135 I7.8975 J4.0870
G01 X39.4927 Y32.9405
G02 X39.7357 Y15.6335 I-1.5365 J-8.6768
G01 X26.1007
G02 X20.1594 Y20.1283 I1.7952 J8.5470
G01 X18.8476 Y19.6575
G02 X26.1007 Y34.2905 I9.1788 J4.5644
G01 X39.5737 Y34.3175
G02 X39.8437 Y14.2565 I-1.5801 J-10.0536
G01 X25.9657
G02 X18.8476 Y19.6575 I1.9104 J9.9087
G01 X17.5003 Y19.2972
G02 X26.0197 Y35.6675 I10.5124 J4.9311
G01 X39.6277 Y35.6945
G02 X39.9517 Y12.8795 I-1.6025 J-11.4326
G01 X25.9387
G02 X17.5003 Y19.2972 I1.6600 J10.9390
G01 X16.2465 Y18.7346
G02 X15.5009 Y21.1416 I12.1599 J5.0859
G02 X25.9657 Y37.0445 I12.3413 J3.2734
G01 X39.6817 Y37.0715
G02 X40.0057 Y11.5025 I-1.6268 J-12.8072
G01 X26.1817 Y11.4755
G02 X16.2465 Y18.7346 I1.4210 J12.3733
G01 X14.9953 Y18.1470
G02 X14.2134 Y20.5579 I8.8467 J4.2014
G02 X13.7700 Y23.5146 I29.2421 J5.8969
G02 X25.9387 Y38.4215 I13.9801 J1.0080
G01 X39.7087 Y38.4485
G02 X40.0327 Y10.1255 I-1.6225 J-14.1819
G01 X26.2087 Y10.0985
G02 X14.9953 Y18.1470 I1.3599 J13.7302
G01 X13.7000 Y17.6574
G02 X12.4680 Y22.9986 I12.4991 J5.6957
G02 X12.4323 Y25.2640 I24.4321 J1.5173
G02 X26.2627 Y39.8255 I15.2161 J-0.6034
G01 X39.6817
G02 X51.8093 Y31.8150 I-1.4517 J-15.3836
G02 X40.0597 Y8.7485 I-13.7183 J-7.5380
G01 X26.2627 Y8.7215
G02 X13.7000 Y17.6574 I1.2515 J15.0581
G01 X12.3564 Y17.2659
G02 X11.0761 Y23.5778 I14.3260 J6.1917
G02 X11.1421 Y26.1367 I53.4323 J-0.0991
G02 X26.3707 Y41.2025 I16.4079 J-1.3558
G01 X39.6007
G02 X53.4247 Y31.3745 I-1.1356 J-16.2336
G02 X39.9787 Y7.3715 I-15.1081 J-7.3044
G01 X26.3437 Y7.3445
G02 X12.3564 Y17.2659 I1.1003 J16.3715
G01 X11.1816 Y16.5100
G02 X9.7436 Y25.3701 I15.9790 J7.1401
G02 X10.2248 Y28.7270 I39.9002 J-4.0068
G02 X26.5327 Y42.5795 I17.1289 J-3.6395
G01 X39.4387
G02 X55.2607 Y30.3485 I-0.8634 J-17.4661
G02 X39.4387 Y5.9675 I-16.8203 J-6.4089
G01 X26.5327
G02 X11.1816 Y16.5100 I0.8747 J17.7213
G01 X10.4594 Y16.4157
G02 X9.2864 Y27.4737 I17.3485 J7.4314
G02 X12.8842 Y36.1649 I20.9131 J-3.5669
G02 X19.1641 Y41.3614 I14.2391 J-10.8149
G02 X27.4580 Y43.3118 I8.2696 J-16.5556
G01 X38.5419
G02 X52.6471 Y36.7710 I0.0621 J-18.3455
G02 X56.1772 Y29.7758 I-15.8725 J-12.3982
G02 X56.8391 Y20.9206 I-19.8138 J-5.9334
G02 X38.5419 Y5.2535 I-18.2817 J2.8327
G01 X27.4580
G02 X10.4594 Y16.4157 I-0.0219 J18.4911
G00 Z5.0000
G00 X27.5317 Y24.0035
G00 Z-3.5000
G01 Z-6.0000 F900
G01 X27.4777 Y24.1115 F1800
G01 Y24.3545
G01 X27.6397 Y24.6515
G01 X38.2507 Y24.6785
G01 X38.4127 Y24.3005
G01 X38.2777 Y23.9225
G01 X27.5857 Y23.8955
G01 X27.5317 Y24.0035
G01 X26.3418 Y23.2779
G01 X26.1817 Y23.5715
G02 X26.6677 Y25.6505 I1.9441 J0.6418
G01 X27.2077 Y26.0285
G01 X38.6557 Y26.0555
G02 X38.7637 Y22.5455 I-0.8323 J-1.7823
G01 X27.0727 Y22.5185
G01 X26.5057 Y22.9775
G01 X26.3418 Y23.2779
G01 X25.0837 Y22.6734
G02 X26.8837 Y27.4055 I3.0360 J1.5535
G01 X38.9257 Y27.4325
G02 X39.0877 Y21.1685 I-1.1098 J-3.1628
G01 X26.8027 Y21.1415
G02 X25.0837 Y22.6734 I0.9904 J2.8418
G01 X23.7977 Y22.1290
G02 X26.6677 Y28.7825 I4.3264 J2.0795
G01 X39.1147 Y28.8095
G02 X39.2497 Y19.7645 I-1.2810 J-4.5426
G01 X26.5597
G02 X23.7977 Y22.1290 I1.4001 J4.4308
G01 X22.6113 Y21.4114
G02 X22.8734 Y27.4742 I5.4194 J2.8028
G02 X26.4787 Y30.1595 I5.2517 J-3.2882
G01 X39.3037 Y30.1865
G02 X39.4387 Y18.3875 I-1.4441 J-5.9168
G01 X26.3707
G02 X22.6113 Y21.4114 I1.6401 J5.8879
G01 X21.4603 Y20.6369
G02 X26.3167 Y31.5365 I6.6136 J3.5849
G01 X39.4117 Y31.5635
G02 X39.6007 Y17.0105 I-1.5078 J-7.2973
G01 X26.2087
G02 X21.4603 Y20.6369 I1.7202 J7.1743
G01 X20.1594 Y20.1283
G02 X26.2087 Y32.9135 I7.8975 J4.0870
G01 X39.4927 Y32.9405
G02 X39.7357 Y15.6335 I-1.5365 J-8.6768
G01 X26.1007
G02 X20.1594 Y20.1283 I1.7952 J8.5470
G01 X18.8476 Y19.6575
G02 X26.1007 Y34.2905 I9.1788 J4.5644
G01 X39.5737 Y34.3175
G02 X39.8437 Y14.2565 I-1.5801 J-10.0536
G01 X25.9657
G02 X18.8476 Y19.6575 I1.9104 J9.9087
G01 X17.5003 Y19.2972
G02 X26.0197 Y35.6675 I10.5124 J4.9311
G01 X39.6277 Y35.6945
G02 X39.9517 Y12.8795 I-1.6025 J-11.4326
G01 X25.9387
G02 X17.5003 Y19.2972 I1.6600 J10.9390
G01 X16.2465 Y18.7346
G02 X15.5009 Y21.1416 I12.1599 J5.0859
G02 X25.9657 Y37.0445 I12.3413 J3.2734
G01 X39.6817 Y37.0715
G02 X40.0057 Y11.5025 I-1.6268 J-12.8072
G01 X26.1817 Y11.4755
G02 X16.2465 Y18.7346 I1.4210 J12.3733
G01 X14.9953 Y18.1470
G02 X14.2134 Y20.5579 I8.8467 J4.2014
G02 X13.7700 Y23.5146 I29.2421 J5.8969
G02 X25.9387 Y38.4215 I13.9801 J1.0080
G01 X39.7087 Y38.4485
G02 X40.0327 Y10.1255 I-1.6225 J-14.1819
G01 X26.2087 Y10.0985
G02 X14.9953 Y18.1470 I1.3599 J13.7302
G01 X13.7000 Y17.6574
G02 X12.4680 Y22.9986 I12.4991 J5.6957
G02 X12.4323 Y25.2640 I24.4321 J1.5173
G02 X26.2627 Y39.8255 I15.2161 J-0.6034
G01 X39.6817
G02 X51.8093 Y31.8150 I-1.4517 J-15.3836
G02 X40.0597 Y8.7485 I-13.7183 J-7.5380
G01 X26.2627 Y8.7215
G02 X13.7000 Y17.6574 I1.2515 J15.0581
G01 X12.3564 Y17.2659
G02 X11.0761 Y23.5778 I14.3260 J6.1917
G02 X11.1421 Y26.1367 I53.4323 J-0.0991
G02 X26.3707 Y41.2025 I16.4079 J-1.3558
G01 X39.6007
G02 X53.4247 Y31.3745 I-1.1356 J-16.2336
G02 X39.9787 Y7.3715 I-15.1081 J-7.3044
G01 X26.3437 Y7.3445
G02 X12.3564 Y17.2659 I1.1003 J16.3715
G01 X11.1816 Y16.5100
G02 X9.7436 Y25.3701 I15.9790 J7.1401
G02 X10.2248 Y28.7270 I39.9002 J-4.0068
G02 X26.5327 Y42.5795 I17.1289 J-3.6395
G01 X39.4387
G02 X55.2607 Y30.3485 I-0.8634 J-17.4661
G02 X39.4387 Y5.9675 I-16.8203 J-6.4089
G01 X26.5327
G02 X11.1816 Y16.5100 I0.8747 J17.7213
G01 X10.4594 Y16.4157
G02 X9.2864 Y27.4737 I17.3485 J7.4314
G02 X12.8842 Y36.1649 I20.9131 J-3.5669
G02 X19.1641 Y41.3614 I14.2391 J-10.8149
G02 X27.4580 Y43.3118 I8.2696 J-16.5556
G01 X38.5419
G02 X52.6471 Y36.7710 I0.0621 J-18.3455
G02 X56.1772 Y29.7758 I-15.8725 J-12.3982
G02 X56.8391 Y20.9206 I-19.8138 J-5.9334
G02 X38.5419 Y5.2535 I-18.2817 J2.8327
G01 X27.4580
G02 X10.4594 Y16.4157 I-0.0219 J18.4911
G00 Z5.0000
G00 X27.5317 Y24.0035
G00 Z-5.5000
G01 Z-8.0000 F900
G01 X27.4777 Y24.1115 F1800
G01 Y24.3545
G01 X27.6397 Y24.6515
G01 X38.2507 Y24.6785
G01 X38.4127 Y24.3005
G01 X38.2777 Y23.9225
G01 X27.5857 Y23.8955
G01 X27.5317 Y24.0035
G01 X26.3418 Y23.2779
G01 X26.1817 Y23.5715
G02 X26.6677 Y25.6505 I1.9441 J0.6418
G01 X27.2077 Y26.0285
G01 X38.6557 Y26.0555
G02 X38.7637 Y22.5455 I-0.8323 J-1.7823
G01 X27.0727 Y22.5185
G01 X26.5057 Y22.9775
G01 X26.3418 Y23.2779
G01 X25.0837 Y22.6734
G02 X26.8837 Y27.4055 I3.0360 J1.5535
G01 X38.9257 Y27.4325
G02 X39.0877 Y21.1685 I-1.1098 J-3.1628
G01 X26.8027 Y21.1415
G02 X25.0837 Y22.6734 I0.9904 J2.8418
G01 X23.7977 Y22.1290
G02 X26.6677 Y28.7825 I4.3264 J2.0795
G01 X39.1147 Y28.8095
G02 X39.2497 Y19.7645 I-1.2810 J-4.5426
G01 X26.5597
G02 X23.7977 Y22.1290 I1.4001 J4.4308
G01 X22.6113 Y21.4114
G02 X22.8734 Y27.4742 I5.4194 J2.8028
G02 X26.4787 Y30.1595 I5.2517 J-3.2882
G01 X39.3037 Y30.1865
G02 X39.4387 Y18.3875 I-1.4441 J-5.9168
G01 X26.3707
G02 X22.6113 Y21.4114 I1.6401 J5.8879
G01 X21.4603 Y20.6369
G02 X26.3167 Y31.5365 I6.6136 J3.5849
G01 X39.4117 Y31.5635
G02 X39.6007 Y17.0105 I-1.5078 J-7.2973
G01 X26.2087
G02 X21.4603 Y20.6369 I1.7202 J7.1743
G01 X20.1594 Y20.1283
G02 X26.2087 Y32.9135 I7.8975 J4.0870
G01 X39.4927 Y32.9405
G02 X39.7357 Y15.6335 I-1.5365 J-8.6768
G01 X26.1007
G02 X20.1594 Y20.1283 I1.7952 J8.5470
G01 X18.8476 Y19.6575
G02 X26.1007 Y34.2905 I9.1788 J4.5644
G01 X39.5737 Y34.3175
G02 X39.8437 Y14.2565 I-1.5801 J-10.0536
G01 X25.9657
G02 X18.8476 Y19.6575 I1.9104 J9.9087
G01 X17.5003 Y19.2972
G02 X26.0197 Y35.6675 I10.5124 J4.9311
G01 X39.6277 Y35.6945
G02 X39.9517 Y12.8795 I-1.6025 J-11.4326
G01 X25.9387
G02 X17.5003 Y19.2972 I1.6600 J10.9390
G01 X16.2465 Y18.7346
G02 X15.5009 Y21.1416 I12.1599 J5.0859
G02 X25.9657 Y37.0445 I12.3413 J3.2734
G01 X39.6817 Y37.0715
G02 X40.0057 Y11.5025 I-1.6268 J-12.8072
G01 X26.1817 Y11.4755
G02 X16.2465 Y18.7346 I1.4210 J12.3733
G01 X14.9953 Y18.1470
G02 X14.2134 Y20.5579 I8.8467 J4.2014
G02 X13.7700 Y23.5146 I29.2421 J5.8969
G02 X25.9387 Y38.4215 I13.9801 J1.0080
G01 X39.7087 Y38.4485
G02 X40.0327 Y10.1255 I-1.6225 J-14.1819
G01 X26.2087 Y10.0985
G02 X14.9953 Y18.1470 I1.3599 J13.7302
G01 X13.7000 Y17.6574
G02 X12.4680 Y22.9986 I12.4991 J5.6957
G02 X12.4323 Y25.2640 I24.4321 J1.5173
G02 X26.2627 Y39.8255 I15.2161 J-0.6034
G01 X39.6817
G02 X51.8093 Y31.8150 I-1.4517 J-15.3836
G02 X40.0597 Y8.7485 I-13.7183 J-7.5380
G01 X26.2627 Y8.7215
G02 X13.7000 Y17.6574 I1.2515 J15.0581
G01 X12.3564 Y17.2659
G02 X11.0761 Y23.5778 I14.3260 J6.1917
G02 X11.1421 Y26.1367 I53.4323 J-0.0991
G02 X26.3707 Y41.2025 I16.4079 J-1.3558
G01 X39.6007
G02 X53.4247 Y31.3745 I-1.1356 J-16.2336
G02 X39.9787 Y7.3715 I-15.1081 J-7.3044
G01 X26.3437 Y7.3445
G02 X12.3564 Y17.2659 I1.1003 J16.3715
G01 X11.1816 Y16.5100
G02 X9.7436 Y25.3701 I15.9790 J7.1401
G02 X10.2248 Y28.7270 I39.9002 J-4.0068
G02 X26.5327 Y42.5795 I17.1289 J-3.6395
G01 X39.4387
G02 X55.2607 Y30.3485 I-0.8634 J-17.4661
G02 X39.4387 Y5.9675 I-16.8203 J-6.4089
G01 X26.5327
G02 X11.1816 Y16.5100 I0.8747 J17.7213
G01 X10.4594 Y16.4157
G02 X9.2864 Y27.4737 I17.3485 J7.4314
G02 X12.8842 Y36.1649 I20.9131 J-3.5669
G02 X19.1641 Y41.3614 I14.2391 J-10.8149
G02 X27.4580 Y43.3118 I8.2696 J-16.5556
G01 X38.5419
G02 X52.6471 Y36.7710 I0.0621 J-18.3455
G02 X56.1772 Y29.7758 I-15.8725 J-12.3982
G02 X56.8391 Y20.9206 I-19.8138 J-5.9334
G02 X38.5419 Y5.2535 I-18.2817 J2.8327
G01 X27.4580
G02 X10.4594 Y16.4157 I-0.0219 J18.4911
G00 Z5.0000
G00 X27.5317 Y24.0035
G00 Z-7.5000
G01 Z-10.0000 F900
G01 X27.4777 Y24.1115 F1800
G01 Y24.3545
G01 X27.6397 Y24.6515
G01 X38.2507 Y24.6785
G01 X38.4127 Y24.3005
G01 X38.2777 Y23.9225
G01 X27.5857 Y23.8955
G01 X27.5317 Y24.0035
G01 X26.3418 Y23.2779
G01 X26.1817 Y23.5715
G02 X26.6677 Y25.6505 I1.9441 J0.6418
G01 X27.2077 Y26.0285
G01 X38.6557 Y26.0555
G02 X38.7637 Y22.5455 I-0.8323 J-1.7823
G01 X27.0727 Y22.5185
G01 X26.5057 Y22.9775
G01 X26.3418 Y23.2779
G01 X25.0837 Y22.6734
G02 X26.8837 Y27.4055 I3.0360 J1.5535
G01 X38.9257 Y27.4325
G02 X39.0877 Y21.1685 I-1.1098 J-3.1628
G01 X26.8027 Y21.1415
G02 X25.0837 Y22.6734 I0.9904 J2.8418
G01 X23.7977 Y22.1290
G02 X26.6677 Y28.7825 I4.3264 J2.0795
G01 X39.1147 Y28.8095
G02 X39.2497 Y19.7645 I-1.2810 J-4.5426
G01 X26.5597
G02 X23.7977 Y22.1290 I1.4001 J4.4308
G01 X22.6113 Y21.4114
G02 X22.8734 Y27.4742 I5.4194 J2.8028
G02 X26.4787 Y30.1595 I5.2517 J-3.2882
G01 X39.3037 Y30.1865
G02 X39.4387 Y18.3875 I-1.4441 J-5.9168
G01 X26.3707
G02 X22.6113 Y21.4114 I1.6401 J5.8879
G01 X21.4603 Y20.6369
G02 X26.3167 Y31.5365 I6.6136 J3.5849
G01 X39.4117 Y31.5635
G02 X39.6007 Y17.0105 I-1.5078 J-7.2973
G01 X26.2087
G02 X21.4603 Y20.6369 I1.7202 J7.1743
G01 X20.1594 Y20.1283
G02 X26.2087 Y32.9135 I7.8975 J4.0870
G01 X39.4927 Y32.9405
G02 X39.7357 Y15.6335 I-1.5365 J-8.6768
G01 X26.1007
G02 X20.1594 Y20.1283 I1.7952 J8.5470
G01 X18.8476 Y19.6575
G02 X26.1007 Y34.2905 I9.1788 J4.5644
G01 X39.5737 Y34.3175
G02 X39.8437 Y14.2565 I-1.5801 J-10.0536
G01 X25.9657
G02 X18.8476 Y19.6575 I1.9104 J9.9087
G01 X17.5003 Y19.2972
G02 X26.0197 Y35.6675 I10.5124 J4.9311
G01 X39.6277 Y35.6945
G02 X39.9517 Y12.8795 I-1.6025 J-11.4326
G01 X25.9387
G02 X17.5003 Y19.2972 I1.6600 J10.9390
G01 X16.2465 Y18.7346
G02 X15.5009 Y21.1416 I12.1599 J5.0859
G02 X25.9657 Y37.0445 I12.3413 J3.2734
G01 X39.6817 Y37.0715
G02 X40.0057 Y11.5025 I-1.6268 J-12.8072
G01 X26.1817 Y11.4755
G02 X16.2465 Y18.7346 I1.4210 J12.3733
G01 X14.9953 Y18.1470
G02 X14.2134 Y20.5579 I8.8467 J4.2014
G02 X13.7700 Y23.5146 I29.2421 J5.8969
G02 X25.9387 Y38.4215 I13.9801 J1.0080
G01 X39.7087 Y38.4485
G02 X40.0327 Y10.1255 I-1.6225 J-14.1819
G01 X26.2087 Y10.0985
G02 X14.9953 Y18.1470 I1.3599 J13.7302
G01 X13.7000 Y17.6574
G02 X12.4680 Y22.9986 I12.4991 J5.6957
G02 X12.4323 Y25.2640 I24.4321 J1.5173
G02 X26.2627 Y39.8255 I15.2161 J-0.6034
G01 X39.6817
G02 X51.8093 Y31.8150 I-1.4517 J-15.3836
G02 X40.0597 Y8.7485 I-13.7183 J-7.5380
G01 X26.2627 Y8.7215
G02 X13.7000 Y17.6574 I1.2515 J15.0581
G01 X12.3564 Y17.2659
G02 X11.0761 Y23.5778 I14.3260 J6.1917
G02 X11.1421 Y26.1367 I53.4323 J-0.0991
G02 X26.3707 Y41.2025 I16.4079 J-1.3558
G01 X39.6007
G02 X53.4247 Y31.3745 I-1.1356 J-16.2336
G02 X39.9787 Y7.3715 I-15.1081 J-7.3044
G01 X26.3437 Y7.3445
G02 X12.3564 Y17.2659 I1.1003 J16.3715
G01 X11.1816 Y16.5100
G02 X9.7436 Y25.3701 I15.9790 J7.1401
G02 X10.2248 Y28.7270 I39.9002 J-4.0068
G02 X26.5327 Y42.5795 I17.1289 J-3.6395
G01 X39.4387
G02 X55.2607 Y30.3485 I-0.8634 J-17.4661
G02 X39.4387 Y5.9675 I-16.8203 J-6.4089
G01 X26.5327
G02 X11.1816 Y16.5100 I0.8747 J17.7213
G01 X10.4594 Y16.4157
G02 X9.2864 Y27.4737 I17.3485 J7.4314
G02 X12.8842 Y36.1649 I20.9131 J-3.5669
G02 X19.1641 Y41.3614 I14.2391 J-10.8149
G02 X27.4580 Y43.3118 I8.2696 J-16.5556
G01 X38.5419
G02 X52.6471 Y36.7710 I0.0621 J-18.3455
G02 X56.1772 Y29.7758 I-15.8725 J-12.3982
G02 X56.8391 Y20.9206 I-19.8138 J-5.9334
G02 X38.5419 Y5.2535 I-18.2817 J2.8327
G01 X27.4580
G02 X10.4594 Y16.4157 I-0.0219 J18.4911
G00 Z5.0000
G00 X27.5317 Y24.0035
G00 Z-9.5000
G01 Z-12.0000 F900
G01 X27.4777 Y24.1115 F1800
G01 Y24.3545
G01 X27.6397 Y24.6515
G01 X38.2507 Y24.6785
G01 X38.4127 Y24.3005
G01 X38.2777 Y23.9225
G01 X27.5857 Y23.8955
G01 X27.5317 Y24.0035
G01 X26.3418 Y23.2779
G01 X26.1817 Y23.5715
G02 X26.6677 Y25.6505 I1.9441 J0.6418
G01 X27.2077 Y26.0285
G01 X38.6557 Y26.0555
G02 X38.7637 Y22.5455 I-0.8323 J-1.7823
G01 X27.0727 Y22.5185
G01 X26.5057 Y22.9775
G01 X26.3418 Y23.2779
G01 X25.0837 Y22.6734
G02 X26.8837 Y27.4055 I3.0360 J1.5535
G01 X38.9257 Y27.4325
G02 X39.0877 Y21.1685 I-1.1098 J-3.1628
G01 X26.8027 Y21.1415
G02 X25.0837 Y22.6734 I0.9904 J2.8418
G01 X23.7977 Y22.1290
G02 X26.6677 Y28.7825 I4.3264 J2.0795
G01 X39.1147 Y28.8095
G02 X39.2497 Y19.7645 I-1.2810 J-4.5426
G01 X26.5597
G02 X23.7977 Y22.1290 I1.4001 J4.4308
G01 X22.6113 Y21.4114
G02 X22.8734 Y27.4742 I5.4194 J2.8028
G02 X26.4787 Y30.1595 I5.2517 J-3.2882
G01 X39.3037 Y30.1865
G02 X39.4387 Y18.3875 I-1.4441 J-5.9168
G01 X26.3707
G02 X22.6113 Y21.4114 I1.6401 J5.8879
G01 X21.4603 Y20.6369
G02 X26.3167 Y31.5365 I6.6136 J3.5849
G01 X39.4117 Y31.5635
G02 X39.6007 Y17.0105 I-1.5078 J-7.2973
G01 X26.2087
G02 X21.4603 Y20.6369 I1.7202 J7.1743
G01 X20.1594 Y20.1283
G02 X26.2087 Y32.9135 I7.8975 J4.0870
G01 X39.4927 Y32.9405
G02 X39.7357 Y15.6335 I-1.5365 J-8.6768
G01 X26.1007
G02 X20.1594 Y20.1283 I1.7952 J8.5470
G01 X18.8476 Y19.6575
G02 X26.1007 Y34.2905 I9.1788 J4.5644
G01 X39.5737 Y34.3175
G02 X39.8437 Y14.2565 I-1.5801 J-10.0536
G01 X25.9657
G02 X18.8476 Y19.6575 I1.9104 J9.9087
G01 X17.5003 Y19.2972
G02 X26.0197 Y35.6675 I10.5124 J4.9311
G01 X39.6277 Y35.6945
G02 X39.9517 Y12.8795 I-1.6025 J-11.4326
G01 X25.9387
G02 X17.5003 Y19.2972 I1.6600 J10.9390
G01 X16.2465 Y18.7346
G02 X15.5009 Y21.1416 I12.1599 J5.0859
G02 X25.9657 Y37.0445 I12.3413 J3.2734
G01 X39.6817 Y37.0715
G02 X40.0057 Y11.5025 I-1.6268 J-12.8072
G01 X26.1817 Y11.4755
G02 X16.2465 Y18.7346 I1.4210 J12.3733
G01 X14.9953 Y18.1470
G02 X14.2134 Y20.5579 I8.8467 J4.2014
G02 X13.7700 Y23.5146 I29.2421 J5.8969
G02 X25.9387 Y38.4215 I13.9801 J1.0080
G01 X39.7087 Y38.4485
G02 X40.0327 Y10.1255 I-1.6225 J-14.1819
G01 X26.2087 Y10.0985
G02 X14.9953 Y18.1470 I1.3599 J13.7302
G01 X13.7000 Y17.6574
G02 X12.4680 Y22.9986 I12.4991 J5.6957
G02 X12.4323 Y25.2640 I24.4321 J1.5173
G02 X26.2627 Y39.8255 I15.2161 J-0.6034
G01 X39.6817
G02 X51.8093 Y31.8150 I-1.4517 J-15.3836
G02 X40.0597 Y8.7485 I-13.7183 J-7.5380
G01 X26.2627 Y8.7215
G02 X13.7000 Y17.6574 I1.2515 J15.0581
G01 X12.3564 Y17.2659
G02 X11.0761 Y23.5778 I14.3260 J6.1917
G02 X11.1421 Y26.1367 I53.4323 J-0.0991
G02 X26.3707 Y41.2025 I16.4079 J-1.3558
G01 X39.6007
G02 X53.4247 Y31.3745 I-1.1356 J-16.2336
G02 X39.9787 Y7.3715 I-15.1081 J-7.3044
G01 X26.3437 Y7.3445
G02 X12.3564 Y17.2659 I1.1003 J16.3715
G01 X11.1816 Y16.5100
G02 X9.7436 Y25.3701 I15.9790 J7.1401
G02 X10.2248 Y28.7270 I39.9002 J-4.0068
G02 X26.5327 Y42.5795 I17.1289 J-3.6395
G01 X39.4387
G02 X55.2607 Y30.3485 I-0.8634 J-17.4661
G02 X39.4387 Y5.9675 I-16.8203 J-6.4089
G01 X26.5327
G02 X11.1816 Y16.5100 I0.8747 J17.7213
G01 X10.4594 Y16.4157
G02 X9.2864 Y27.4737 I17.3485 J7.4314
G02 X12.8842 Y36.1649 I20.9131 J-3.5669
G02 X19.1641 Y41.3614 I14.2391 J-10.8149
G02 X27.4580 Y43.3118 I8.2696 J-16.5556
G01 X38.5419
G02 X52.6471 Y36.7710 I0.0621 J-18.3455
G02 X56.1772 Y29.7758 I-15.8725 J-12.3982
G02 X56.8391 Y20.9206 I-19.8138 J-5.9334
G02 X38.5419 Y5.2535 I-18.2817 J2.8327
G01 X27.4580
G02 X10.4594 Y16.4157 I-0.0219 J18.4911
G00 Z5.0000
G00 X27.5317 Y24.0035
G00 Z-11.5000
G01 Z-14.0000 F900
G01 X27.4777 Y24.1115 F1800
G01 Y24.3545
G01 X27.6397 Y24.6515
G01 X38.2507 Y24.6785
G01 X38.4127 Y24.3005
G01 X38.2777 Y23.9225
G01 X27.5857 Y23.8955
G01 X27.5317 Y24.0035
G01 X26.3418 Y23.2779
G01 X26.1817 Y23.5715
G02 X26.6677 Y25.6505 I1.9441 J0.6418
G01 X27.2077 Y26.0285
G01 X38.6557 Y26.0555
G02 X38.7637 Y22.5455 I-0.8323 J-1.7823
G01 X27.0727 Y22.5185
G01 X26.5057 Y22.9775
G01 X26.3418 Y23.2779
G01 X25.0837 Y22.6734
G02 X26.8837 Y27.4055 I3.0360 J1.5535
G01 X38.9257 Y27.4325
G02 X39.0877 Y21.1685 I-1.1098 J-3.1628
G01 X26.8027 Y21.1415
G02 X25.0837 Y22.6734 I0.9904 J2.8418
G01 X23.7977 Y22.1290
G02 X26.6677 Y28.7825 I4.3264 J2.0795
G01 X39.1147 Y28.8095
G02 X39.2497 Y19.7645 I-1.2810 J-4.5426
G01 X26.5597
G02 X23.7977 Y22.1290 I1.4001 J4.4308
G01 X22.6113 Y21.4114
G02 X22.8734 Y27.4742 I5.4194 J2.8028
G02 X26.4787 Y30.1595 I5.2517 J-3.2882
G01 X39.3037 Y30.1865
G02 X39.4387 Y18.3875 I-1.4441 J-5.9168
G01 X26.3707
G02 X22.6113 Y21.4114 I1.6401 J5.8879
G01 X21.4603 Y20.6369
G02 X26.3167 Y31.5365 I6.6136 J3.5849
G01 X39.4117 Y31.5635
G02 X39.6007 Y17.0105 I-1.5078 J-7.2973
G01 X26.2087
G02 X21.4603 Y20.6369 I1.7202 J7.1743
G01 X20.1594 Y20.1283
G02 X26.2087 Y32.9135 I7.8975 J4.0870
G01 X39.4927 Y32.9405
G02 X39.7357 Y15.6335 I-1.5365 J-8.6768
G01 X26.1007
G02 X20.1594 Y20.1283 I1.7952 J8.5470
G01 X18.8476 Y19.6575
G02 X26.1007 Y34.2905 I9.1788 J4.5644
G01 X39.5737 Y34.3175
G02 X39.8437 Y14.2565 I-1.5801 J-10.0536
G01 X25.9657
G02 X18.8476 Y19.6575 I1.9104 J9.9087
G01 X17.5003 Y19.2972
G02 X26.0197 Y35.6675 I10.5124 J4.9311
G01 X39.6277 Y35.6945
G02 X39.9517 Y12.8795 I-1.6025 J-11.4326
G01 X25.9387
G02 X17.5003 Y19.2972 I1.6600 J10.9390
G01 X16.2465 Y18.7346
G02 X15.5009 Y21.1416 I12.1599 J5.0859
G02 X25.9657 Y37.0445 I12.3413 J3.2734
G01 X39.6817 Y37.0715
G02 X40.0057 Y11.5025 I-1.6268 J-12.8072
G01 X26.1817 Y11.4755
G02 X16.2465 Y18.7346 I1.4210 J12.3733
G01 X14.9953 Y18.1470
G02 X14.2134 Y20.5579 I8.8467 J4.2014
G02 X13.7700 Y23.5146 I29.2421 J5.8969
G02 X25.9387 Y38.4215 I13.9801 J1.0080
G01 X39.7087 Y38.4485
G02 X40.0327 Y10.1255 I-1.6225 J-14.1819
G01 X26.2087 Y10.0985
G02 X14.9953 Y18.1470 I1.3599 J13.7302
G01 X13.7000 Y17.6574
G02 X12.4680 Y22.9986 I12.4991 J5.6957
G02 X12.4323 Y25.2640 I24.4321 J1.5173
G02 X26.2627 Y39.8255 I15.2161 J-0.6034
G01 X39.6817
G02 X51.8093 Y31.8150 I-1.4517 J-15.3836
G02 X40.0597 Y8.7485 I-13.7183 J-7.5380
G01 X26.2627 Y8.7215
G02 X13.7000 Y17.6574 I1.2515 J15.0581
G01 X12.3564 Y17.2659
G02 X11.0761 Y23.5778 I14.3260 J6.1917
G02 X11.1421 Y26.1367 I53.4323 J-0.0991
G02 X26.3707 Y41.2025 I16.4079 J-1.3558
G01 X39.6007
G02 X53.4247 Y31.3745 I-1.1356 J-16.2336
G02 X39.9787 Y7.3715 I-15.1081 J-7.3044
G01 X26.3437 Y7.3445
G02 X12.3564 Y17.2659 I1.1003 J16.3715
G01 X11.1816 Y16.5100
G02 X9.7436 Y25.3701 I15.9790 J7.1401
G02 X10.2248 Y28.7270 I39.9002 J-4.0068
G02 X26.5327 Y42.5795 I17.1289 J-3.6395
G01 X39.4387
G02 X55.2607 Y30.3485 I-0.8634 J-17.4661
G02 X39.4387 Y5.9675 I-16.8203 J-6.4089
G01 X26.5327
G02 X11.1816 Y16.5100 I0.8747 J17.7213
G01 X10.4594 Y16.4157
G02 X9.2864 Y27.4737 I17.3485 J7.4314
G02 X12.8842 Y36.1649 I20.9131 J-3.5669
G02 X19.1641 Y41.3614 I14.2391 J-10.8149
G02 X27.4580 Y43.3118 I8.2696 J-16.5556
G01 X38.5419
G02 X52.6471 Y36.7710 I0.0621 J-18.3455
G02 X56.1772 Y29.7758 I-15.8725 J-12.3982
G02 X56.8391 Y20.9206 I-19.8138 J-5.9334
G02 X38.5419 Y5.2535 I-18.2817 J2.8327
G01 X27.4580
G02 X10.4594 Y16.4157 I-0.0219 J18.4911
G00 Z5.0000
G00 X27.5317 Y24.0035
G00 Z-13.5000
G01 Z-15.0000 F900
G01 X27.4777 Y24.1115 F1800
G01 Y24.3545
G01 X27.6397 Y24.6515
G01 X38.2507 Y24.6785
G01 X38.4127 Y24.3005
G01 X38.2777 Y23.9225
G01 X27.5857 Y23.8955
G01 X27.5317 Y24.0035
G01 X26.3418 Y23.2779
G01 X26.1817 Y23.5715
G02 X26.6677 Y25.6505 I1.9441 J0.6418
G01 X27.2077 Y26.0285
G01 X38.6557 Y26.0555
G02 X38.7637 Y22.5455 I-0.8323 J-1.7823
G01 X27.0727 Y22.5185
G01 X26.5057 Y22.9775
G01 X26.3418 Y23.2779
G01 X25.0837 Y22.6734
G02 X26.8837 Y27.4055 I3.0360 J1.5535
G01 X38.9257 Y27.4325
G02 X39.0877 Y21.1685 I-1.1098 J-3.1628
G01 X26.8027 Y21.1415
G02 X25.0837 Y22.6734 I0.9904 J2.8418
G01 X23.7977 Y22.1290
G02 X26.6677 Y28.7825 I4.3264 J2.0795
G01 X39.1147 Y28.8095
G02 X39.2497 Y19.7645 I-1.2810 J-4.5426
G01 X26.5597
G02 X23.7977 Y22.1290 I1.4001 J4.4308
G01 X22.6113 Y21.4114
G02 X22.8734 Y27.4742 I5.4194 J2.8028
G02 X26.4787 Y30.1595 I5.2517 J-3.2882
G01 X39.3037 Y30.1865
G02 X39.4387 Y18.3875 I-1.4441 J-5.9168
G01 X26.3707
G02 X22.6113 Y21.4114 I1.6401 J5.8879
G01 X21.4603 Y20.6369
G02 X26.3167 Y31.5365 I6.6136 J3.5849
G01 X39.4117 Y31.5635
G02 X39.6007 Y17.0105 I-1.5078 J-7.2973
G01 X26.2087
G02 X21.4603 Y20.6369 I1.7202 J7.1743
G01 X20.1594 Y20.1283
G02 X26.2087 Y32.9135 I7.8975 J4.0870
G01 X39.4927 Y32.9405
G02 X39.7357 Y15.6335 I-1.5365 J-8.6768
G01 X26.1007
G02 X20.1594 Y20.1283 I1.7952 J8.5470
G01 X18.8476 Y19.6575
G02 X26.1007 Y34.2905 I9.1788 J4.5644
G01 X39.5737 Y34.3175
G02 X39.8437 Y14.2565 I-1.5801 J-10.0536
G01 X25.9657
G02 X18.8476 Y19.6575 I1.9104 J9.9087
G01 X17.5003 Y19.2972
G02 X26.0197 Y35.6675 I10.5124 J4.9311
G01 X39.6277 Y35.6945
G02 X39.9517 Y12.8795 I-1.6025 J-11.4326
G01 X25.9387
G02 X17.5003 Y19.2972 I1.6600 J10.9390
G01 X16.2465 Y18.7346
G02 X15.5009 Y21.1416 I12.1599 J5.0859
G02 X25.9657 Y37.0445 I12.3413 J3.2734
G01 X39.6817 Y37.0715
G02 X40.0057 Y11.5025 I-1.6268 J-12.8072
G01 X26.1817 Y11.4755
G02 X16.2465 Y18.7346 I1.4210 J12.3733
G01 X14.9953 Y18.1470
G02 X14.2134 Y20.5579 I8.8467 J4.2014
G02 X13.7700 Y23.5146 I29.2421 J5.8969
G02 X25.9387 Y38.4215 I13.9801 J1.0080
G01 X39.7087 Y38.4485
G02 X40.0327 Y10.1255 I-1.6225 J-14.1819
G01 X26.2087 Y10.0985
G02 X14.9953 Y18.1470 I1.3599 J13.7302
G01 X13.7000 Y17.6574
G02 X12.4680 Y22.9986 I12.4991 J5.6957
G02 X12.4323 Y25.2640 I24.4321 J1.5173
G02 X26.2627 Y39.8255 I15.2161 J-0.6034
G01 X39.6817
G02 X51.8093 Y31.8150 I-1.4517 J-15.3836
G02 X40.0597 Y8.7485 I-13.7183 J-7.5380
G01 X26.2627 Y8.7215
G02 X13.7000 Y17.6574 I1.2515 J15.0581
G01 X12.3564 Y17.2659
G02 X11.0761 Y23.5778 I14.3260 J6.1917
G02 X11.1421 Y26.1367 I53.4323 J-0.0991
G02 X26.3707 Y41.2025 I16.4079 J-1.3558
G01 X39.6007
G02 X53.4247 Y31.3745 I-1.1356 J-16.2336
G02 X39.9787 Y7.3715 I-15.1081 J-7.3044
G01 X26.3437 Y7.3445
G02 X12.3564 Y17.2659 I1.1003 J16.3715
G01 X11.1816 Y16.5100
G02 X9.7436 Y25.3701 I15.9790 J7.1401
G02 X10.2248 Y28.7270 I39.9002 J-4.0068
G02 X26.5327 Y42.5795 I17.1289 J-3.6395
G01 X39.4387
G02 X55.2607 Y30.3485 I-0.8634 J-17.4661
G02 X39.4387 Y5.9675 I-16.8203 J-6.4089
G01 X26.5327
G02 X11.1816 Y16.5100 I0.8747 J17.7213
G01 X10.4594 Y16.4157
G02 X9.2864 Y27.4737 I17.3485 J7.4314
G02 X12.8842 Y36.1649 I20.9131 J-3.5669
G02 X19.1641 Y41.3614 I14.2391 J-10.8149
G02 X27.4580 Y43.3118 I8.2696 J-16.5556
G01 X38.5419
G02 X52.6471 Y36.7710 I0.0621 J-18.3455
G02 X56.1772 Y29.7758 I-15.8725 J-12.3982
G02 X56.8391 Y20.9206 I-19.8138 J-5.9334
G02 X38.5419 Y5.2535 I-18.2817 J2.8327
G01 X27.4580
G02 X10.4594 Y16.4157 I-0.0219 J18.4911
G00 Z5.0000


(No. 2: Taglio 8)
G00 X19.7062 Y11.1995 Z5.0000
G00 Z-14.5000
G01 Z-17.0000 F900
G01 X19.7196 Y11.3070 F1800
G01 X19.8546 Y11.5230
G02 X20.3373 Y10.6124 I0.3668 J-0.3888
G02 X19.7062 Y11.1995 I-0.1169 J0.5071
G01 X18.3227 Y11.3674
G02 X21.3886 Y12.6466 I1.9023 J-0.2455
G02 X20.9635 Y9.3518 I-1.1637 J-1.5247
G02 X18.3227 Y11.3674 I-0.7386 J1.7701
G01 X16.9706 Y11.6524
G02 X22.3102 Y13.6670 I3.2513 J-0.5341
G02 X21.3850 Y8.0355 I-2.0882 J-2.5487
G02 X16.9706 Y11.6524 I-1.1631 J3.0828
G01 X16.3045 Y11.9107
G02 X22.8582 Y14.1462 I3.9222 J-0.7742
G02 X21.5173 Y7.3527 I-2.6316 J-3.0096
G02 X16.3045 Y11.9107 I-1.2906 J3.7838
G00 Z5.0000
G00 X19.7061 Y11.1993
G00 Z-16.5000
G01 Z-19.0000 F900
G01 X19.7196 Y11.3070 F1800
G01 X19.8546 Y11.5230
G02 X20.3373 Y10.6124 I0.3668 J-0.3888
G02 X19.7061 Y11.1993 I-0.1169 J0.5071
G01 X18.3227 Y11.3674
G02 X21.3886 Y12.6466 I1.9023 J-0.2455
G02 X20.9635 Y9.3518 I-1.1637 J-1.5247
G02 X18.3227 Y11.3674 I-0.7386 J1.7701
G01 X16.9706 Y11.6524
G02 X22.3102 Y13.6670 I3.2513 J-0.5341
G02 X21.3850 Y8.0355 I-2.0882 J-2.5487
G02 X16.9706 Y11.6524 I-1.1631 J3.0828
G01 X16.3045 Y11.9107
G02 X22.8582 Y14.1462 I3.9222 J-0.7742
G02 X21.5173 Y7.3527 I-2.6316 J-3.0096
G02 X16.3045 Y11.9107 I-1.2906 J3.7838
G00 Z5.0000
G00 X19.7061 Y11.1993
G00 Z-18.5000
G01 Z-21.0000 F900
G01 X19.7196 Y11.3070 F1800
G01 X19.8546 Y11.5230
G02 X20.3373 Y10.6124 I0.3668 J-0.3888
G02 X19.7061 Y11.1993 I-0.1169 J0.5071
G01 X18.3227 Y11.3674
G02 X21.3886 Y12.6466 I1.9023 J-0.2455
G02 X20.9635 Y9.3518 I-1.1637 J-1.5247
G02 X18.3227 Y11.3674 I-0.7386 J1.7701
G01 X16.9706 Y11.6524
G02 X22.3102 Y13.6670 I3.2513 J-0.5341
G02 X21.3850 Y8.0355 I-2.0882 J-2.5487
G02 X16.9706 Y11.6524 I-1.1631 J3.0828
G01 X16.3045 Y11.9107
G02 X22.8582 Y14.1462 I3.9222 J-0.7742
G02 X21.5173 Y7.3527 I-2.6316 J-3.0096
G02 X16.3045 Y11.9107 I-1.2906 J3.7838
G00 Z5.0000
G00 X19.7061 Y11.1993
G00 Z-20.5000
G01 Z-22.0000 F900
G01 X19.7196 Y11.3070 F1800
G01 X19.8546 Y11.5230
G02 X20.3373 Y10.6124 I0.3668 J-0.3888
G02 X19.7061 Y11.1993 I-0.1169 J0.5071
G01 X18.3227 Y11.3674
G02 X21.3886 Y12.6466 I1.9023 J-0.2455
G02 X20.9635 Y9.3518 I-1.1637 J-1.5247
G02 X18.3227 Y11.3674 I-0.7386 J1.7701
G01 X16.9706 Y11.6524
G02 X22.3102 Y13.6670 I3.2513 J-0.5341
G02 X21.3850 Y8.0355 I-2.0882 J-2.5487
G02 X16.9706 Y11.6524 I-1.1631 J3.0828
G01 X16.3045 Y11.9107
G02 X22.8582 Y14.1462 I3.9222 J-0.7742
G02 X21.5173 Y7.3527 I-2.6316 J-3.0096
G02 X16.3045 Y11.9107 I-1.2906 J3.7838
G00 Z5.0000


(No. 3: Taglio 17)
G00 X32.3405 Y23.4802 Z5.0000
G00 Z-14.5000
G01 Z-17.0000 F900
G02 X32.1759 Y23.8984 I0.6451 J0.4953 F1800
G01 X32.2569 Y24.3304
G01 X32.4729 Y24.6004
G01 X32.8779 Y24.7894
G02 X33.0848 Y23.1651 I0.1089 J-0.8114
G02 X32.3405 Y23.4802 I-0.0959 J0.8100
G01 X31.2364 Y22.6320
G02 X32.7162 Y26.1421 I1.7532 J1.3278
G02 X35.0161 Y23.1055 I0.2734 J-2.1822
G02 X31.2364 Y22.6320 I-2.0265 J0.8544
G01 X30.1384 Y21.8092
G02 X35.7632 Y26.2203 I2.8595 J2.1456
G02 X30.1384 Y21.8092 I-2.7632 J-2.2683
G01 X29.0829 Y20.9063
G02 X36.7997 Y27.1181 I3.9158 J3.0346
G02 X29.0829 Y20.9063 I-3.7988 J-3.1800
G01 X27.8618 Y20.2274
G02 X32.3560 Y30.2273 I5.1339 J3.7026
G02 X38.7691 Y21.3352 I0.6396 J-6.2973
G02 X27.8618 Y20.2274 I-5.7734 J2.5948
G01 X26.6274 Y19.5907
G02 X39.2333 Y28.4369 I6.3725 J4.3239
G02 X26.6274 Y19.5907 I-6.2309 J-4.5258
G01 X25.3702 Y19.0028
G02 X40.4942 Y29.0193 I7.6320 J4.9026
G02 X25.3702 Y19.0028 I-7.4899 J-5.1171
G01 X24.1017 Y18.4186
G02 X41.7394 Y29.6221 I8.8971 J5.4786
G02 X24.1017 Y18.4186 I-8.7382 J-5.7286
G01 X23.4995 Y18.0843
G02 X32.7051 Y35.0579 I9.5027 J5.8294
G02 X42.8019 Y18.5988 I0.2971 J-11.1443
G02 X23.4995 Y18.0843 I-9.7997 J5.3149
G00 Z5.0000
G00 X32.3151 Y23.5153
G00 Z-16.5000
G01 Z-19.0000 F900
G02 X32.1759 Y23.8984 I0.6701 J0.4602 F1800
G01 X32.2569 Y24.3304
G01 X32.4729 Y24.6004
G01 X32.8779 Y24.7894
G02 X33.0848 Y23.1651 I0.1089 J-0.8114
G02 X32.3151 Y23.5153 I-0.0959 J0.8101
G01 X31.1622 Y22.7362
G02 X32.8436 Y26.1543 I1.8274 J1.2237
G02 X34.9631 Y22.9891 I0.1460 J-2.1944
G02 X31.1622 Y22.7362 I-1.9734 J0.9708
G01 X29.9629 Y22.0659
G02 X35.9504 Y25.9706 I3.0351 J1.8889
G02 X29.9629 Y22.0659 I-2.9504 J-2.0188
G01 X28.8669 Y21.2080
G02 X37.0266 Y26.8251 I4.1320 J2.7329
G02 X28.8669 Y21.2080 I-4.0258 J-2.8872
G01 X27.5995 Y20.6212
G02 X32.8286 Y30.2573 I5.3962 J3.3085
G02 X38.5591 Y20.9108 I0.1672 J-6.3275
G02 X27.5995 Y20.6212 I-5.5634 J3.0190
G01 X26.3575 Y20.0183
G02 X39.5159 Y28.0195 I6.6426 J3.8963
G02 X26.3575 Y20.0183 I-6.5135 J-4.1086
G01 X25.0972 Y19.4565
G02 X40.7790 Y28.5750 I7.9051 J4.4488
G02 X25.0972 Y19.4565 I-7.7747 J-4.6730
G01 X23.7984 Y18.9452
G02 X42.0577 Y29.1041 I9.2006 J4.9519
G02 X23.7984 Y18.9452 I-9.0565 J-5.2108
G01 X23.2031 Y18.5975
G02 X33.2980 Y35.0578 I9.7991 J5.3160
G02 X42.5056 Y18.0853 I-0.2957 J-11.1443
G02 X23.2031 Y18.5975 I-9.5034 J5.8283
G00 Z5.0000
G00 X32.2916 Y23.5518
G00 Z-18.5000
G01 Z-21.0000 F900
G02 X32.1759 Y23.8984 I0.6922 J0.4235 F1800
G01 X32.2569 Y24.3304
G01 X32.4729 Y24.6004
G01 X32.8779 Y24.7894
G02 X33.0848 Y23.1651 I0.1089 J-0.8114
G02 X32.2916 Y23.5518 I-0.0959 J0.8101
G01 X31.0942 Y22.8445
G02 X32.9715 Y26.1590 I1.8955 J1.1153
G02 X34.9033 Y22.8760 I0.0182 J-2.1992
G02 X31.0942 Y22.8445 I-1.9137 J1.0839
G01 X29.9620 Y22.0673
G02 X35.9504 Y25.9706 I3.0360 J1.8875
G02 X29.9620 Y22.0673 I-2.9504 J-2.0188
G01 X28.8669 Y21.2080
G02 X37.0266 Y26.8251 I4.1320 J2.7328
G02 X28.8669 Y21.2080 I-4.0258 J-2.8872
G01 X27.5995 Y20.6212
G02 X32.8286 Y30.2573 I5.3962 J3.3085
G02 X38.5591 Y20.9108 I0.1672 J-6.3275
G02 X27.5995 Y20.6212 I-5.5634 J3.0190
G01 X26.3575 Y20.0183
G02 X39.5159 Y28.0195 I6.6426 J3.8963
G02 X26.3575 Y20.0183 I-6.5135 J-4.1086
G01 X25.0972 Y19.4565
G02 X40.7790 Y28.5750 I7.9051 J4.4488
G02 X25.0972 Y19.4565 I-7.7747 J-4.6730
G01 X23.7984 Y18.9452
G02 X42.0577 Y29.1041 I9.2006 J4.9519
G02 X23.7984 Y18.9452 I-9.0565 J-5.2108
G01 X23.2031 Y18.5975
G02 X33.2980 Y35.0578 I9.7991 J5.3160
G02 X42.5056 Y18.0853 I-0.2957 J-11.1443
G02 X23.2031 Y18.5975 I-9.5034 J5.8283
G00 Z5.0000
G00 X32.2916 Y23.5518
G00 Z-20.5000
G01 Z-23.0000 F900
G02 X32.1759 Y23.8984 I0.6922 J0.4235 F1800
G01 X32.2569 Y24.3304
G01 X32.4729 Y24.6004
G01 X32.8779 Y24.7894
G02 X33.0848 Y23.1651 I0.1089 J-0.8114
G02 X32.2916 Y23.5518 I-0.0959 J0.8101
G01 X31.0942 Y22.8445
G02 X32.9715 Y26.1590 I1.8955 J1.1153
G02 X34.9033 Y22.8760 I0.0182 J-2.1992
G02 X31.0942 Y22.8445 I-1.9137 J1.0839
G01 X29.9620 Y22.0673
G02 X35.9504 Y25.9706 I3.0360 J1.8875
G02 X29.9620 Y22.0673 I-2.9504 J-2.0188
G01 X28.8669 Y21.2080
G02 X37.0266 Y26.8251 I4.1320 J2.7328
G02 X28.8669 Y21.2080 I-4.0258 J-2.8872
G01 X27.5995 Y20.6212
G02 X32.8286 Y30.2573 I5.3962 J3.3085
G02 X38.5591 Y20.9108 I0.1672 J-6.3275
G02 X27.5995 Y20.6212 I-5.5634 J3.0190
G01 X26.3575 Y20.0183
G02 X39.5159 Y28.0195 I6.6426 J3.8963
G02 X26.3575 Y20.0183 I-6.5135 J-4.1086
G01 X25.0972 Y19.4565
G02 X40.7790 Y28.5750 I7.9051 J4.4488
G02 X25.0972 Y19.4565 I-7.7747 J-4.6730
G01 X23.7984 Y18.9452
G02 X42.0577 Y29.1041 I9.2006 J4.9519
G02 X23.7984 Y18.9452 I-9.0565 J-5.2108
G01 X23.2031 Y18.5975
G02 X33.2980 Y35.0578 I9.7991 J5.3160
G02 X42.5056 Y18.0853 I-0.2957 J-11.1443
G02 X23.2031 Y18.5975 I-9.5034 J5.8283
G00 Z5.0000
G00 X32.2916 Y23.5518
G00 Z-22.5000
G01 Z-25.0000 F900
G02 X32.1759 Y23.8984 I0.6922 J0.4235 F1800
G01 X32.2569 Y24.3304
G01 X32.4729 Y24.6004
G01 X32.8779 Y24.7894
G02 X33.0848 Y23.1651 I0.1089 J-0.8114
G02 X32.2916 Y23.5518 I-0.0959 J0.8101
G01 X31.0942 Y22.8445
G02 X32.9715 Y26.1590 I1.8955 J1.1153
G02 X34.9033 Y22.8760 I0.0182 J-2.1992
G02 X31.0942 Y22.8445 I-1.9137 J1.0839
G01 X29.9620 Y22.0673
G02 X35.9504 Y25.9706 I3.0360 J1.8875
G02 X29.9620 Y22.0673 I-2.9504 J-2.0188
G01 X28.8669 Y21.2080
G02 X37.0266 Y26.8251 I4.1320 J2.7328
G02 X28.8669 Y21.2080 I-4.0258 J-2.8872
G01 X27.5995 Y20.6212
G02 X32.8286 Y30.2573 I5.3962 J3.3085
G02 X38.5591 Y20.9108 I0.1672 J-6.3275
G02 X27.5995 Y20.6212 I-5.5634 J3.0190
G01 X26.3575 Y20.0183
G02 X39.5159 Y28.0195 I6.6426 J3.8963
G02 X26.3575 Y20.0183 I-6.5135 J-4.1086
G01 X25.0972 Y19.4565
G02 X40.7790 Y28.5750 I7.9051 J4.4488
G02 X25.0972 Y19.4565 I-7.7747 J-4.6730
G01 X23.7984 Y18.9452
G02 X42.0577 Y29.1041 I9.2006 J4.9519
G02 X23.7984 Y18.9452 I-9.0565 J-5.2108
G01 X23.2031 Y18.5975
G02 X33.2980 Y35.0578 I9.7991 J5.3160
G02 X42.5056 Y18.0853 I-0.2957 J-11.1443
G02 X23.2031 Y18.5975 I-9.5034 J5.8283
G00 Z5.0000
G00 X32.2916 Y23.5518
G00 Z-24.5000
G01 Z-27.0000 F900
G02 X32.1759 Y23.8984 I0.6922 J0.4235 F1800
G01 X32.2569 Y24.3304
G01 X32.4729 Y24.6004
G01 X32.8779 Y24.7894
G02 X33.0848 Y23.1651 I0.1089 J-0.8114
G02 X32.2916 Y23.5518 I-0.0959 J0.8101
G01 X31.0942 Y22.8445
G02 X32.9715 Y26.1590 I1.8955 J1.1153
G02 X34.9033 Y22.8760 I0.0182 J-2.1992
G02 X31.0942 Y22.8445 I-1.9137 J1.0839
G01 X29.9620 Y22.0673
G02 X35.9504 Y25.9706 I3.0360 J1.8875
G02 X29.9620 Y22.0673 I-2.9504 J-2.0188
G01 X28.8669 Y21.2080
G02 X37.0266 Y26.8251 I4.1320 J2.7328
G02 X28.8669 Y21.2080 I-4.0258 J-2.8872
G01 X27.5995 Y20.6212
G02 X32.8286 Y30.2573 I5.3962 J3.3085
G02 X38.5591 Y20.9108 I0.1672 J-6.3275
G02 X27.5995 Y20.6212 I-5.5634 J3.0190
G01 X26.3575 Y20.0183
G02 X39.5159 Y28.0195 I6.6426 J3.8963
G02 X26.3575 Y20.0183 I-6.5135 J-4.1086
G01 X25.0972 Y19.4565
G02 X40.7790 Y28.5750 I7.9051 J4.4488
G02 X25.0972 Y19.4565 I-7.7747 J-4.6730
G01 X23.7984 Y18.9452
G02 X42.0577 Y29.1041 I9.2006 J4.9519
G02 X23.7984 Y18.9452 I-9.0565 J-5.2108
G01 X23.2031 Y18.5975
G02 X33.2980 Y35.0578 I9.7991 J5.3160
G02 X42.5056 Y18.0853 I-0.2957 J-11.1443
G02 X23.2031 Y18.5975 I-9.5034 J5.8283
G00 Z5.0000
G00 X32.2916 Y23.5518
G00 Z-26.5000
G01 Z-28.0000 F900
G02 X32.1759 Y23.8984 I0.6922 J0.4235 F1800
G01 X32.2569 Y24.3304
G01 X32.4729 Y24.6004
G01 X32.8779 Y24.7894
G02 X33.0848 Y23.1651 I0.1089 J-0.8114
G02 X32.2916 Y23.5518 I-0.0959 J0.8101
G01 X31.0942 Y22.8445
G02 X32.9715 Y26.1590 I1.8955 J1.1153
G02 X34.9033 Y22.8760 I0.0182 J-2.1992
G02 X31.0942 Y22.8445 I-1.9137 J1.0839
G01 X29.9620 Y22.0673
G02 X35.9504 Y25.9706 I3.0360 J1.8875
G02 X29.9620 Y22.0673 I-2.9504 J-2.0188
G01 X28.8669 Y21.2080
G02 X37.0266 Y26.8251 I4.1320 J2.7328
G02 X28.8669 Y21.2080 I-4.0258 J-2.8872
G01 X27.5995 Y20.6212
G02 X32.8286 Y30.2573 I5.3962 J3.3085
G02 X38.5591 Y20.9108 I0.1672 J-6.3275
G02 X27.5995 Y20.6212 I-5.5634 J3.0190
G01 X26.3575 Y20.0183
G02 X39.5159 Y28.0195 I6.6426 J3.8963
G02 X26.3575 Y20.0183 I-6.5135 J-4.1086
G01 X25.0972 Y19.4565
G02 X40.7790 Y28.5750 I7.9051 J4.4488
G02 X25.0972 Y19.4565 I-7.7747 J-4.6730
G01 X23.7984 Y18.9452
G02 X42.0577 Y29.1041 I9.2006 J4.9519
G02 X23.7984 Y18.9452 I-9.0565 J-5.2108
G01 X23.2031 Y18.5975
G02 X33.2980 Y35.0578 I9.7991 J5.3160
G02 X42.5056 Y18.0853 I-0.2957 J-11.1443
G02 X23.2031 Y18.5975 I-9.5034 J5.8283
G00 Z5.0000


(No. 4: Taglio 10)
G00 X20.3201 Y36.1599 Z5.0000
G00 Z-14.5000
G01 Z-17.0000 F900
G02 X19.7196 Y36.8577 I-0.0966 J0.5242 F1800
G01 X19.8546 Y37.0737
G02 X20.3201 Y36.1599 I0.3669 J-0.3886
G01 X20.6032 Y34.7932
G02 X18.4063 Y37.2852 I-0.3790 J1.8802
G02 X21.6629 Y37.9418 I1.8178 J-0.6118
G02 X20.6032 Y34.7932 I-1.4388 J-1.2684
G01 X20.7159 Y33.4155
G02 X17.1493 Y37.8706 I-0.4973 J3.2572
G02 X22.7908 Y38.7319 I3.0694 J-1.1979
G02 X20.7159 Y33.4155 I-2.5722 J-2.0592
G01 X20.6992 Y32.7203
G02 X16.5493 Y38.2635 I-0.4748 J3.9696
G02 X23.4248 Y39.0858 I3.6752 J-1.5736
G02 X20.6992 Y32.7203 I-3.2004 J-2.3960
G00 Z5.0000
G00 X20.2855 Y36.1547
G00 Z-16.5000
G01 Z-19.0000 F900
G02 X19.7196 Y36.8577 I-0.0620 J0.5294 F1800
G01 X19.8546 Y37.0737
G02 X20.3373 Y36.1631 I0.3668 J-0.3888
G01 X20.3029 Y36.1567
G01 X20.2855 Y36.1547
G01 X20.4794 Y34.7724
G02 X18.4503 Y37.4028 I-0.2553 J1.9010
G02 X21.7428 Y37.8449 I1.7739 J-0.7294
G02 X20.4794 Y34.7724 I-1.5187 J-1.1715
G01 X20.7140 Y33.4152
G02 X17.1500 Y37.8724 I-0.4954 J3.2575
G02 X22.7920 Y38.7304 I3.0687 J-1.1997
G02 X20.7140 Y33.4152 I-2.5734 J-2.0577
G01 X20.6991 Y32.7202
G02 X16.5493 Y38.2635 I-0.4747 J3.9696
G02 X23.4249 Y39.0857 I3.6751 J-1.5737
G02 X20.6991 Y32.7202 I-3.2004 J-2.3959
G00 Z5.0000
G00 X20.2855 Y36.1547
G00 Z-18.5000
G01 Z-21.0000 F900
G02 X19.7196 Y36.8577 I-0.0620 J0.5294 F1800
G01 X19.8546 Y37.0737
G02 X20.3373 Y36.1631 I0.3668 J-0.3888
G01 X20.3029 Y36.1567
G01 X20.2855 Y36.1547
G01 X20.4794 Y34.7724
G02 X18.4503 Y37.4028 I-0.2553 J1.9010
G02 X21.7428 Y37.8449 I1.7739 J-0.7294
G02 X20.4794 Y34.7724 I-1.5187 J-1.1715
G01 X20.7140 Y33.4152
G02 X17.1500 Y37.8724 I-0.4954 J3.2575
G02 X22.7920 Y38.7304 I3.0687 J-1.1997
G02 X20.7140 Y33.4152 I-2.5734 J-2.0577
G01 X20.6991 Y32.7202
G02 X16.5493 Y38.2635 I-0.4747 J3.9696
G02 X23.4249 Y39.0857 I3.6751 J-1.5737
G02 X20.6991 Y32.7202 I-3.2004 J-2.3959
G00 Z5.0000
G00 X20.2855 Y36.1547
G00 Z-20.5000
G01 Z-22.0000 F900
G02 X19.7196 Y36.8577 I-0.0620 J0.5294 F1800
G01 X19.8546 Y37.0737
G02 X20.3373 Y36.1631 I0.3668 J-0.3888
G01 X20.3029 Y36.1567
G01 X20.2855 Y36.1547
G01 X20.4794 Y34.7724
G02 X18.4503 Y37.4028 I-0.2553 J1.9010
G02 X21.7428 Y37.8449 I1.7739 J-0.7294
G02 X20.4794 Y34.7724 I-1.5187 J-1.1715
G01 X20.7140 Y33.4152
G02 X17.1500 Y37.8724 I-0.4954 J3.2575
G02 X22.7920 Y38.7304 I3.0687 J-1.1997
G02 X20.7140 Y33.4152 I-2.5734 J-2.0577
G01 X20.6991 Y32.7202
G02 X16.5493 Y38.2635 I-0.4747 J3.9696
G02 X23.4249 Y39.0857 I3.6751 J-1.5737
G02 X20.6991 Y32.7202 I-3.2004 J-2.3959
G00 Z5.0000


(No. 5: Taglio 11)
G00 X45.2503 Y36.5898 Z5.0000
G00 Z-14.5000
G01 Z-17.0000 F900
G02 X45.2703 Y36.8577 I0.5183 J0.0960 F1800
G01 X45.4053 Y37.0737
G02 X45.8880 Y36.1631 I0.3668 J-0.3888
G02 X45.2503 Y36.5898 I-0.1137 J0.5200
G01 X43.8747 Y36.4175
G02 X47.6669 Y36.9901 I1.9007 J0.2558
G02 X43.8747 Y36.4175 I-1.8913 J-0.3179
G01 X42.5152 Y36.1747
G02 X46.9725 Y39.7386 I3.2575 J0.4952
G02 X47.8303 Y34.0965 I-1.1999 J-3.0687
G02 X42.5152 Y36.1747 I-2.0576 J2.5734
G01 X41.8080 Y36.2122
G02 X47.3502 Y40.3634 I3.9695 J0.4757
G02 X48.1741 Y33.4881 I-1.5728 J-3.6755
G02 X41.8080 Y36.2122 I-2.3967 J3.1998
G00 Z5.0000
G00 X45.2503 Y36.5898
G00 Z-16.5000
G01 Z-19.0000 F900
G02 X45.2703 Y36.8577 I0.5183 J0.0960 F1800
G01 X45.4053 Y37.0737
G02 X45.8880 Y36.1631 I0.3668 J-0.3888
G02 X45.2503 Y36.5898 I-0.1137 J0.5200
G01 X43.8747 Y36.4175
G02 X47.6669 Y36.9901 I1.9007 J0.2558
G02 X43.8747 Y36.4175 I-1.8913 J-0.3179
G01 X42.5152 Y36.1747
G02 X46.9725 Y39.7386 I3.2575 J0.4952
G02 X47.8303 Y34.0965 I-1.1999 J-3.0687
G02 X42.5152 Y36.1747 I-2.0576 J2.5734
G01 X41.8080 Y36.2122
G02 X47.3502 Y40.3634 I3.9695 J0.4757
G02 X48.1741 Y33.4881 I-1.5728 J-3.6755
G02 X41.8080 Y36.2122 I-2.3967 J3.1998
G00 Z5.0000
G00 X45.2503 Y36.5898
G00 Z-18.5000
G01 Z-21.0000 F900
G02 X45.2703 Y36.8577 I0.5183 J0.0960 F1800
G01 X45.4053 Y37.0737
G02 X45.8880 Y36.1631 I0.3668 J-0.3888
G02 X45.2503 Y36.5898 I-0.1137 J0.5200
G01 X43.8747 Y36.4175
G02 X47.6669 Y36.9901 I1.9007 J0.2558
G02 X43.8747 Y36.4175 I-1.8913 J-0.3179
G01 X42.5152 Y36.1747
G02 X46.9725 Y39.7386 I3.2575 J0.4952
G02 X47.8303 Y34.0965 I-1.1999 J-3.0687
G02 X42.5152 Y36.1747 I-2.0576 J2.5734
G01 X41.8080 Y36.2122
G02 X47.3502 Y40.3634 I3.9695 J0.4757
G02 X48.1741 Y33.4881 I-1.5728 J-3.6755
G02 X41.8080 Y36.2122 I-2.3967 J3.1998
G00 Z5.0000
G00 X45.2503 Y36.5898
G00 Z-20.5000
G01 Z-22.0000 F900
G02 X45.2703 Y36.8577 I0.5183 J0.0960 F1800
G01 X45.4053 Y37.0737
G02 X45.8880 Y36.1631 I0.3668 J-0.3888
G02 X45.2503 Y36.5898 I-0.1137 J0.5200
G01 X43.8747 Y36.4175
G02 X47.6669 Y36.9901 I1.9007 J0.2558
G02 X43.8747 Y36.4175 I-1.8913 J-0.3179
G01 X42.5152 Y36.1747
G02 X46.9725 Y39.7386 I3.2575 J0.4952
G02 X47.8303 Y34.0965 I-1.1999 J-3.0687
G02 X42.5152 Y36.1747 I-2.0576 J2.5734
G01 X41.8080 Y36.2122
G02 X47.3502 Y40.3634 I3.9695 J0.4757
G02 X48.1741 Y33.4881 I-1.5728 J-3.6755
G02 X41.8080 Y36.2122 I-2.3967 J3.1998
G00 Z5.0000


(No. 6: Taglio 12)
G00 X45.5406 Y11.5907 Z5.0000
G00 Z-14.5000
G01 Z-17.0000 F900
G02 X46.3041 Y11.0751 I0.2515 J-0.4507 F1800
G02 X45.2433 Y11.0910 I-0.5296 J0.0578
G01 X45.2703 Y11.3070
G01 X45.4053 Y11.5230
G01 X45.5406 Y11.5907
G01 X44.9225 Y12.8394
G02 X46.6837 Y9.4325 I0.8532 J-1.7176
G02 X44.9225 Y12.8394 I-0.9089 J1.6888
G01 X44.2930 Y14.0611
G02 X47.4008 Y8.2544 I1.4797 J-2.9431
G02 X44.2930 Y14.0611 I-1.6321 J2.8615
G01 X44.0976 Y14.7635
G02 X49.7577 Y10.7746 I1.6786 J-3.6284
G02 X43.4731 Y7.8672 I-3.9816 J0.3605
G02 X44.0976 Y14.7635 I2.3030 J3.2679
G00 Z5.0000
G00 X45.5405 Y11.5906
G00 Z-16.5000
G01 Z-19.0000 F900
G02 X46.3041 Y11.0751 I0.2515 J-0.4507 F1800
G02 X45.2433 Y11.0910 I-0.5296 J0.0578
G01 X45.2703 Y11.3070
G01 X45.4053 Y11.5230
G01 X45.5405 Y11.5906
G01 X44.9225 Y12.8394
G02 X46.6837 Y9.4325 I0.8532 J-1.7176
G02 X44.9225 Y12.8394 I-0.9089 J1.6888
G01 X44.2930 Y14.0611
G02 X47.4008 Y8.2544 I1.4797 J-2.9431
G02 X44.2930 Y14.0611 I-1.6321 J2.8615
G01 X44.0976 Y14.7635
G02 X49.7577 Y10.7746 I1.6786 J-3.6284
G02 X43.4731 Y7.8672 I-3.9816 J0.3605
G02 X44.0976 Y14.7635 I2.3030 J3.2679
G00 Z5.0000
G00 X45.5405 Y11.5906
G00 Z-18.5000
G01 Z-21.0000 F900
G02 X46.3041 Y11.0751 I0.2515 J-0.4507 F1800
G02 X45.2433 Y11.0910 I-0.5296 J0.0578
G01 X45.2703 Y11.3070
G01 X45.4053 Y11.5230
G01 X45.5405 Y11.5906
G01 X44.9225 Y12.8394
G02 X46.6837 Y9.4325 I0.8532 J-1.7176
G02 X44.9225 Y12.8394 I-0.9089 J1.6888
G01 X44.2930 Y14.0611
G02 X47.4008 Y8.2544 I1.4797 J-2.9431
G02 X44.2930 Y14.0611 I-1.6321 J2.8615
G01 X44.0976 Y14.7635
G02 X49.7577 Y10.7746 I1.6786 J-3.6284
G02 X43.4731 Y7.8672 I-3.9816 J0.3605
G02 X44.0976 Y14.7635 I2.3030 J3.2679
G00 Z5.0000
G00 X45.5405 Y11.5906
G00 Z-20.5000
G01 Z-22.0000 F900
G02 X46.3041 Y11.0751 I0.2515 J-0.4507 F1800
G02 X45.2433 Y11.0910 I-0.5296 J0.0578
G01 X45.2703 Y11.3070
G01 X45.4053 Y11.5230
G01 X45.5405 Y11.5906
G01 X44.9225 Y12.8394
G02 X46.6837 Y9.4325 I0.8532 J-1.7176
G02 X44.9225 Y12.8394 I-0.9089 J1.6888
G01 X44.2930 Y14.0611
G02 X47.4008 Y8.2544 I1.4797 J-2.9431
G02 X44.2930 Y14.0611 I-1.6321 J2.8615
G01 X44.0976 Y14.7635
G02 X49.7577 Y10.7746 I1.6786 J-3.6284
G02 X43.4731 Y7.8672 I-3.9816 J0.3605
G02 X44.0976 Y14.7635 I2.3030 J3.2679
G00 Z5.0000


(No. 7: Taglio 15)
G00 X45.7934 Y11.1281 Z5.0000
G00 Z-21.5000
G01 Z-24.0000 F900
G01 X45.8203 Y11.1550 F1800
G01 X45.7663 Y11.1010
G01 X45.7934 Y11.1281
G01 X46.4426 Y10.7970
G02 X45.1468 Y10.7291 I-0.6675 J0.3401
G02 X45.7359 Y11.8853 I0.6283 J0.4080
G02 X46.4426 Y10.7970 I0.0392 J-0.7481
G00 Z5.0000
G00 X45.7938 Y11.1285
G00 Z-23.5000
G01 Z-26.0000 F900
G01 X45.8203 Y11.1550 F1800
G01 X45.7663 Y11.1010
G01 X45.7938 Y11.1285
G01 X46.4626 Y10.8396
G02 X45.1737 Y10.6905 I-0.6875 J0.2975
G02 X45.6890 Y11.8813 I0.6014 J0.4466
G02 X46.4626 Y10.8396 I0.0861 J-0.7442
G00 Z5.0000
G00 X45.7939 Y11.1286
G00 Z-25.5000
G01 Z-28.0000 F900
G01 X45.8203 Y11.1550 F1800
G01 X45.7663 Y11.1010
G01 X45.7939 Y11.1286
G01 X46.4626 Y10.8396
G02 X45.1737 Y10.6905 I-0.6875 J0.2975
G02 X45.6890 Y11.8813 I0.6014 J0.4466
G02 X46.4626 Y10.8396 I0.0861 J-0.7442
G00 Z5.0000


(No. 8: Taglio 14)
G00 X45.7933 Y36.6787 Z5.0000
G00 Z-21.5000
G01 Z-24.0000 F900
G01 X45.8203 Y36.7057 F1800
G01 X45.7663 Y36.6517
G01 X45.7933 Y36.6787
G01 X46.4426 Y36.3477
G02 X45.1468 Y36.2798 I-0.6675 J0.3401
G02 X45.7359 Y37.4360 I0.6283 J0.4080
G02 X46.4426 Y36.3477 I0.0392 J-0.7481
G00 Z5.0000
G00 X45.7938 Y36.6792
G00 Z-23.5000
G01 Z-26.0000 F900
G01 X45.8203 Y36.7057 F1800
G01 X45.7663 Y36.6517
G01 X45.7938 Y36.6792
G01 X46.4626 Y36.3903
G02 X45.1737 Y36.2412 I-0.6875 J0.2975
G02 X45.6890 Y37.4320 I0.6014 J0.4466
G02 X46.4626 Y36.3903 I0.0861 J-0.7442
G00 Z5.0000
G00 X45.7939 Y36.6792
G00 Z-25.5000
G01 Z-28.0000 F900
G01 X45.8203 Y36.7057 F1800
G01 X45.7663 Y36.6517
G01 X45.7939 Y36.6792
G01 X46.4626 Y36.3903
G02 X45.1737 Y36.2412 I-0.6875 J0.2975
G02 X45.6890 Y37.4320 I0.6014 J0.4466
G02 X46.4626 Y36.3903 I0.0861 J-0.7442
G00 Z5.0000


(No. 9: Taglio 13)
G00 X20.2426 Y36.6788 Z5.0000
G00 Z-21.5000
G01 Z-24.0000 F900
G01 X20.2696 Y36.7057 F1800
G01 X20.2156 Y36.6517
G01 X20.2426 Y36.6788
G01 X20.8919 Y36.3477
G02 X19.5961 Y36.2798 I-0.6675 J0.3401
G02 X20.1852 Y37.4360 I0.6283 J0.4080
G02 X20.8919 Y36.3477 I0.0392 J-0.7481
G00 Z5.0000
G00 X20.2430 Y36.6792
G00 Z-23.5000
G01 Z-26.0000 F900
G01 X20.2696 Y36.7057 F1800
G01 X20.2156 Y36.6517
G01 X20.2430 Y36.6792
G01 X20.9119 Y36.3903
G02 X19.6230 Y36.2412 I-0.6875 J0.2975
G02 X20.1383 Y37.4320 I0.6014 J0.4466
G02 X20.9119 Y36.3903 I0.0861 J-0.7442
G00 Z5.0000
G00 X20.2431 Y36.6792
G00 Z-25.5000
G01 Z-28.0000 F900
G01 X20.2696 Y36.7057 F1800
G01 X20.2156 Y36.6517
G01 X20.2431 Y36.6792
G01 X20.9119 Y36.3903
G02 X19.6230 Y36.2412 I-0.6875 J0.2975
G02 X20.1383 Y37.4320 I0.6014 J0.4466
G02 X20.9119 Y36.3903 I0.0861 J-0.7442
G00 Z5.0000


(No. 10: Taglio 16)
G00 X20.2426 Y11.1281 Z5.0000
G00 Z-21.5000
G01 Z-24.0000 F900
G01 X20.2696 Y11.1550 F1800
G01 X20.2156 Y11.1010
G01 X20.2426 Y11.1281
G01 X20.8919 Y10.7970
G02 X19.5961 Y10.7291 I-0.6675 J0.3401
G02 X20.1852 Y11.8853 I0.6283 J0.4080
G02 X20.8919 Y10.7970 I0.0392 J-0.7481
G00 Z5.0000
G00 X20.2430 Y11.1285
G00 Z-23.5000
G01 Z-26.0000 F900
G01 X20.2696 Y11.1550 F1800
G01 X20.2156 Y11.1010
G01 X20.2430 Y11.1285
G01 X20.9119 Y10.8396
G02 X19.6230 Y10.6905 I-0.6875 J0.2975
G02 X20.1383 Y11.8813 I0.6014 J0.4466
G02 X20.9119 Y10.8396 I0.0861 J-0.7442
G00 Z5.0000
G00 X20.2431 Y11.1286
G00 Z-25.5000
G01 Z-28.0000 F900
G01 X20.2696 Y11.1550 F1800
G01 X20.2156 Y11.1010
G01 X20.2431 Y11.1286
G01 X20.9119 Y10.8396
G02 X19.6230 Y10.6905 I-0.6875 J0.2975
G02 X20.1383 Y11.8813 I0.6014 J0.4466
G02 X20.9119 Y10.8396 I0.0861 J-0.7442
G00 Z5.0000


(No. 11: Parte 1)
G00 X-1.5000 Y22.7500 Z5.0000
G00 Z0.5000
G01 Z0.0000 F900
G01 Z-2.0000
G01 Y0.0000 F1800
G03 X0.0000 Y-1.5000 I1.5000 J0.0000
G01 X28.4760
G01 X28.4708 Y-5.8190
G03 X29.9708 Y-7.3208 I1.5000 J-0.0018
G01 X36.0291
G03 X37.5291 Y-5.8208 I0.0000 J1.5000
G01 Y-1.5000
G01 X66.0000
G03 X67.5000 Y0.0000 I0.0000 J1.5000
G01 Y22.7500
G01 Y27.2500
G01 Y50.0000
G03 X66.0000 Y51.5000 I-1.5000 J0.0000
G01 X0.0000
G03 X-1.5000 Y50.0000 I0.0000 J-1.5000
G01 Y27.2500
G01 Y22.7500
G01 Z-4.0000 F900
G01 Y0.0000 F1800
G03 X0.0000 Y-1.5000 I1.5000 J0.0000
G01 X28.4760
G01 X28.4708 Y-5.8190
G03 X29.9708 Y-7.3208 I1.5000 J-0.0018
G01 X36.0291
G03 X37.5291 Y-5.8208 I0.0000 J1.5000
G01 Y-1.5000
G01 X66.0000
G03 X67.5000 Y0.0000 I0.0000 J1.5000
G01 Y22.7500
G01 Y27.2500
G01 Y50.0000
G03 X66.0000 Y51.5000 I-1.5000 J0.0000
G01 X0.0000
G03 X-1.5000 Y50.0000 I0.0000 J-1.5000
G01 Y27.2500
G01 Y22.7500
G01 Z-6.0000 F900
G01 Y0.0000 F1800
G03 X0.0000 Y-1.5000 I1.5000 J0.0000
G01 X28.4760
G01 X28.4708 Y-5.8190
G03 X29.9708 Y-7.3208 I1.5000 J-0.0018
G01 X36.0291
G03 X37.5291 Y-5.8208 I0.0000 J1.5000
G01 Y-1.5000
G01 X66.0000
G03 X67.5000 Y0.0000 I0.0000 J1.5000
G01 Y22.7500
G01 Y27.2500
G01 Y50.0000
G03 X66.0000 Y51.5000 I-1.5000 J0.0000
G01 X0.0000
G03 X-1.5000 Y50.0000 I0.0000 J-1.5000
G01 Y27.2500
G01 Y22.7500
G01 Z-8.0000 F900
G01 Y0.0000 F1800
G03 X0.0000 Y-1.5000 I1.5000 J0.0000
G01 X28.4760
G01 X28.4708 Y-5.8190
G03 X29.9708 Y-7.3208 I1.5000 J-0.0018
G01 X36.0291
G03 X37.5291 Y-5.8208 I0.0000 J1.5000
G01 Y-1.5000
G01 X66.0000
G03 X67.5000 Y0.0000 I0.0000 J1.5000
G01 Y22.7500
G01 Y27.2500
G01 Y50.0000
G03 X66.0000 Y51.5000 I-1.5000 J0.0000
G01 X0.0000
G03 X-1.5000 Y50.0000 I0.0000 J-1.5000
G01 Y27.2500
G01 Y22.7500
G01 Z-10.0000 F900
G01 Y0.0000 F1800
G03 X0.0000 Y-1.5000 I1.5000 J0.0000
G01 X28.4760
G01 X28.4708 Y-5.8190
G03 X29.9708 Y-7.3208 I1.5000 J-0.0018
G01 X36.0291
G03 X37.5291 Y-5.8208 I0.0000 J1.5000
G01 Y-1.5000
G01 X66.0000
G03 X67.5000 Y0.0000 I0.0000 J1.5000
G01 Y22.7500
G01 Y27.2500
G01 Y50.0000
G03 X66.0000 Y51.5000 I-1.5000 J0.0000
G01 X0.0000
G03 X-1.5000 Y50.0000 I0.0000 J-1.5000
G01 Y27.2500
G01 Y22.7500
G01 Z-12.0000 F900
G01 Y0.0000 F1800
G03 X0.0000 Y-1.5000 I1.5000 J0.0000
G01 X28.4760
G01 X28.4708 Y-5.8190
G03 X29.9708 Y-7.3208 I1.5000 J-0.0018
G01 X36.0291
G03 X37.5291 Y-5.8208 I0.0000 J1.5000
G01 Y-1.5000
G01 X66.0000
G03 X67.5000 Y0.0000 I0.0000 J1.5000
G01 Y22.7500
G01 Y27.2500
G01 Y50.0000
G03 X66.0000 Y51.5000 I-1.5000 J0.0000
G01 X0.0000
G03 X-1.5000 Y50.0000 I0.0000 J-1.5000
G01 Y27.2500
G01 Y22.7500
G01 Z-14.0000 F900
G01 Y0.0000 F1800
G03 X0.0000 Y-1.5000 I1.5000 J0.0000
G01 X28.4760
G01 X28.4708 Y-5.8190
G03 X29.9708 Y-7.3208 I1.5000 J-0.0018
G01 X36.0291
G03 X37.5291 Y-5.8208 I0.0000 J1.5000
G01 Y-1.5000
G01 X66.0000
G03 X67.5000 Y0.0000 I0.0000 J1.5000
G01 Y22.7500
G01 Y27.2500
G01 Y50.0000
G03 X66.0000 Y51.5000 I-1.5000 J0.0000
G01 X0.0000
G03 X-1.5000 Y50.0000 I0.0000 J-1.5000
G01 Y27.2500
G01 Y22.7500
G01 Z-16.0000 F900
G01 Y0.0000 F1800
G03 X0.0000 Y-1.5000 I1.5000 J0.0000
G01 X28.4760
G01 X28.4708 Y-5.8190
G03 X29.9708 Y-7.3208 I1.5000 J-0.0018
G01 X36.0291
G03 X37.5291 Y-5.8208 I0.0000 J1.5000
G01 Y-1.5000
G01 X66.0000
G03 X67.5000 Y0.0000 I0.0000 J1.5000
G01 Y22.7500
G01 Y27.2500
G01 Y50.0000
G03 X66.0000 Y51.5000 I-1.5000 J0.0000
G01 X0.0000
G03 X-1.5000 Y50.0000 I0.0000 J-1.5000
G01 Y27.2500
G01 Y22.7500
G01 Z-18.0000 F900
G01 Y0.0000 F1800
G03 X0.0000 Y-1.5000 I1.5000 J0.0000
G01 X28.4760
G01 X28.4708 Y-5.8190
G03 X29.9708 Y-7.3208 I1.5000 J-0.0018
G01 X36.0291
G03 X37.5291 Y-5.8208 I0.0000 J1.5000
G01 Y-1.5000
G01 X66.0000
G03 X67.5000 Y0.0000 I0.0000 J1.5000
G01 Y22.7500
G01 Y27.2500
G01 Y50.0000
G03 X66.0000 Y51.5000 I-1.5000 J0.0000
G01 X0.0000
G03 X-1.5000 Y50.0000 I0.0000 J-1.5000
G01 Y27.2500
G01 Y22.7500
G01 Z-20.0000 F900
G01 Y0.0000 F1800
G03 X0.0000 Y-1.5000 I1.5000 J0.0000
G01 X28.4760
G01 X28.4708 Y-5.8190
G03 X29.9708 Y-7.3208 I1.5000 J-0.0018
G01 X36.0291
G03 X37.5291 Y-5.8208 I0.0000 J1.5000
G01 Y-1.5000
G01 X66.0000
G03 X67.5000 Y0.0000 I0.0000 J1.5000
G01 Y22.7500
G01 Y27.2500
G01 Y50.0000
G03 X66.0000 Y51.5000 I-1.5000 J0.0000
G01 X0.0000
G03 X-1.5000 Y50.0000 I0.0000 J-1.5000
G01 Y27.2500
G01 Y22.7500
G01 Z-22.0000 F900
G01 Y0.0000 F1800
G03 X0.0000 Y-1.5000 I1.5000 J0.0000
G01 X28.4760
G01 X28.4708 Y-5.8190
G03 X29.9708 Y-7.3208 I1.5000 J-0.0018
G01 X36.0291
G03 X37.5291 Y-5.8208 I0.0000 J1.5000
G01 Y-1.5000
G01 X66.0000
G03 X67.5000 Y0.0000 I0.0000 J1.5000
G01 Y22.7500
G01 Y27.2500
G01 Y50.0000
G03 X66.0000 Y51.5000 I-1.5000 J0.0000
G01 X0.0000
G03 X-1.5000 Y50.0000 I0.0000 J-1.5000
G01 Y27.2500
G01 Y22.7500
G01 Z-24.0000 F900
G01 Y0.0000 F1800
G03 X0.0000 Y-1.5000 I1.5000 J0.0000
G01 X28.4760
G01 X28.4708 Y-5.8190
G03 X29.9708 Y-7.3208 I1.5000 J-0.0018
G01 X36.0291
G03 X37.5291 Y-5.8208 I0.0000 J1.5000
G01 Y-1.5000
G01 X66.0000
G03 X67.5000 Y0.0000 I0.0000 J1.5000
G01 Y22.7500
G01 Y27.2500
G01 Y50.0000
G03 X66.0000 Y51.5000 I-1.5000 J0.0000
G01 X0.0000
G03 X-1.5000 Y50.0000 I0.0000 J-1.5000
G01 Y27.2500
G01 Y22.7500
G01 Z-26.0000 F900
G01 Y0.0000 F1800
G03 X0.0000 Y-1.5000 I1.5000 J0.0000
G01 X28.4760
G01 X28.4708 Y-5.8190
G03 X29.9708 Y-7.3208 I1.5000 J-0.0018
G01 X36.0291
G03 X37.5291 Y-5.8208 I0.0000 J1.5000
G01 Y-1.5000
G01 X66.0000
G03 X67.5000 Y0.0000 I0.0000 J1.5000
G01 Y22.7500
G01 Y27.2500
G01 Y50.0000
G03 X66.0000 Y51.5000 I-1.5000 J0.0000
G01 X0.0000
G03 X-1.5000 Y50.0000 I0.0000 J-1.5000
G01 Y27.2500
G01 Y22.7500
G01 Z-28.0000 F900
G01 Y0.0000 F1800
G03 X0.0000 Y-1.5000 I1.5000 J0.0000
G01 X28.4760
G01 X28.4708 Y-5.8190
G03 X29.9708 Y-7.3208 I1.5000 J-0.0018
G01 X36.0291
G03 X37.5291 Y-5.8208 I0.0000 J1.5000
G01 Y-1.5000
G01 X66.0000
G03 X67.5000 Y0.0000 I0.0000 J1.5000
G01 Y22.7500
G00 Z-26.5000
G01 Y27.2500
G01 Z-28.0000 F900
G01 Y50.0000 F1800
G03 X66.0000 Y51.5000 I-1.5000 J0.0000
G01 X0.0000
G03 X-1.5000 Y50.0000 I0.0000 J-1.5000
G01 Y27.2500
G00 Z-26.5000
G01 Y22.7500
G00 Z5.0000
G00 X0.0000 Y0.0000

M05
M30
