(Project supporto_motore_03)
(Created by Estlcam version 11 build 11,244)
(Machining time about 00:11:54 hours)

(Required tools:)
(Nuovo utensile 7)

G90
G91.1
M03 S18000
G00 Z5.0000


(No. 1: Taglio 18)
G00 X27.7464 Y24.2596
G00 Z0.5000
G01 Z-2.0000 F900 S18000
G01 X27.6654 Y24.6511 F1800
G01 X38.3844 Y24.7051
G01 X38.4114 Y23.8681
G01 X27.8274
G01 X27.7464 Y24.2596
G01 X26.2788 Y24.3903
G01 X26.1264 Y25.1371
G01 X26.0454 Y26.0281
G01 X39.7344 Y26.0821
G01 X39.7884 Y23.5711
G02 X38.8974 Y22.4911 I-1.5698 J0.3875
G01 X27.1794
G01 X26.9094 Y22.6261
G01 X26.6664 Y22.8691
G01 X26.3964 Y23.8141
G01 X26.2788 Y24.3903
G01 X24.9669 Y23.8588
G02 X24.6144 Y27.4051 I14.8401 J3.2660
G01 X41.0844 Y27.4591
G01 X41.1654 Y23.4091
G02 X39.1944 Y21.1141 I-3.0079 J0.5894
G01 X26.9364
G02 X25.3974 Y22.2751 I0.7036 J2.5332
G02 X24.9669 Y23.8588 I12.2367 J4.1763
G01 X23.6254 Y23.4529
G02 X23.2374 Y28.7821 I27.4606 J4.6779
G01 X42.4614 Y28.8361
G01 Y26.3251
G01 X42.5694 Y23.4361
G02 X39.4104 Y19.7371 I-4.4472 J0.5995
G01 X26.7204
G02 X23.8584 Y22.2211 I1.1547 J4.2212
G01 X23.6968 Y23.0308
G01 X23.6254 Y23.4529
G01 X22.1767 Y23.6777
G02 X21.8604 Y30.1591 I43.1399 J5.3535
G01 X43.8384 Y30.2131
G01 Y26.8381
G01 X43.9734 Y23.5711
G02 X39.5994 Y18.3601 I-5.7807 J0.4109
G01 X26.5314
G02 X22.3734 Y22.2481 I1.3653 J5.6275
G01 X22.2312 Y23.2301
G01 X22.1767 Y23.6777
G01 X20.7485 Y23.9210
G02 X20.5374 Y31.5361 I50.9206 J5.2225
G01 X45.2154 Y31.5901
G01 Y27.4051
G01 X45.3504 Y23.4631
G02 X39.7344 Y16.9831 I-7.0742 J0.4574
G01 X26.4234
G02 X20.9424 Y22.2481 I1.3963 J6.9390
G01 X20.8004 Y23.4030
G01 X20.7485 Y23.9210
G01 X19.3272 Y24.7233
G01 X19.1334 Y29.2681
G01 X19.1874 Y32.9131
G01 X46.5924 Y32.9671
G01 Y28.0531
G01 X46.7274 Y23.3551
G02 X39.7884 Y15.6061 I-8.3704 J0.5141
G01 X26.3694
G02 X19.3764 Y23.5711 I1.3931 J8.2754
G01 X19.3272 Y24.7233
G01 X17.9326 Y24.8830
G02 X17.8374 Y34.2901 I87.4507 J5.5891
G01 X47.9694 Y34.3441
G01 Y28.7821
G01 X48.1044 Y23.2741
G02 X39.8694 Y14.2291 I-9.7112 J0.5703
G01 X26.2614
G02 X17.9994 Y23.6251 I1.4966 J9.6465
G01 X17.9326 Y24.8830
G01 X16.5875 Y24.2620
G02 X16.5144 Y35.6671 I95.5689 J6.3152
G01 X49.3464 Y35.7211
G01 Y29.5921
G01 X49.4814 Y23.3281
G02 X39.8964 Y12.8521 I-11.0520 J0.4891
G01 X26.2344
G02 X17.4054 Y19.4941 I1.5455 J11.2434
G01 X16.8114 Y21.4111
G01 X16.6594 Y23.1886
G01 X16.5875 Y24.2620
G01 X15.2184 Y24.1677
G02 X15.1914 Y37.0441 I108.3470 J6.6657
G01 X50.7234 Y37.0981
G01 Y30.5101
G01 X50.8584 Y23.2741
G02 X39.8694 Y11.4751 I-12.4043 J0.5359
G01 X26.1804
G02 X16.1094 Y19.0081 I1.5326 J12.5476
G01 X15.4344 Y21.1951
G01 X15.2787 Y23.1720
G01 X15.2184 Y24.1677
G01 X13.7976 Y23.7284
G02 X13.8684 Y38.4211 I173.6119 J6.5102
G01 X52.1004 Y38.4751
G01 Y31.5361
G01 X52.2354 Y23.2471
G02 X39.8154 Y10.0981 I-13.7897 J0.5850
G01 X26.2074
G02 X14.0844 Y20.8981 I1.3472 J13.7162
G01 X13.8414 Y22.5721
G01 X13.7976 Y23.7284
G01 X12.4351 Y23.6035
G02 X12.5454 Y39.7981 I247.1982 J6.4140
G01 X53.4774 Y39.8521
G01 Y32.6701
G01 X53.6124 Y23.1931
G02 X39.7614 Y8.7211 I-15.1397 J0.6257
G01 X26.2614
G02 X12.4644 Y22.4641 I1.1994 J15.0012
G01 X12.4351 Y23.6035
G01 X11.0594 Y23.5476
G02 X11.1954 Y41.1481 I278.7147 J6.6476
G01 X13.8144 Y41.2021
G01 X54.8544 Y41.2291
G01 Y33.9121
G01 X54.9894 Y23.3551
G02 X39.5994 Y7.3441 I-16.4535 J0.4133
G01 X26.3424
G02 X11.0874 Y22.3561 I1.1218 J16.3969
G01 X11.0594 Y23.5476
G01 X9.6878 Y23.5317
G02 X9.8454 Y42.4981 I356.0690 J6.5262
G01 X14.5704 Y42.5791
G01 X56.2314 Y42.6061
G01 Y35.2621
G01 X56.3664 Y23.5171
G02 X39.4374 Y5.9671 I-17.8071 J0.2370
G01 X26.5314
G02 X9.7104 Y22.2751 I0.8661 J17.7224
G01 X9.6878 Y23.5317
G01 X8.9502 Y23.4269
G02 X9.1061 Y41.8875 I580.8279 J4.3239
G01 X9.1418 Y42.8509
G01 X9.1575 Y43.2009
G02 X25.7665 Y43.3127 I12.8725 J-678.8093
G01 X26.6387 Y43.3120
G01 X27.4434 Y43.3118
G03 X51.1002 Y43.3417 I1.0719 J8510.9245
G02 X56.9434 Y43.3287 I0.8129 J-949.8042
G03 X57.0502 Y25.3945 I1072.5670 J-2.5764
G02 X57.0017 Y22.3332 I-36.7907 J-0.9474
G02 X38.5419 Y5.2531 I-18.4436 J1.4179
G01 X27.4580 Y5.2535
G02 X8.9502 Y23.4269 I-0.0162 J18.4944
G00 Z5.0000
G00 X27.7461 Y24.2609
G00 Z-1.5000
G01 Z-4.0000 F900
G01 X27.6654 Y24.6511 F1800
G01 X38.3844 Y24.7051
G01 X38.4114 Y23.8681
G01 X27.8274
G01 X27.7461 Y24.2609
G01 X26.2787 Y24.3905
G01 X26.1264 Y25.1371
G01 X26.0454 Y26.0281
G01 X39.7344 Y26.0821
G01 X39.7884 Y23.5711
G02 X38.8974 Y22.4911 I-1.5698 J0.3875
G01 X27.1794
G01 X26.9094 Y22.6261
G01 X26.6664 Y22.8691
G01 X26.3964 Y23.8141
G01 X26.2787 Y24.3905
G01 X24.9669 Y23.8588
G02 X24.6144 Y27.4051 I14.8401 J3.2660
G01 X41.0844 Y27.4591
G01 X41.1654 Y23.4091
G02 X39.1944 Y21.1141 I-3.0079 J0.5894
G01 X26.9364
G02 X25.3974 Y22.2751 I0.7036 J2.5332
G02 X24.9669 Y23.8588 I12.2367 J4.1763
G01 X23.6254 Y23.4529
G02 X23.2374 Y28.7821 I27.4606 J4.6779
G01 X42.4614 Y28.8361
G01 Y26.3251
G01 X42.5694 Y23.4361
G02 X39.4104 Y19.7371 I-4.4472 J0.5995
G01 X26.7204
G02 X23.8584 Y22.2211 I1.1547 J4.2212
G01 X23.6968 Y23.0308
G01 X23.6254 Y23.4529
G01 X22.1767 Y23.6777
G02 X21.8604 Y30.1591 I43.1399 J5.3535
G01 X43.8384 Y30.2131
G01 Y26.8381
G01 X43.9734 Y23.5711
G02 X39.5994 Y18.3601 I-5.7807 J0.4109
G01 X26.5314
G02 X22.3734 Y22.2481 I1.3653 J5.6275
G01 X22.2312 Y23.2301
G01 X22.1767 Y23.6777
G01 X20.7485 Y23.9210
G02 X20.5374 Y31.5361 I50.9206 J5.2225
G01 X45.2154 Y31.5901
G01 Y27.4051
G01 X45.3504 Y23.4631
G02 X39.7344 Y16.9831 I-7.0742 J0.4574
G01 X26.4234
G02 X20.9424 Y22.2481 I1.3963 J6.9390
G01 X20.8004 Y23.4030
G01 X20.7485 Y23.9210
G01 X19.3272 Y24.7233
G01 X19.1334 Y29.2681
G01 X19.1874 Y32.9131
G01 X46.5924 Y32.9671
G01 Y28.0531
G01 X46.7274 Y23.3551
G02 X39.7884 Y15.6061 I-8.3704 J0.5141
G01 X26.3694
G02 X19.3764 Y23.5711 I1.3931 J8.2754
G01 X19.3272 Y24.7233
G01 X17.9326 Y24.8830
G02 X17.8374 Y34.2901 I87.4507 J5.5891
G01 X47.9694 Y34.3441
G01 Y28.7821
G01 X48.1044 Y23.2741
G02 X39.8694 Y14.2291 I-9.7112 J0.5703
G01 X26.2614
G02 X17.9994 Y23.6251 I1.4966 J9.6465
G01 X17.9326 Y24.8830
G01 X16.5875 Y24.2620
G02 X16.5144 Y35.6671 I95.5689 J6.3152
G01 X49.3464 Y35.7211
G01 Y29.5921
G01 X49.4814 Y23.3281
G02 X39.8964 Y12.8521 I-11.0520 J0.4891
G01 X26.2344
G02 X17.4054 Y19.4941 I1.5455 J11.2434
G01 X16.8114 Y21.4111
G01 X16.6594 Y23.1886
G01 X16.5875 Y24.2620
G01 X15.2184 Y24.1677
G02 X15.1914 Y37.0441 I108.3470 J6.6657
G01 X50.7234 Y37.0981
G01 Y30.5101
G01 X50.8584 Y23.2741
G02 X39.8694 Y11.4751 I-12.4043 J0.5359
G01 X26.1804
G02 X16.1094 Y19.0081 I1.5326 J12.5476
G01 X15.4344 Y21.1951
G01 X15.2787 Y23.1720
G01 X15.2184 Y24.1677
G01 X13.7976 Y23.7284
G02 X13.8684 Y38.4211 I173.6119 J6.5102
G01 X52.1004 Y38.4751
G01 Y31.5361
G01 X52.2354 Y23.2471
G02 X39.8154 Y10.0981 I-13.7897 J0.5850
G01 X26.2074
G02 X14.0844 Y20.8981 I1.3472 J13.7162
G01 X13.8414 Y22.5721
G01 X13.7976 Y23.7284
G01 X12.4351 Y23.6035
G02 X12.5454 Y39.7981 I247.1982 J6.4140
G01 X53.4774 Y39.8521
G01 Y32.6701
G01 X53.6124 Y23.1931
G02 X39.7614 Y8.7211 I-15.1397 J0.6257
G01 X26.2614
G02 X12.4644 Y22.4641 I1.1994 J15.0012
G01 X12.4351 Y23.6035
G01 X11.0594 Y23.5476
G02 X11.1954 Y41.1481 I278.7147 J6.6476
G01 X13.8144 Y41.2021
G01 X54.8544 Y41.2291
G01 Y33.9121
G01 X54.9894 Y23.3551
G02 X39.5994 Y7.3441 I-16.4535 J0.4133
G01 X26.3424
G02 X11.0874 Y22.3561 I1.1218 J16.3969
G01 X11.0594 Y23.5476
G01 X9.6878 Y23.5317
G02 X9.8454 Y42.4981 I356.0690 J6.5262
G01 X14.5704 Y42.5791
G01 X56.2314 Y42.6061
G01 Y35.2621
G01 X56.3664 Y23.5171
G02 X39.4374 Y5.9671 I-17.8071 J0.2370
G01 X26.5314
G02 X9.7104 Y22.2751 I0.8661 J17.7224
G01 X9.6878 Y23.5317
G01 X8.9502 Y23.4269
G02 X9.1061 Y41.8875 I580.8279 J4.3239
G01 X9.1418 Y42.8509
G01 X9.1575 Y43.2009
G02 X25.7665 Y43.3127 I12.8725 J-678.8093
G01 X26.6387 Y43.3120
G01 X27.4434 Y43.3118
G03 X51.1002 Y43.3417 I1.0719 J8510.9245
G02 X56.9434 Y43.3287 I0.8129 J-949.8042
G03 X57.0502 Y25.3945 I1072.5670 J-2.5764
G02 X57.0017 Y22.3332 I-36.7907 J-0.9474
G02 X38.5419 Y5.2531 I-18.4436 J1.4179
G01 X27.4580 Y5.2535
G02 X8.9502 Y23.4269 I-0.0162 J18.4944
G00 Z5.0000
G00 X27.7461 Y24.2609
G00 Z-3.5000
G01 Z-6.0000 F900
G01 X27.6654 Y24.6511 F1800
G01 X38.3844 Y24.7051
G01 X38.4114 Y23.8681
G01 X27.8274
G01 X27.7461 Y24.2609
G01 X26.2787 Y24.3905
G01 X26.1264 Y25.1371
G01 X26.0454 Y26.0281
G01 X39.7344 Y26.0821
G01 X39.7884 Y23.5711
G02 X38.8974 Y22.4911 I-1.5698 J0.3875
G01 X27.1794
G01 X26.9094 Y22.6261
G01 X26.6664 Y22.8691
G01 X26.3964 Y23.8141
G01 X26.2787 Y24.3905
G01 X24.9669 Y23.8588
G02 X24.6144 Y27.4051 I14.8401 J3.2660
G01 X41.0844 Y27.4591
G01 X41.1654 Y23.4091
G02 X39.1944 Y21.1141 I-3.0079 J0.5894
G01 X26.9364
G02 X25.3974 Y22.2751 I0.7036 J2.5332
G02 X24.9669 Y23.8588 I12.2367 J4.1763
G01 X23.6254 Y23.4529
G02 X23.2374 Y28.7821 I27.4606 J4.6779
G01 X42.4614 Y28.8361
G01 Y26.3251
G01 X42.5694 Y23.4361
G02 X39.4104 Y19.7371 I-4.4472 J0.5995
G01 X26.7204
G02 X23.8584 Y22.2211 I1.1547 J4.2212
G01 X23.6968 Y23.0308
G01 X23.6254 Y23.4529
G01 X22.1767 Y23.6777
G02 X21.8604 Y30.1591 I43.1399 J5.3535
G01 X43.8384 Y30.2131
G01 Y26.8381
G01 X43.9734 Y23.5711
G02 X39.5994 Y18.3601 I-5.7807 J0.4109
G01 X26.5314
G02 X22.3734 Y22.2481 I1.3653 J5.6275
G01 X22.2312 Y23.2301
G01 X22.1767 Y23.6777
G01 X20.7485 Y23.9210
G02 X20.5374 Y31.5361 I50.9206 J5.2225
G01 X45.2154 Y31.5901
G01 Y27.4051
G01 X45.3504 Y23.4631
G02 X39.7344 Y16.9831 I-7.0742 J0.4574
G01 X26.4234
G02 X20.9424 Y22.2481 I1.3963 J6.9390
G01 X20.8004 Y23.4030
G01 X20.7485 Y23.9210
G01 X19.3272 Y24.7233
G01 X19.1334 Y29.2681
G01 X19.1874 Y32.9131
G01 X46.5924 Y32.9671
G01 Y28.0531
G01 X46.7274 Y23.3551
G02 X39.7884 Y15.6061 I-8.3704 J0.5141
G01 X26.3694
G02 X19.3764 Y23.5711 I1.3931 J8.2754
G01 X19.3272 Y24.7233
G01 X17.9326 Y24.8830
G02 X17.8374 Y34.2901 I87.4507 J5.5891
G01 X47.9694 Y34.3441
G01 Y28.7821
G01 X48.1044 Y23.2741
G02 X39.8694 Y14.2291 I-9.7112 J0.5703
G01 X26.2614
G02 X17.9994 Y23.6251 I1.4966 J9.6465
G01 X17.9326 Y24.8830
G01 X16.5875 Y24.2620
G02 X16.5144 Y35.6671 I95.5689 J6.3152
G01 X49.3464 Y35.7211
G01 Y29.5921
G01 X49.4814 Y23.3281
G02 X39.8964 Y12.8521 I-11.0520 J0.4891
G01 X26.2344
G02 X17.4054 Y19.4941 I1.5455 J11.2434
G01 X16.8114 Y21.4111
G01 X16.6594 Y23.1886
G01 X16.5875 Y24.2620
G01 X15.2184 Y24.1677
G02 X15.1914 Y37.0441 I108.3470 J6.6657
G01 X50.7234 Y37.0981
G01 Y30.5101
G01 X50.8584 Y23.2741
G02 X39.8694 Y11.4751 I-12.4043 J0.5359
G01 X26.1804
G02 X16.1094 Y19.0081 I1.5326 J12.5476
G01 X15.4344 Y21.1951
G01 X15.2787 Y23.1720
G01 X15.2184 Y24.1677
G01 X13.7976 Y23.7284
G02 X13.8684 Y38.4211 I173.6119 J6.5102
G01 X52.1004 Y38.4751
G01 Y31.5361
G01 X52.2354 Y23.2471
G02 X39.8154 Y10.0981 I-13.7897 J0.5850
G01 X26.2074
G02 X14.0844 Y20.8981 I1.3472 J13.7162
G01 X13.8414 Y22.5721
G01 X13.7976 Y23.7284
G01 X12.4351 Y23.6035
G02 X12.5454 Y39.7981 I247.1982 J6.4140
G01 X53.4774 Y39.8521
G01 Y32.6701
G01 X53.6124 Y23.1931
G02 X39.7614 Y8.7211 I-15.1397 J0.6257
G01 X26.2614
G02 X12.4644 Y22.4641 I1.1994 J15.0012
G01 X12.4351 Y23.6035
G01 X11.0594 Y23.5476
G02 X11.1954 Y41.1481 I278.7147 J6.6476
G01 X13.8144 Y41.2021
G01 X54.8544 Y41.2291
G01 Y33.9121
G01 X54.9894 Y23.3551
G02 X39.5994 Y7.3441 I-16.4535 J0.4133
G01 X26.3424
G02 X11.0874 Y22.3561 I1.1218 J16.3969
G01 X11.0594 Y23.5476
G01 X9.6878 Y23.5317
G02 X9.8454 Y42.4981 I356.0690 J6.5262
G01 X14.5704 Y42.5791
G01 X56.2314 Y42.6061
G01 Y35.2621
G01 X56.3664 Y23.5171
G02 X39.4374 Y5.9671 I-17.8071 J0.2370
G01 X26.5314
G02 X9.7104 Y22.2751 I0.8661 J17.7224
G01 X9.6878 Y23.5317
G01 X8.9502 Y23.4269
G02 X9.1061 Y41.8875 I580.8279 J4.3239
G01 X9.1418 Y42.8509
G01 X9.1575 Y43.2009
G02 X25.7665 Y43.3127 I12.8725 J-678.8093
G01 X26.6387 Y43.3120
G01 X27.4434 Y43.3118
G03 X51.1002 Y43.3417 I1.0719 J8510.9245
G02 X56.9434 Y43.3287 I0.8129 J-949.8042
G03 X57.0502 Y25.3945 I1072.5670 J-2.5764
G02 X57.0017 Y22.3332 I-36.7907 J-0.9474
G02 X38.5419 Y5.2531 I-18.4436 J1.4179
G01 X27.4580 Y5.2535
G02 X8.9502 Y23.4269 I-0.0162 J18.4944
G00 Z5.0000
G00 X27.7461 Y24.2609
G00 Z-5.5000
G01 Z-8.0000 F900
G01 X27.6654 Y24.6511 F1800
G01 X38.3844 Y24.7051
G01 X38.4114 Y23.8681
G01 X27.8274
G01 X27.7461 Y24.2609
G01 X26.2787 Y24.3905
G01 X26.1264 Y25.1371
G01 X26.0454 Y26.0281
G01 X39.7344 Y26.0821
G01 X39.7884 Y23.5711
G02 X38.8974 Y22.4911 I-1.5698 J0.3875
G01 X27.1794
G01 X26.9094 Y22.6261
G01 X26.6664 Y22.8691
G01 X26.3964 Y23.8141
G01 X26.2787 Y24.3905
G01 X24.9669 Y23.8588
G02 X24.6144 Y27.4051 I14.8401 J3.2660
G01 X41.0844 Y27.4591
G01 X41.1654 Y23.4091
G02 X39.1944 Y21.1141 I-3.0079 J0.5894
G01 X26.9364
G02 X25.3974 Y22.2751 I0.7036 J2.5332
G02 X24.9669 Y23.8588 I12.2367 J4.1763
G01 X23.6254 Y23.4529
G02 X23.2374 Y28.7821 I27.4606 J4.6779
G01 X42.4614 Y28.8361
G01 Y26.3251
G01 X42.5694 Y23.4361
G02 X39.4104 Y19.7371 I-4.4472 J0.5995
G01 X26.7204
G02 X23.8584 Y22.2211 I1.1547 J4.2212
G01 X23.6968 Y23.0308
G01 X23.6254 Y23.4529
G01 X22.1767 Y23.6777
G02 X21.8604 Y30.1591 I43.1399 J5.3535
G01 X43.8384 Y30.2131
G01 Y26.8381
G01 X43.9734 Y23.5711
G02 X39.5994 Y18.3601 I-5.7807 J0.4109
G01 X26.5314
G02 X22.3734 Y22.2481 I1.3653 J5.6275
G01 X22.2312 Y23.2301
G01 X22.1767 Y23.6777
G01 X20.7485 Y23.9210
G02 X20.5374 Y31.5361 I50.9206 J5.2225
G01 X45.2154 Y31.5901
G01 Y27.4051
G01 X45.3504 Y23.4631
G02 X39.7344 Y16.9831 I-7.0742 J0.4574
G01 X26.4234
G02 X20.9424 Y22.2481 I1.3963 J6.9390
G01 X20.8004 Y23.4030
G01 X20.7485 Y23.9210
G01 X19.3272 Y24.7233
G01 X19.1334 Y29.2681
G01 X19.1874 Y32.9131
G01 X46.5924 Y32.9671
G01 Y28.0531
G01 X46.7274 Y23.3551
G02 X39.7884 Y15.6061 I-8.3704 J0.5141
G01 X26.3694
G02 X19.3764 Y23.5711 I1.3931 J8.2754
G01 X19.3272 Y24.7233
G01 X17.9326 Y24.8830
G02 X17.8374 Y34.2901 I87.4507 J5.5891
G01 X47.9694 Y34.3441
G01 Y28.7821
G01 X48.1044 Y23.2741
G02 X39.8694 Y14.2291 I-9.7112 J0.5703
G01 X26.2614
G02 X17.9994 Y23.6251 I1.4966 J9.6465
G01 X17.9326 Y24.8830
G01 X16.5875 Y24.2620
G02 X16.5144 Y35.6671 I95.5689 J6.3152
G01 X49.3464 Y35.7211
G01 Y29.5921
G01 X49.4814 Y23.3281
G02 X39.8964 Y12.8521 I-11.0520 J0.4891
G01 X26.2344
G02 X17.4054 Y19.4941 I1.5455 J11.2434
G01 X16.8114 Y21.4111
G01 X16.6594 Y23.1886
G01 X16.5875 Y24.2620
G01 X15.2184 Y24.1677
G02 X15.1914 Y37.0441 I108.3470 J6.6657
G01 X50.7234 Y37.0981
G01 Y30.5101
G01 X50.8584 Y23.2741
G02 X39.8694 Y11.4751 I-12.4043 J0.5359
G01 X26.1804
G02 X16.1094 Y19.0081 I1.5326 J12.5476
G01 X15.4344 Y21.1951
G01 X15.2787 Y23.1720
G01 X15.2184 Y24.1677
G01 X13.7976 Y23.7284
G02 X13.8684 Y38.4211 I173.6119 J6.5102
G01 X52.1004 Y38.4751
G01 Y31.5361
G01 X52.2354 Y23.2471
G02 X39.8154 Y10.0981 I-13.7897 J0.5850
G01 X26.2074
G02 X14.0844 Y20.8981 I1.3472 J13.7162
G01 X13.8414 Y22.5721
G01 X13.7976 Y23.7284
G01 X12.4351 Y23.6035
G02 X12.5454 Y39.7981 I247.1982 J6.4140
G01 X53.4774 Y39.8521
G01 Y32.6701
G01 X53.6124 Y23.1931
G02 X39.7614 Y8.7211 I-15.1397 J0.6257
G01 X26.2614
G02 X12.4644 Y22.4641 I1.1994 J15.0012
G01 X12.4351 Y23.6035
G01 X11.0594 Y23.5476
G02 X11.1954 Y41.1481 I278.7147 J6.6476
G01 X13.8144 Y41.2021
G01 X54.8544 Y41.2291
G01 Y33.9121
G01 X54.9894 Y23.3551
G02 X39.5994 Y7.3441 I-16.4535 J0.4133
G01 X26.3424
G02 X11.0874 Y22.3561 I1.1218 J16.3969
G01 X11.0594 Y23.5476
G01 X9.6878 Y23.5317
G02 X9.8454 Y42.4981 I356.0690 J6.5262
G01 X14.5704 Y42.5791
G01 X56.2314 Y42.6061
G01 Y35.2621
G01 X56.3664 Y23.5171
G02 X39.4374 Y5.9671 I-17.8071 J0.2370
G01 X26.5314
G02 X9.7104 Y22.2751 I0.8661 J17.7224
G01 X9.6878 Y23.5317
G01 X8.9502 Y23.4269
G02 X9.1061 Y41.8875 I580.8279 J4.3239
G01 X9.1418 Y42.8509
G01 X9.1575 Y43.2009
G02 X25.7665 Y43.3127 I12.8725 J-678.8093
G01 X26.6387 Y43.3120
G01 X27.4434 Y43.3118
G03 X51.1002 Y43.3417 I1.0719 J8510.9245
G02 X56.9434 Y43.3287 I0.8129 J-949.8042
G03 X57.0502 Y25.3945 I1072.5670 J-2.5764
G02 X57.0017 Y22.3332 I-36.7907 J-0.9474
G02 X38.5419 Y5.2531 I-18.4436 J1.4179
G01 X27.4580 Y5.2535
G02 X8.9502 Y23.4269 I-0.0162 J18.4944
G00 Z5.0000
G00 X27.7461 Y24.2609
G00 Z-7.5000
G01 Z-10.0000 F900
G01 X27.6654 Y24.6511 F1800
G01 X38.3844 Y24.7051
G01 X38.4114 Y23.8681
G01 X27.8274
G01 X27.7461 Y24.2609
G01 X26.2787 Y24.3905
G01 X26.1264 Y25.1371
G01 X26.0454 Y26.0281
G01 X39.7344 Y26.0821
G01 X39.7884 Y23.5711
G02 X38.8974 Y22.4911 I-1.5698 J0.3875
G01 X27.1794
G01 X26.9094 Y22.6261
G01 X26.6664 Y22.8691
G01 X26.3964 Y23.8141
G01 X26.2787 Y24.3905
G01 X24.9669 Y23.8588
G02 X24.6144 Y27.4051 I14.8401 J3.2660
G01 X41.0844 Y27.4591
G01 X41.1654 Y23.4091
G02 X39.1944 Y21.1141 I-3.0079 J0.5894
G01 X26.9364
G02 X25.3974 Y22.2751 I0.7036 J2.5332
G02 X24.9669 Y23.8588 I12.2367 J4.1763
G01 X23.6254 Y23.4529
G02 X23.2374 Y28.7821 I27.4606 J4.6779
G01 X42.4614 Y28.8361
G01 Y26.3251
G01 X42.5694 Y23.4361
G02 X39.4104 Y19.7371 I-4.4472 J0.5995
G01 X26.7204
G02 X23.8584 Y22.2211 I1.1547 J4.2212
G01 X23.6968 Y23.0308
G01 X23.6254 Y23.4529
G01 X22.1767 Y23.6777
G02 X21.8604 Y30.1591 I43.1399 J5.3535
G01 X43.8384 Y30.2131
G01 Y26.8381
G01 X43.9734 Y23.5711
G02 X39.5994 Y18.3601 I-5.7807 J0.4109
G01 X26.5314
G02 X22.3734 Y22.2481 I1.3653 J5.6275
G01 X22.2312 Y23.2301
G01 X22.1767 Y23.6777
G01 X20.7485 Y23.9210
G02 X20.5374 Y31.5361 I50.9206 J5.2225
G01 X45.2154 Y31.5901
G01 Y27.4051
G01 X45.3504 Y23.4631
G02 X39.7344 Y16.9831 I-7.0742 J0.4574
G01 X26.4234
G02 X20.9424 Y22.2481 I1.3963 J6.9390
G01 X20.8004 Y23.4030
G01 X20.7485 Y23.9210
G01 X19.3272 Y24.7233
G01 X19.1334 Y29.2681
G01 X19.1874 Y32.9131
G01 X46.5924 Y32.9671
G01 Y28.0531
G01 X46.7274 Y23.3551
G02 X39.7884 Y15.6061 I-8.3704 J0.5141
G01 X26.3694
G02 X19.3764 Y23.5711 I1.3931 J8.2754
G01 X19.3272 Y24.7233
G01 X17.9326 Y24.8830
G02 X17.8374 Y34.2901 I87.4507 J5.5891
G01 X47.9694 Y34.3441
G01 Y28.7821
G01 X48.1044 Y23.2741
G02 X39.8694 Y14.2291 I-9.7112 J0.5703
G01 X26.2614
G02 X17.9994 Y23.6251 I1.4966 J9.6465
G01 X17.9326 Y24.8830
G01 X16.5875 Y24.2620
G02 X16.5144 Y35.6671 I95.5689 J6.3152
G01 X49.3464 Y35.7211
G01 Y29.5921
G01 X49.4814 Y23.3281
G02 X39.8964 Y12.8521 I-11.0520 J0.4891
G01 X26.2344
G02 X17.4054 Y19.4941 I1.5455 J11.2434
G01 X16.8114 Y21.4111
G01 X16.6594 Y23.1886
G01 X16.5875 Y24.2620
G01 X15.2184 Y24.1677
G02 X15.1914 Y37.0441 I108.3470 J6.6657
G01 X50.7234 Y37.0981
G01 Y30.5101
G01 X50.8584 Y23.2741
G02 X39.8694 Y11.4751 I-12.4043 J0.5359
G01 X26.1804
G02 X16.1094 Y19.0081 I1.5326 J12.5476
G01 X15.4344 Y21.1951
G01 X15.2787 Y23.1720
G01 X15.2184 Y24.1677
G01 X13.7976 Y23.7284
G02 X13.8684 Y38.4211 I173.6119 J6.5102
G01 X52.1004 Y38.4751
G01 Y31.5361
G01 X52.2354 Y23.2471
G02 X39.8154 Y10.0981 I-13.7897 J0.5850
G01 X26.2074
G02 X14.0844 Y20.8981 I1.3472 J13.7162
G01 X13.8414 Y22.5721
G01 X13.7976 Y23.7284
G01 X12.4351 Y23.6035
G02 X12.5454 Y39.7981 I247.1982 J6.4140
G01 X53.4774 Y39.8521
G01 Y32.6701
G01 X53.6124 Y23.1931
G02 X39.7614 Y8.7211 I-15.1397 J0.6257
G01 X26.2614
G02 X12.4644 Y22.4641 I1.1994 J15.0012
G01 X12.4351 Y23.6035
G01 X11.0594 Y23.5476
G02 X11.1954 Y41.1481 I278.7147 J6.6476
G01 X13.8144 Y41.2021
G01 X54.8544 Y41.2291
G01 Y33.9121
G01 X54.9894 Y23.3551
G02 X39.5994 Y7.3441 I-16.4535 J0.4133
G01 X26.3424
G02 X11.0874 Y22.3561 I1.1218 J16.3969
G01 X11.0594 Y23.5476
G01 X9.6878 Y23.5317
G02 X9.8454 Y42.4981 I356.0690 J6.5262
G01 X14.5704 Y42.5791
G01 X56.2314 Y42.6061
G01 Y35.2621
G01 X56.3664 Y23.5171
G02 X39.4374 Y5.9671 I-17.8071 J0.2370
G01 X26.5314
G02 X9.7104 Y22.2751 I0.8661 J17.7224
G01 X9.6878 Y23.5317
G01 X8.9502 Y23.4269
G02 X9.1061 Y41.8875 I580.8279 J4.3239
G01 X9.1418 Y42.8509
G01 X9.1575 Y43.2009
G02 X25.7665 Y43.3127 I12.8725 J-678.8093
G01 X26.6387 Y43.3120
G01 X27.4434 Y43.3118
G03 X51.1002 Y43.3417 I1.0719 J8510.9245
G02 X56.9434 Y43.3287 I0.8129 J-949.8042
G03 X57.0502 Y25.3945 I1072.5670 J-2.5764
G02 X57.0017 Y22.3332 I-36.7907 J-0.9474
G02 X38.5419 Y5.2531 I-18.4436 J1.4179
G01 X27.4580 Y5.2535
G02 X8.9502 Y23.4269 I-0.0162 J18.4944
G00 Z5.0000
G00 X27.7461 Y24.2609
G00 Z-9.5000
G01 Z-12.0000 F900
G01 X27.6654 Y24.6511 F1800
G01 X38.3844 Y24.7051
G01 X38.4114 Y23.8681
G01 X27.8274
G01 X27.7461 Y24.2609
G01 X26.2787 Y24.3905
G01 X26.1264 Y25.1371
G01 X26.0454 Y26.0281
G01 X39.7344 Y26.0821
G01 X39.7884 Y23.5711
G02 X38.8974 Y22.4911 I-1.5698 J0.3875
G01 X27.1794
G01 X26.9094 Y22.6261
G01 X26.6664 Y22.8691
G01 X26.3964 Y23.8141
G01 X26.2787 Y24.3905
G01 X24.9669 Y23.8588
G02 X24.6144 Y27.4051 I14.8401 J3.2660
G01 X41.0844 Y27.4591
G01 X41.1654 Y23.4091
G02 X39.1944 Y21.1141 I-3.0079 J0.5894
G01 X26.9364
G02 X25.3974 Y22.2751 I0.7036 J2.5332
G02 X24.9669 Y23.8588 I12.2367 J4.1763
G01 X23.6254 Y23.4529
G02 X23.2374 Y28.7821 I27.4606 J4.6779
G01 X42.4614 Y28.8361
G01 Y26.3251
G01 X42.5694 Y23.4361
G02 X39.4104 Y19.7371 I-4.4472 J0.5995
G01 X26.7204
G02 X23.8584 Y22.2211 I1.1547 J4.2212
G01 X23.6968 Y23.0308
G01 X23.6254 Y23.4529
G01 X22.1767 Y23.6777
G02 X21.8604 Y30.1591 I43.1399 J5.3535
G01 X43.8384 Y30.2131
G01 Y26.8381
G01 X43.9734 Y23.5711
G02 X39.5994 Y18.3601 I-5.7807 J0.4109
G01 X26.5314
G02 X22.3734 Y22.2481 I1.3653 J5.6275
G01 X22.2312 Y23.2301
G01 X22.1767 Y23.6777
G01 X20.7485 Y23.9210
G02 X20.5374 Y31.5361 I50.9206 J5.2225
G01 X45.2154 Y31.5901
G01 Y27.4051
G01 X45.3504 Y23.4631
G02 X39.7344 Y16.9831 I-7.0742 J0.4574
G01 X26.4234
G02 X20.9424 Y22.2481 I1.3963 J6.9390
G01 X20.8004 Y23.4030
G01 X20.7485 Y23.9210
G01 X19.3272 Y24.7233
G01 X19.1334 Y29.2681
G01 X19.1874 Y32.9131
G01 X46.5924 Y32.9671
G01 Y28.0531
G01 X46.7274 Y23.3551
G02 X39.7884 Y15.6061 I-8.3704 J0.5141
G01 X26.3694
G02 X19.3764 Y23.5711 I1.3931 J8.2754
G01 X19.3272 Y24.7233
G01 X17.9326 Y24.8830
G02 X17.8374 Y34.2901 I87.4507 J5.5891
G01 X47.9694 Y34.3441
G01 Y28.7821
G01 X48.1044 Y23.2741
G02 X39.8694 Y14.2291 I-9.7112 J0.5703
G01 X26.2614
G02 X17.9994 Y23.6251 I1.4966 J9.6465
G01 X17.9326 Y24.8830
G01 X16.5875 Y24.2620
G02 X16.5144 Y35.6671 I95.5689 J6.3152
G01 X49.3464 Y35.7211
G01 Y29.5921
G01 X49.4814 Y23.3281
G02 X39.8964 Y12.8521 I-11.0520 J0.4891
G01 X26.2344
G02 X17.4054 Y19.4941 I1.5455 J11.2434
G01 X16.8114 Y21.4111
G01 X16.6594 Y23.1886
G01 X16.5875 Y24.2620
G01 X15.2184 Y24.1677
G02 X15.1914 Y37.0441 I108.3470 J6.6657
G01 X50.7234 Y37.0981
G01 Y30.5101
G01 X50.8584 Y23.2741
G02 X39.8694 Y11.4751 I-12.4043 J0.5359
G01 X26.1804
G02 X16.1094 Y19.0081 I1.5326 J12.5476
G01 X15.4344 Y21.1951
G01 X15.2787 Y23.1720
G01 X15.2184 Y24.1677
G01 X13.7976 Y23.7284
G02 X13.8684 Y38.4211 I173.6119 J6.5102
G01 X52.1004 Y38.4751
G01 Y31.5361
G01 X52.2354 Y23.2471
G02 X39.8154 Y10.0981 I-13.7897 J0.5850
G01 X26.2074
G02 X14.0844 Y20.8981 I1.3472 J13.7162
G01 X13.8414 Y22.5721
G01 X13.7976 Y23.7284
G01 X12.4351 Y23.6035
G02 X12.5454 Y39.7981 I247.1982 J6.4140
G01 X53.4774 Y39.8521
G01 Y32.6701
G01 X53.6124 Y23.1931
G02 X39.7614 Y8.7211 I-15.1397 J0.6257
G01 X26.2614
G02 X12.4644 Y22.4641 I1.1994 J15.0012
G01 X12.4351 Y23.6035
G01 X11.0594 Y23.5476
G02 X11.1954 Y41.1481 I278.7147 J6.6476
G01 X13.8144 Y41.2021
G01 X54.8544 Y41.2291
G01 Y33.9121
G01 X54.9894 Y23.3551
G02 X39.5994 Y7.3441 I-16.4535 J0.4133
G01 X26.3424
G02 X11.0874 Y22.3561 I1.1218 J16.3969
G01 X11.0594 Y23.5476
G01 X9.6878 Y23.5317
G02 X9.8454 Y42.4981 I356.0690 J6.5262
G01 X14.5704 Y42.5791
G01 X56.2314 Y42.6061
G01 Y35.2621
G01 X56.3664 Y23.5171
G02 X39.4374 Y5.9671 I-17.8071 J0.2370
G01 X26.5314
G02 X9.7104 Y22.2751 I0.8661 J17.7224
G01 X9.6878 Y23.5317
G01 X8.9502 Y23.4269
G02 X9.1061 Y41.8875 I580.8279 J4.3239
G01 X9.1418 Y42.8509
G01 X9.1575 Y43.2009
G02 X25.7665 Y43.3127 I12.8725 J-678.8093
G01 X26.6387 Y43.3120
G01 X27.4434 Y43.3118
G03 X51.1002 Y43.3417 I1.0719 J8510.9245
G02 X56.9434 Y43.3287 I0.8129 J-949.8042
G03 X57.0502 Y25.3945 I1072.5670 J-2.5764
G02 X57.0017 Y22.3332 I-36.7907 J-0.9474
G02 X38.5419 Y5.2531 I-18.4436 J1.4179
G01 X27.4580 Y5.2535
G02 X8.9502 Y23.4269 I-0.0162 J18.4944
G00 Z5.0000
G00 X27.7461 Y24.2609
G00 Z-11.5000
G01 Z-14.0000 F900
G01 X27.6654 Y24.6511 F1800
G01 X38.3844 Y24.7051
G01 X38.4114 Y23.8681
G01 X27.8274
G01 X27.7461 Y24.2609
G01 X26.2787 Y24.3905
G01 X26.1264 Y25.1371
G01 X26.0454 Y26.0281
G01 X39.7344 Y26.0821
G01 X39.7884 Y23.5711
G02 X38.8974 Y22.4911 I-1.5698 J0.3875
G01 X27.1794
G01 X26.9094 Y22.6261
G01 X26.6664 Y22.8691
G01 X26.3964 Y23.8141
G01 X26.2787 Y24.3905
G01 X24.9669 Y23.8588
G02 X24.6144 Y27.4051 I14.8401 J3.2660
G01 X41.0844 Y27.4591
G01 X41.1654 Y23.4091
G02 X39.1944 Y21.1141 I-3.0079 J0.5894
G01 X26.9364
G02 X25.3974 Y22.2751 I0.7036 J2.5332
G02 X24.9669 Y23.8588 I12.2367 J4.1763
G01 X23.6254 Y23.4529
G02 X23.2374 Y28.7821 I27.4606 J4.6779
G01 X42.4614 Y28.8361
G01 Y26.3251
G01 X42.5694 Y23.4361
G02 X39.4104 Y19.7371 I-4.4472 J0.5995
G01 X26.7204
G02 X23.8584 Y22.2211 I1.1547 J4.2212
G01 X23.6968 Y23.0308
G01 X23.6254 Y23.4529
G01 X22.1767 Y23.6777
G02 X21.8604 Y30.1591 I43.1399 J5.3535
G01 X43.8384 Y30.2131
G01 Y26.8381
G01 X43.9734 Y23.5711
G02 X39.5994 Y18.3601 I-5.7807 J0.4109
G01 X26.5314
G02 X22.3734 Y22.2481 I1.3653 J5.6275
G01 X22.2312 Y23.2301
G01 X22.1767 Y23.6777
G01 X20.7485 Y23.9210
G02 X20.5374 Y31.5361 I50.9206 J5.2225
G01 X45.2154 Y31.5901
G01 Y27.4051
G01 X45.3504 Y23.4631
G02 X39.7344 Y16.9831 I-7.0742 J0.4574
G01 X26.4234
G02 X20.9424 Y22.2481 I1.3963 J6.9390
G01 X20.8004 Y23.4030
G01 X20.7485 Y23.9210
G01 X19.3272 Y24.7233
G01 X19.1334 Y29.2681
G01 X19.1874 Y32.9131
G01 X46.5924 Y32.9671
G01 Y28.0531
G01 X46.7274 Y23.3551
G02 X39.7884 Y15.6061 I-8.3704 J0.5141
G01 X26.3694
G02 X19.3764 Y23.5711 I1.3931 J8.2754
G01 X19.3272 Y24.7233
G01 X17.9326 Y24.8830
G02 X17.8374 Y34.2901 I87.4507 J5.5891
G01 X47.9694 Y34.3441
G01 Y28.7821
G01 X48.1044 Y23.2741
G02 X39.8694 Y14.2291 I-9.7112 J0.5703
G01 X26.2614
G02 X17.9994 Y23.6251 I1.4966 J9.6465
G01 X17.9326 Y24.8830
G01 X16.5875 Y24.2620
G02 X16.5144 Y35.6671 I95.5689 J6.3152
G01 X49.3464 Y35.7211
G01 Y29.5921
G01 X49.4814 Y23.3281
G02 X39.8964 Y12.8521 I-11.0520 J0.4891
G01 X26.2344
G02 X17.4054 Y19.4941 I1.5455 J11.2434
G01 X16.8114 Y21.4111
G01 X16.6594 Y23.1886
G01 X16.5875 Y24.2620
G01 X15.2184 Y24.1677
G02 X15.1914 Y37.0441 I108.3470 J6.6657
G01 X50.7234 Y37.0981
G01 Y30.5101
G01 X50.8584 Y23.2741
G02 X39.8694 Y11.4751 I-12.4043 J0.5359
G01 X26.1804
G02 X16.1094 Y19.0081 I1.5326 J12.5476
G01 X15.4344 Y21.1951
G01 X15.2787 Y23.1720
G01 X15.2184 Y24.1677
G01 X13.7976 Y23.7284
G02 X13.8684 Y38.4211 I173.6119 J6.5102
G01 X52.1004 Y38.4751
G01 Y31.5361
G01 X52.2354 Y23.2471
G02 X39.8154 Y10.0981 I-13.7897 J0.5850
G01 X26.2074
G02 X14.0844 Y20.8981 I1.3472 J13.7162
G01 X13.8414 Y22.5721
G01 X13.7976 Y23.7284
G01 X12.4351 Y23.6035
G02 X12.5454 Y39.7981 I247.1982 J6.4140
G01 X53.4774 Y39.8521
G01 Y32.6701
G01 X53.6124 Y23.1931
G02 X39.7614 Y8.7211 I-15.1397 J0.6257
G01 X26.2614
G02 X12.4644 Y22.4641 I1.1994 J15.0012
G01 X12.4351 Y23.6035
G01 X11.0594 Y23.5476
G02 X11.1954 Y41.1481 I278.7147 J6.6476
G01 X13.8144 Y41.2021
G01 X54.8544 Y41.2291
G01 Y33.9121
G01 X54.9894 Y23.3551
G02 X39.5994 Y7.3441 I-16.4535 J0.4133
G01 X26.3424
G02 X11.0874 Y22.3561 I1.1218 J16.3969
G01 X11.0594 Y23.5476
G01 X9.6878 Y23.5317
G02 X9.8454 Y42.4981 I356.0690 J6.5262
G01 X14.5704 Y42.5791
G01 X56.2314 Y42.6061
G01 Y35.2621
G01 X56.3664 Y23.5171
G02 X39.4374 Y5.9671 I-17.8071 J0.2370
G01 X26.5314
G02 X9.7104 Y22.2751 I0.8661 J17.7224
G01 X9.6878 Y23.5317
G01 X8.9502 Y23.4269
G02 X9.1061 Y41.8875 I580.8279 J4.3239
G01 X9.1418 Y42.8509
G01 X9.1575 Y43.2009
G02 X25.7665 Y43.3127 I12.8725 J-678.8093
G01 X26.6387 Y43.3120
G01 X27.4434 Y43.3118
G03 X51.1002 Y43.3417 I1.0719 J8510.9245
G02 X56.9434 Y43.3287 I0.8129 J-949.8042
G03 X57.0502 Y25.3945 I1072.5670 J-2.5764
G02 X57.0017 Y22.3332 I-36.7907 J-0.9474
G02 X38.5419 Y5.2531 I-18.4436 J1.4179
G01 X27.4580 Y5.2535
G02 X8.9502 Y23.4269 I-0.0162 J18.4944
G00 Z5.0000
G00 X27.7461 Y24.2609
G00 Z-13.5000
G01 Z-15.0000 F900
G01 X27.6654 Y24.6511 F1800
G01 X38.3844 Y24.7051
G01 X38.4114 Y23.8681
G01 X27.8274
G01 X27.7461 Y24.2609
G01 X26.2787 Y24.3905
G01 X26.1264 Y25.1371
G01 X26.0454 Y26.0281
G01 X39.7344 Y26.0821
G01 X39.7884 Y23.5711
G02 X38.8974 Y22.4911 I-1.5698 J0.3875
G01 X27.1794
G01 X26.9094 Y22.6261
G01 X26.6664 Y22.8691
G01 X26.3964 Y23.8141
G01 X26.2787 Y24.3905
G01 X24.9669 Y23.8588
G02 X24.6144 Y27.4051 I14.8401 J3.2660
G01 X41.0844 Y27.4591
G01 X41.1654 Y23.4091
G02 X39.1944 Y21.1141 I-3.0079 J0.5894
G01 X26.9364
G02 X25.3974 Y22.2751 I0.7036 J2.5332
G02 X24.9669 Y23.8588 I12.2367 J4.1763
G01 X23.6254 Y23.4529
G02 X23.2374 Y28.7821 I27.4606 J4.6779
G01 X42.4614 Y28.8361
G01 Y26.3251
G01 X42.5694 Y23.4361
G02 X39.4104 Y19.7371 I-4.4472 J0.5995
G01 X26.7204
G02 X23.8584 Y22.2211 I1.1547 J4.2212
G01 X23.6968 Y23.0308
G01 X23.6254 Y23.4529
G01 X22.1767 Y23.6777
G02 X21.8604 Y30.1591 I43.1399 J5.3535
G01 X43.8384 Y30.2131
G01 Y26.8381
G01 X43.9734 Y23.5711
G02 X39.5994 Y18.3601 I-5.7807 J0.4109
G01 X26.5314
G02 X22.3734 Y22.2481 I1.3653 J5.6275
G01 X22.2312 Y23.2301
G01 X22.1767 Y23.6777
G01 X20.7485 Y23.9210
G02 X20.5374 Y31.5361 I50.9206 J5.2225
G01 X45.2154 Y31.5901
G01 Y27.4051
G01 X45.3504 Y23.4631
G02 X39.7344 Y16.9831 I-7.0742 J0.4574
G01 X26.4234
G02 X20.9424 Y22.2481 I1.3963 J6.9390
G01 X20.8004 Y23.4030
G01 X20.7485 Y23.9210
G01 X19.3272 Y24.7233
G01 X19.1334 Y29.2681
G01 X19.1874 Y32.9131
G01 X46.5924 Y32.9671
G01 Y28.0531
G01 X46.7274 Y23.3551
G02 X39.7884 Y15.6061 I-8.3704 J0.5141
G01 X26.3694
G02 X19.3764 Y23.5711 I1.3931 J8.2754
G01 X19.3272 Y24.7233
G01 X17.9326 Y24.8830
G02 X17.8374 Y34.2901 I87.4507 J5.5891
G01 X47.9694 Y34.3441
G01 Y28.7821
G01 X48.1044 Y23.2741
G02 X39.8694 Y14.2291 I-9.7112 J0.5703
G01 X26.2614
G02 X17.9994 Y23.6251 I1.4966 J9.6465
G01 X17.9326 Y24.8830
G01 X16.5875 Y24.2620
G02 X16.5144 Y35.6671 I95.5689 J6.3152
G01 X49.3464 Y35.7211
G01 Y29.5921
G01 X49.4814 Y23.3281
G02 X39.8964 Y12.8521 I-11.0520 J0.4891
G01 X26.2344
G02 X17.4054 Y19.4941 I1.5455 J11.2434
G01 X16.8114 Y21.4111
G01 X16.6594 Y23.1886
G01 X16.5875 Y24.2620
G01 X15.2184 Y24.1677
G02 X15.1914 Y37.0441 I108.3470 J6.6657
G01 X50.7234 Y37.0981
G01 Y30.5101
G01 X50.8584 Y23.2741
G02 X39.8694 Y11.4751 I-12.4043 J0.5359
G01 X26.1804
G02 X16.1094 Y19.0081 I1.5326 J12.5476
G01 X15.4344 Y21.1951
G01 X15.2787 Y23.1720
G01 X15.2184 Y24.1677
G01 X13.7976 Y23.7284
G02 X13.8684 Y38.4211 I173.6119 J6.5102
G01 X52.1004 Y38.4751
G01 Y31.5361
G01 X52.2354 Y23.2471
G02 X39.8154 Y10.0981 I-13.7897 J0.5850
G01 X26.2074
G02 X14.0844 Y20.8981 I1.3472 J13.7162
G01 X13.8414 Y22.5721
G01 X13.7976 Y23.7284
G01 X12.4351 Y23.6035
G02 X12.5454 Y39.7981 I247.1982 J6.4140
G01 X53.4774 Y39.8521
G01 Y32.6701
G01 X53.6124 Y23.1931
G02 X39.7614 Y8.7211 I-15.1397 J0.6257
G01 X26.2614
G02 X12.4644 Y22.4641 I1.1994 J15.0012
G01 X12.4351 Y23.6035
G01 X11.0594 Y23.5476
G02 X11.1954 Y41.1481 I278.7147 J6.6476
G01 X13.8144 Y41.2021
G01 X54.8544 Y41.2291
G01 Y33.9121
G01 X54.9894 Y23.3551
G02 X39.5994 Y7.3441 I-16.4535 J0.4133
G01 X26.3424
G02 X11.0874 Y22.3561 I1.1218 J16.3969
G01 X11.0594 Y23.5476
G01 X9.6878 Y23.5317
G02 X9.8454 Y42.4981 I356.0690 J6.5262
G01 X14.5704 Y42.5791
G01 X56.2314 Y42.6061
G01 Y35.2621
G01 X56.3664 Y23.5171
G02 X39.4374 Y5.9671 I-17.8071 J0.2370
G01 X26.5314
G02 X9.7104 Y22.2751 I0.8661 J17.7224
G01 X9.6878 Y23.5317
G01 X8.9502 Y23.4269
G02 X9.1061 Y41.8875 I580.8279 J4.3239
G01 X9.1418 Y42.8509
G01 X9.1575 Y43.2009
G02 X25.7665 Y43.3127 I12.8725 J-678.8093
G01 X26.6387 Y43.3120
G01 X27.4434 Y43.3118
G03 X51.1002 Y43.3417 I1.0719 J8510.9245
G02 X56.9434 Y43.3287 I0.8129 J-949.8042
G03 X57.0502 Y25.3945 I1072.5670 J-2.5764
G02 X57.0017 Y22.3332 I-36.7907 J-0.9474
G02 X38.5419 Y5.2531 I-18.4436 J1.4179
G01 X27.4580 Y5.2535
G02 X8.9502 Y23.4269 I-0.0162 J18.4944
G00 Z5.0000


(No. 2: Taglio 21)
G00 X19.8924 Y36.2667 Z5.0000
G00 Z-14.5000
G01 Z-17.0000 F900
G02 X19.7196 Y36.8577 I0.3314 J0.4177 F1800
G01 X19.8546 Y37.0737
G02 X20.3373 Y36.1631 I0.3668 J-0.3888
G02 X19.8924 Y36.2667 I-0.1136 J0.5187
G01 X18.9638 Y35.2279
G02 X19.6035 Y38.4879 I1.2609 J1.4453
G02 X22.1069 Y36.3040 I0.6213 J-1.8146
G02 X18.9638 Y35.2279 I-1.8821 J0.3693
G01 X18.1314 Y34.1244
G02 X19.0596 Y39.7554 I2.0896 J2.5475
G02 X23.4721 Y36.1360 I1.1614 J-3.0834
G02 X18.1314 Y34.1244 I-3.2510 J0.5359
G01 X17.7487 Y33.5515
G02 X18.7472 Y40.4037 I2.4773 J3.1378
G02 X24.1821 Y36.1128 I1.4788 J-3.7143
G02 X17.7487 Y33.5515 I-3.9561 J0.5765
G00 Z5.0000
G00 X19.8924 Y36.2667
G00 Z-16.5000
G01 Z-19.0000 F900
G02 X19.7196 Y36.8577 I0.3314 J0.4177 F1800
G01 X19.8546 Y37.0737
G02 X20.3373 Y36.1631 I0.3668 J-0.3888
G02 X19.8924 Y36.2667 I-0.1136 J0.5187
G01 X18.9638 Y35.2279
G02 X19.6035 Y38.4879 I1.2609 J1.4453
G02 X22.1069 Y36.3040 I0.6213 J-1.8146
G02 X18.9638 Y35.2279 I-1.8821 J0.3693
G01 X18.1314 Y34.1244
G02 X19.0596 Y39.7554 I2.0896 J2.5475
G02 X23.4721 Y36.1360 I1.1614 J-3.0834
G02 X18.1314 Y34.1244 I-3.2510 J0.5359
G01 X17.7487 Y33.5515
G02 X18.7472 Y40.4037 I2.4773 J3.1378
G02 X24.1821 Y36.1128 I1.4788 J-3.7143
G02 X17.7487 Y33.5515 I-3.9561 J0.5765
G00 Z5.0000
G00 X19.8924 Y36.2667
G00 Z-18.5000
G01 Z-21.0000 F900
G02 X19.7196 Y36.8577 I0.3314 J0.4177 F1800
G01 X19.8546 Y37.0737
G02 X20.3373 Y36.1631 I0.3668 J-0.3888
G02 X19.8924 Y36.2667 I-0.1136 J0.5187
G01 X18.9638 Y35.2279
G02 X19.6035 Y38.4879 I1.2609 J1.4453
G02 X22.1069 Y36.3040 I0.6213 J-1.8146
G02 X18.9638 Y35.2279 I-1.8821 J0.3693
G01 X18.1314 Y34.1244
G02 X19.0596 Y39.7554 I2.0896 J2.5475
G02 X23.4721 Y36.1360 I1.1614 J-3.0834
G02 X18.1314 Y34.1244 I-3.2510 J0.5359
G01 X17.7487 Y33.5515
G02 X18.7472 Y40.4037 I2.4773 J3.1378
G02 X24.1821 Y36.1128 I1.4788 J-3.7143
G02 X17.7487 Y33.5515 I-3.9561 J0.5765
G00 Z5.0000
G00 X19.8924 Y36.2667
G00 Z-20.5000
G01 Z-22.0000 F900
G02 X19.7196 Y36.8577 I0.3314 J0.4177 F1800
G01 X19.8546 Y37.0737
G02 X20.3373 Y36.1631 I0.3668 J-0.3888
G02 X19.8924 Y36.2667 I-0.1136 J0.5187
G01 X18.9638 Y35.2279
G02 X19.6035 Y38.4879 I1.2609 J1.4453
G02 X22.1069 Y36.3040 I0.6213 J-1.8146
G02 X18.9638 Y35.2279 I-1.8821 J0.3693
G01 X18.1314 Y34.1244
G02 X19.0596 Y39.7554 I2.0896 J2.5475
G02 X23.4721 Y36.1360 I1.1614 J-3.0834
G02 X18.1314 Y34.1244 I-3.2510 J0.5359
G01 X17.7487 Y33.5515
G02 X18.7472 Y40.4037 I2.4773 J3.1378
G02 X24.1821 Y36.1128 I1.4788 J-3.7143
G02 X17.7487 Y33.5515 I-3.9561 J0.5765
G00 Z5.0000


(No. 3: Taglio 19)
G00 X32.2166 Y24.1155 Z5.0000
G00 Z-14.5000
G01 Z-17.0000 F900
G01 X32.2569 Y24.3304 F1800
G02 X33.5793 Y23.4118 I0.7343 J-0.3540
G02 X32.1759 Y23.8984 I-0.5903 J0.5646
G01 X32.2166 Y24.1155
G01 X30.8455 Y24.4488
G02 X35.1468 Y23.5326 I2.1441 J-0.4889
G02 X30.8455 Y24.4488 I-2.1574 J0.4264
G01 X29.5180 Y24.7650
G02 X36.5126 Y23.2916 I3.4816 J-0.8113
G02 X29.5180 Y24.7650 I-3.5138 J0.6587
G01 X28.1861 Y25.1077
G02 X37.8544 Y22.9490 I4.8144 J-1.1679
G02 X28.1861 Y25.1077 I-4.8547 J0.9873
G01 X26.9003 Y25.6328
G02 X39.1487 Y22.4474 I6.0955 J-1.7029
G02 X26.9003 Y25.6328 I-6.1540 J1.4782
G01 X25.5518 Y25.8626
G02 X38.4174 Y29.3873 I7.4503 J-1.9516
G02 X35.0371 Y16.4829 I-5.4153 J-5.4764
G02 X25.5518 Y25.8626 I-2.0350 J7.4280
G01 X24.2030 Y26.1010
G02 X41.8649 Y21.9641 I8.8009 J-2.1968
G02 X24.2030 Y26.1010 I-8.8619 J1.9364
G01 X22.9104 Y26.6081
G02 X43.1630 Y21.4667 I10.0904 J-2.7124
G02 X22.9104 Y26.6081 I-10.1634 J2.4248
G01 X22.1704 Y26.5485
G02 X40.7018 Y31.9741 I10.8319 J-2.6367
G02 X36.1348 Y13.2127 I-7.6994 J-8.0624
G02 X22.1704 Y26.5485 I-3.1325 J10.6991
G00 Z5.0000
G00 X32.2165 Y24.1147
G00 Z-16.5000
G01 Z-19.0000 F900
G01 X32.2569 Y24.3304 F1800
G02 X33.5793 Y23.4118 I0.7343 J-0.3540
G02 X32.1759 Y23.8984 I-0.5903 J0.5646
G01 X32.2165 Y24.1147
G01 X30.8455 Y24.4488
G02 X35.1468 Y23.5326 I2.1441 J-0.4889
G02 X30.8455 Y24.4488 I-2.1574 J0.4264
G01 X29.5180 Y24.7650
G02 X36.5126 Y23.2916 I3.4816 J-0.8113
G02 X29.5180 Y24.7650 I-3.5138 J0.6587
G01 X28.1861 Y25.1077
G02 X37.8544 Y22.9490 I4.8144 J-1.1679
G02 X28.1861 Y25.1077 I-4.8547 J0.9873
G01 X26.9003 Y25.6328
G02 X39.1487 Y22.4474 I6.0955 J-1.7029
G02 X26.9003 Y25.6328 I-6.1540 J1.4782
G01 X25.5518 Y25.8626
G02 X38.4174 Y29.3873 I7.4503 J-1.9516
G02 X35.0371 Y16.4829 I-5.4153 J-5.4764
G02 X25.5518 Y25.8626 I-2.0350 J7.4280
G01 X24.2030 Y26.1010
G02 X41.8649 Y21.9641 I8.8009 J-2.1968
G02 X24.2030 Y26.1010 I-8.8619 J1.9364
G01 X22.9104 Y26.6081
G02 X43.1630 Y21.4667 I10.0904 J-2.7124
G02 X22.9104 Y26.6081 I-10.1634 J2.4248
G01 X22.1704 Y26.5485
G02 X40.7018 Y31.9741 I10.8319 J-2.6367
G02 X36.1348 Y13.2127 I-7.6994 J-8.0624
G02 X22.1704 Y26.5485 I-3.1325 J10.6991
G00 Z5.0000
G00 X32.2165 Y24.1147
G00 Z-18.5000
G01 Z-21.0000 F900
G01 X32.2569 Y24.3304 F1800
G02 X33.5793 Y23.4118 I0.7343 J-0.3540
G02 X32.1759 Y23.8984 I-0.5903 J0.5646
G01 X32.2165 Y24.1147
G01 X30.8455 Y24.4488
G02 X35.1468 Y23.5326 I2.1441 J-0.4889
G02 X30.8455 Y24.4488 I-2.1574 J0.4264
G01 X29.5180 Y24.7650
G02 X36.5126 Y23.2916 I3.4816 J-0.8113
G02 X29.5180 Y24.7650 I-3.5138 J0.6587
G01 X28.1861 Y25.1077
G02 X37.8544 Y22.9490 I4.8144 J-1.1679
G02 X28.1861 Y25.1077 I-4.8547 J0.9873
G01 X26.9003 Y25.6328
G02 X39.1487 Y22.4474 I6.0955 J-1.7029
G02 X26.9003 Y25.6328 I-6.1540 J1.4782
G01 X25.5518 Y25.8626
G02 X38.4174 Y29.3873 I7.4503 J-1.9516
G02 X35.0371 Y16.4829 I-5.4153 J-5.4764
G02 X25.5518 Y25.8626 I-2.0350 J7.4280
G01 X24.2030 Y26.1010
G02 X41.8649 Y21.9641 I8.8009 J-2.1968
G02 X24.2030 Y26.1010 I-8.8619 J1.9364
G01 X22.9104 Y26.6081
G02 X43.1630 Y21.4667 I10.0904 J-2.7124
G02 X22.9104 Y26.6081 I-10.1634 J2.4248
G01 X22.1704 Y26.5485
G02 X40.7018 Y31.9741 I10.8319 J-2.6367
G02 X36.1348 Y13.2127 I-7.6994 J-8.0624
G02 X22.1704 Y26.5485 I-3.1325 J10.6991
G00 Z5.0000
G00 X32.2165 Y24.1147
G00 Z-20.5000
G01 Z-23.0000 F900
G01 X32.2569 Y24.3304 F1800
G02 X33.5793 Y23.4118 I0.7343 J-0.3540
G02 X32.1759 Y23.8984 I-0.5903 J0.5646
G01 X32.2165 Y24.1147
G01 X30.8455 Y24.4488
G02 X35.1468 Y23.5326 I2.1441 J-0.4889
G02 X30.8455 Y24.4488 I-2.1574 J0.4264
G01 X29.5180 Y24.7650
G02 X36.5126 Y23.2916 I3.4816 J-0.8113
G02 X29.5180 Y24.7650 I-3.5138 J0.6587
G01 X28.1861 Y25.1077
G02 X37.8544 Y22.9490 I4.8144 J-1.1679
G02 X28.1861 Y25.1077 I-4.8547 J0.9873
G01 X26.9003 Y25.6328
G02 X39.1487 Y22.4474 I6.0955 J-1.7029
G02 X26.9003 Y25.6328 I-6.1540 J1.4782
G01 X25.5518 Y25.8626
G02 X38.4174 Y29.3873 I7.4503 J-1.9516
G02 X35.0371 Y16.4829 I-5.4153 J-5.4764
G02 X25.5518 Y25.8626 I-2.0350 J7.4280
G01 X24.2030 Y26.1010
G02 X41.8649 Y21.9641 I8.8009 J-2.1968
G02 X24.2030 Y26.1010 I-8.8619 J1.9364
G01 X22.9104 Y26.6081
G02 X43.1630 Y21.4667 I10.0904 J-2.7124
G02 X22.9104 Y26.6081 I-10.1634 J2.4248
G01 X22.1704 Y26.5485
G02 X40.7018 Y31.9741 I10.8319 J-2.6367
G02 X36.1348 Y13.2127 I-7.6994 J-8.0624
G02 X22.1704 Y26.5485 I-3.1325 J10.6991
G00 Z5.0000
G00 X32.2165 Y24.1147
G00 Z-22.5000
G01 Z-25.0000 F900
G01 X32.2569 Y24.3304 F1800
G02 X33.5793 Y23.4118 I0.7343 J-0.3540
G02 X32.1759 Y23.8984 I-0.5903 J0.5646
G01 X32.2165 Y24.1147
G01 X30.8455 Y24.4488
G02 X35.1468 Y23.5326 I2.1441 J-0.4889
G02 X30.8455 Y24.4488 I-2.1574 J0.4264
G01 X29.5180 Y24.7650
G02 X36.5126 Y23.2916 I3.4816 J-0.8113
G02 X29.5180 Y24.7650 I-3.5138 J0.6587
G01 X28.1861 Y25.1077
G02 X37.8544 Y22.9490 I4.8144 J-1.1679
G02 X28.1861 Y25.1077 I-4.8547 J0.9873
G01 X26.9003 Y25.6328
G02 X39.1487 Y22.4474 I6.0955 J-1.7029
G02 X26.9003 Y25.6328 I-6.1540 J1.4782
G01 X25.5518 Y25.8626
G02 X38.4174 Y29.3873 I7.4503 J-1.9516
G02 X35.0371 Y16.4829 I-5.4153 J-5.4764
G02 X25.5518 Y25.8626 I-2.0350 J7.4280
G01 X24.2030 Y26.1010
G02 X41.8649 Y21.9641 I8.8009 J-2.1968
G02 X24.2030 Y26.1010 I-8.8619 J1.9364
G01 X22.9104 Y26.6081
G02 X43.1630 Y21.4667 I10.0904 J-2.7124
G02 X22.9104 Y26.6081 I-10.1634 J2.4248
G01 X22.1704 Y26.5485
G02 X40.7018 Y31.9741 I10.8319 J-2.6367
G02 X36.1348 Y13.2127 I-7.6994 J-8.0624
G02 X22.1704 Y26.5485 I-3.1325 J10.6991
G00 Z5.0000
G00 X32.2165 Y24.1147
G00 Z-24.5000
G01 Z-27.0000 F900
G01 X32.2569 Y24.3304 F1800
G02 X33.5793 Y23.4118 I0.7343 J-0.3540
G02 X32.1759 Y23.8984 I-0.5903 J0.5646
G01 X32.2165 Y24.1147
G01 X30.8455 Y24.4488
G02 X35.1468 Y23.5326 I2.1441 J-0.4889
G02 X30.8455 Y24.4488 I-2.1574 J0.4264
G01 X29.5180 Y24.7650
G02 X36.5126 Y23.2916 I3.4816 J-0.8113
G02 X29.5180 Y24.7650 I-3.5138 J0.6587
G01 X28.1861 Y25.1077
G02 X37.8544 Y22.9490 I4.8144 J-1.1679
G02 X28.1861 Y25.1077 I-4.8547 J0.9873
G01 X26.9003 Y25.6328
G02 X39.1487 Y22.4474 I6.0955 J-1.7029
G02 X26.9003 Y25.6328 I-6.1540 J1.4782
G01 X25.5518 Y25.8626
G02 X38.4174 Y29.3873 I7.4503 J-1.9516
G02 X35.0371 Y16.4829 I-5.4153 J-5.4764
G02 X25.5518 Y25.8626 I-2.0350 J7.4280
G01 X24.2030 Y26.1010
G02 X41.8649 Y21.9641 I8.8009 J-2.1968
G02 X24.2030 Y26.1010 I-8.8619 J1.9364
G01 X22.9104 Y26.6081
G02 X43.1630 Y21.4667 I10.0904 J-2.7124
G02 X22.9104 Y26.6081 I-10.1634 J2.4248
G01 X22.1704 Y26.5485
G02 X40.7018 Y31.9741 I10.8319 J-2.6367
G02 X36.1348 Y13.2127 I-7.6994 J-8.0624
G02 X22.1704 Y26.5485 I-3.1325 J10.6991
G00 Z5.0000
G00 X32.2165 Y24.1147
G00 Z-26.5000
G01 Z-28.0000 F900
G01 X32.2569 Y24.3304 F1800
G02 X33.5793 Y23.4118 I0.7343 J-0.3540
G02 X32.1759 Y23.8984 I-0.5903 J0.5646
G01 X32.2165 Y24.1147
G01 X30.8455 Y24.4488
G02 X35.1468 Y23.5326 I2.1441 J-0.4889
G02 X30.8455 Y24.4488 I-2.1574 J0.4264
G01 X29.5180 Y24.7650
G02 X36.5126 Y23.2916 I3.4816 J-0.8113
G02 X29.5180 Y24.7650 I-3.5138 J0.6587
G01 X28.1861 Y25.1077
G02 X37.8544 Y22.9490 I4.8144 J-1.1679
G02 X28.1861 Y25.1077 I-4.8547 J0.9873
G01 X26.9003 Y25.6328
G02 X39.1487 Y22.4474 I6.0955 J-1.7029
G02 X26.9003 Y25.6328 I-6.1540 J1.4782
G01 X25.5518 Y25.8626
G02 X38.4174 Y29.3873 I7.4503 J-1.9516
G02 X35.0371 Y16.4829 I-5.4153 J-5.4764
G02 X25.5518 Y25.8626 I-2.0350 J7.4280
G01 X24.2030 Y26.1010
G02 X41.8649 Y21.9641 I8.8009 J-2.1968
G02 X24.2030 Y26.1010 I-8.8619 J1.9364
G01 X22.9104 Y26.6081
G02 X43.1630 Y21.4667 I10.0904 J-2.7124
G02 X22.9104 Y26.6081 I-10.1634 J2.4248
G01 X22.1704 Y26.5485
G02 X40.7018 Y31.9741 I10.8319 J-2.6367
G02 X36.1348 Y13.2127 I-7.6994 J-8.0624
G02 X22.1704 Y26.5485 I-3.1325 J10.6991
G00 Z5.0000


(No. 4: Taglio 24)
G00 X20.2670 Y11.6647 Z5.0000
G00 Z-14.5000
G01 Z-17.0000 F900
G02 X20.1983 Y10.6007 I-0.0437 J-0.5314 F1800
G02 X19.7196 Y11.3070 I0.0258 J0.5328
G01 X19.8546 Y11.5230
G02 X20.2670 Y11.6647 I0.3644 J-0.3895
G01 X20.3447 Y13.0356
G02 X20.1665 Y9.2045 I-0.1199 J-1.9141
G02 X20.3447 Y13.0356 I0.0572 J1.9170
G01 X20.4112 Y14.4053
G02 X22.9710 Y9.3046 I-0.1925 J-3.2893
G02 X17.2738 Y9.6381 I-2.7523 J1.8114
G02 X20.4112 Y14.4053 I2.9449 J1.4779
G01 X20.3841 Y15.1296
G02 X23.6041 Y8.9993 I-0.1596 J-3.9947
G02 X16.6851 Y9.2758 I-3.3797 J2.1356
G02 X20.3841 Y15.1296 I3.5393 J1.8591
G00 Z5.0000
G00 X20.2353 Y11.6665
G00 Z-16.5000
G01 Z-19.0000 F900
G02 X20.2332 Y10.6002 I-0.0120 J-0.5331 F1800
G02 X19.7196 Y11.3070 I-0.0092 J0.5333
G01 X19.8546 Y11.5230
G02 X20.2353 Y11.6665 I0.3643 J-0.3899
G01 X20.2193 Y13.0394
G02 X20.2920 Y9.2049 I0.0055 J-1.9178
G02 X20.2193 Y13.0394 I-0.0683 J1.9166
G01 X20.0678 Y14.4074
G02 X23.1450 Y9.6012 I0.1512 J-3.2914
G02 X17.4441 Y9.3393 I-2.9261 J1.5148
G02 X20.0678 Y14.4074 I2.7749 J1.7767
G01 X20.0665 Y15.1297
G02 X23.7633 Y9.2745 I0.1582 J-3.9948
G02 X16.8441 Y9.0006 I-3.5386 J1.8604
G02 X20.0665 Y15.1297 I3.3805 J2.1343
G00 Z5.0000
G00 X20.1718 Y11.6643
G00 Z-18.5000
G01 Z-21.0000 F900
G02 X20.3029 Y10.6060 I0.0512 J-0.5309 F1800
G02 X19.7196 Y11.3070 I-0.0790 J0.5275
G01 X19.8546 Y11.5230
G02 X20.1718 Y11.6643 I0.3575 J-0.3759
G01 X20.0939 Y13.0349
G02 X20.4173 Y9.2134 I0.1310 J-1.9134
G02 X20.0939 Y13.0349 I-0.1935 J1.9081
G01 X20.0658 Y14.4073
G02 X23.1459 Y9.6029 I0.1531 J-3.2914
G02 X17.4451 Y9.3377 I-2.9270 J1.5131
G02 X20.0658 Y14.4073 I2.7738 J1.7783
G01 X20.0664 Y15.1297
G02 X23.7633 Y9.2746 I0.1582 J-3.9947
G02 X16.8442 Y9.0005 I-3.5387 J1.8603
G02 X20.0664 Y15.1297 I3.3804 J2.1344
G00 Z5.0000
G00 X20.1718 Y11.6643
G00 Z-20.5000
G01 Z-22.0000 F900
G02 X20.3029 Y10.6060 I0.0512 J-0.5309 F1800
G02 X19.7196 Y11.3070 I-0.0790 J0.5275
G01 X19.8546 Y11.5230
G02 X20.1718 Y11.6643 I0.3575 J-0.3759
G01 X20.0939 Y13.0349
G02 X20.4173 Y9.2134 I0.1310 J-1.9134
G02 X20.0939 Y13.0349 I-0.1935 J1.9081
G01 X20.0658 Y14.4073
G02 X23.1459 Y9.6029 I0.1531 J-3.2914
G02 X17.4451 Y9.3377 I-2.9270 J1.5131
G02 X20.0658 Y14.4073 I2.7738 J1.7783
G01 X20.0664 Y15.1297
G02 X23.7633 Y9.2746 I0.1582 J-3.9947
G02 X16.8442 Y9.0005 I-3.5387 J1.8603
G02 X20.0664 Y15.1297 I3.3804 J2.1344
G00 Z5.0000


(No. 5: Taglio 23)
G00 X45.2568 Y11.1991 Z5.0000
G00 Z-14.5000
G01 Z-17.0000 F900
G01 X45.2703 Y11.3070 F1800
G01 X45.4053 Y11.5230
G02 X45.8880 Y10.6124 I0.3668 J-0.3888
G02 X45.2568 Y11.1991 I-0.1169 J0.5071
G01 X43.8734 Y11.3674
G02 X47.6846 Y10.9390 I1.9022 J-0.2449
G02 X43.8734 Y11.3674 I-1.9092 J0.1825
G01 X42.5213 Y11.6525
G02 X49.0459 Y10.7548 I3.2509 J-0.5317
G02 X42.5213 Y11.6525 I-3.2743 J0.3615
G01 X41.8552 Y11.9107
G02 X48.4090 Y14.1462 I3.9222 J-0.7742
G02 X47.0680 Y7.3527 I-2.6316 J-3.0096
G02 X41.8552 Y11.9107 I-1.2906 J3.7838
G00 Z5.0000
G00 X45.2569 Y11.1993
G00 Z-16.5000
G01 Z-19.0000 F900
G01 X45.2703 Y11.3070 F1800
G01 X45.4053 Y11.5230
G02 X45.8880 Y10.6124 I0.3668 J-0.3888
G02 X45.2569 Y11.1993 I-0.1169 J0.5071
G01 X43.8734 Y11.3674
G02 X47.6846 Y10.9390 I1.9022 J-0.2449
G02 X43.8734 Y11.3674 I-1.9092 J0.1825
G01 X42.5213 Y11.6525
G02 X49.0459 Y10.7548 I3.2509 J-0.5317
G02 X42.5213 Y11.6525 I-3.2743 J0.3615
G01 X41.8552 Y11.9107
G02 X48.4090 Y14.1462 I3.9222 J-0.7742
G02 X47.0680 Y7.3527 I-2.6316 J-3.0096
G02 X41.8552 Y11.9107 I-1.2906 J3.7838
G00 Z5.0000
G00 X45.2569 Y11.1993
G00 Z-18.5000
G01 Z-21.0000 F900
G01 X45.2703 Y11.3070 F1800
G01 X45.4053 Y11.5230
G02 X45.8880 Y10.6124 I0.3668 J-0.3888
G02 X45.2569 Y11.1993 I-0.1169 J0.5071
G01 X43.8734 Y11.3674
G02 X47.6846 Y10.9390 I1.9022 J-0.2449
G02 X43.8734 Y11.3674 I-1.9092 J0.1825
G01 X42.5213 Y11.6525
G02 X49.0459 Y10.7548 I3.2509 J-0.5317
G02 X42.5213 Y11.6525 I-3.2743 J0.3615
G01 X41.8552 Y11.9107
G02 X48.4090 Y14.1462 I3.9222 J-0.7742
G02 X47.0680 Y7.3527 I-2.6316 J-3.0096
G02 X41.8552 Y11.9107 I-1.2906 J3.7838
G00 Z5.0000
G00 X45.2569 Y11.1993
G00 Z-20.5000
G01 Z-22.0000 F900
G01 X45.2703 Y11.3070 F1800
G01 X45.4053 Y11.5230
G02 X45.8880 Y10.6124 I0.3668 J-0.3888
G02 X45.2569 Y11.1993 I-0.1169 J0.5071
G01 X43.8734 Y11.3674
G02 X47.6846 Y10.9390 I1.9022 J-0.2449
G02 X43.8734 Y11.3674 I-1.9092 J0.1825
G01 X42.5213 Y11.6525
G02 X49.0459 Y10.7548 I3.2509 J-0.5317
G02 X42.5213 Y11.6525 I-3.2743 J0.3615
G01 X41.8552 Y11.9107
G02 X48.4090 Y14.1462 I3.9222 J-0.7742
G02 X47.0680 Y7.3527 I-2.6316 J-3.0096
G02 X41.8552 Y11.9107 I-1.2906 J3.7838
G00 Z5.0000


(No. 6: Taglio 22)
G00 X45.6968 Y36.1568 Z5.0000
G00 Z-14.5000
G01 Z-17.0000 F900
G02 X45.2703 Y36.8577 I0.0775 J0.5274 F1800
G01 X45.4053 Y37.0737
G02 X45.8880 Y36.1631 I0.3668 J-0.3888
G02 X45.6968 Y36.1568 I-0.1122 J0.5048
G01 X45.5296 Y34.7712
G02 X45.9580 Y38.5824 I0.2449 J1.9022
G02 X45.5296 Y34.7712 I-0.1825 J-1.9092
G01 X45.2364 Y33.4213
G02 X46.1339 Y39.9459 I0.5315 J3.2509
G02 X45.2364 Y33.4213 I-0.3615 J-3.2743
G01 X45.0010 Y32.7677
G02 X42.7666 Y39.3219 I0.7749 J3.9221
G02 X49.5599 Y37.9798 I3.0092 J-2.6321
G02 X45.0010 Y32.7677 I-3.7840 J-1.2900
G00 Z5.0000
G00 X45.6968 Y36.1568
G00 Z-16.5000
G01 Z-19.0000 F900
G02 X45.2703 Y36.8577 I0.0775 J0.5274 F1800
G01 X45.4053 Y37.0737
G02 X45.8880 Y36.1631 I0.3668 J-0.3888
G02 X45.6968 Y36.1568 I-0.1122 J0.5048
G01 X45.5296 Y34.7712
G02 X45.9580 Y38.5824 I0.2449 J1.9022
G02 X45.5296 Y34.7712 I-0.1825 J-1.9092
G01 X45.2364 Y33.4213
G02 X46.1339 Y39.9459 I0.5315 J3.2509
G02 X45.2364 Y33.4213 I-0.3615 J-3.2743
G01 X45.0010 Y32.7677
G02 X42.7666 Y39.3219 I0.7749 J3.9221
G02 X49.5599 Y37.9798 I3.0092 J-2.6321
G02 X45.0010 Y32.7677 I-3.7840 J-1.2900
G00 Z5.0000
G00 X45.6968 Y36.1568
G00 Z-18.5000
G01 Z-21.0000 F900
G02 X45.2703 Y36.8577 I0.0775 J0.5274 F1800
G01 X45.4053 Y37.0737
G02 X45.8880 Y36.1631 I0.3668 J-0.3888
G02 X45.6968 Y36.1568 I-0.1122 J0.5048
G01 X45.5296 Y34.7712
G02 X45.9580 Y38.5824 I0.2449 J1.9022
G02 X45.5296 Y34.7712 I-0.1825 J-1.9092
G01 X45.2364 Y33.4213
G02 X46.1339 Y39.9459 I0.5315 J3.2509
G02 X45.2364 Y33.4213 I-0.3615 J-3.2743
G01 X45.0010 Y32.7677
G02 X42.7666 Y39.3219 I0.7749 J3.9221
G02 X49.5599 Y37.9798 I3.0092 J-2.6321
G02 X45.0010 Y32.7677 I-3.7840 J-1.2900
G00 Z5.0000
G00 X45.6968 Y36.1568
G00 Z-20.5000
G01 Z-22.0000 F900
G02 X45.2703 Y36.8577 I0.0775 J0.5274 F1800
G01 X45.4053 Y37.0737
G02 X45.8880 Y36.1631 I0.3668 J-0.3888
G02 X45.6968 Y36.1568 I-0.1122 J0.5048
G01 X45.5296 Y34.7712
G02 X45.9580 Y38.5824 I0.2449 J1.9022
G02 X45.5296 Y34.7712 I-0.1825 J-1.9092
G01 X45.2364 Y33.4213
G02 X46.1339 Y39.9459 I0.5315 J3.2509
G02 X45.2364 Y33.4213 I-0.3615 J-3.2743
G01 X45.0010 Y32.7677
G02 X42.7666 Y39.3219 I0.7749 J3.9221
G02 X49.5599 Y37.9798 I3.0092 J-2.6321
G02 X45.0010 Y32.7677 I-3.7840 J-1.2900
G00 Z5.0000


(No. 7: Taglio 27)
G00 X45.7931 Y36.6785 Z5.0000
G00 Z-21.5000
G01 Z-24.0000 F900
G01 X45.8203 Y36.7057 F1800
G01 X45.7663 Y36.6517
G01 X45.7931 Y36.6785
G01 X46.4426 Y36.3478
G02 X45.1468 Y36.2799 I-0.6675 J0.3401
G02 X45.7359 Y37.4360 I0.6283 J0.4080
G02 X46.4426 Y36.3478 I0.0392 J-0.7481
G00 Z5.0000
G00 X45.7938 Y36.6792
G00 Z-23.5000
G01 Z-26.0000 F900
G01 X45.8203 Y36.7057 F1800
G01 X45.7663 Y36.6517
G01 X45.7938 Y36.6792
G01 X46.4626 Y36.3903
G02 X45.1737 Y36.2412 I-0.6875 J0.2975
G02 X45.6890 Y37.4320 I0.6014 J0.4466
G02 X46.4626 Y36.3903 I0.0861 J-0.7442
G00 Z5.0000
G00 X45.7939 Y36.6793
G00 Z-25.5000
G01 Z-28.0000 F900
G01 X45.8203 Y36.7057 F1800
G01 X45.7663 Y36.6517
G01 X45.7939 Y36.6793
G01 X46.4626 Y36.3903
G02 X45.1737 Y36.2412 I-0.6875 J0.2975
G02 X45.6890 Y37.4320 I0.6014 J0.4466
G02 X46.4626 Y36.3903 I0.0861 J-0.7442
G00 Z5.0000


(No. 8: Taglio 33)
G00 X45.7934 Y11.1281 Z5.0000
G00 Z-21.5000
G01 Z-24.0000 F900
G01 X45.8203 Y11.1550 F1800
G01 X45.7663 Y11.1010
G01 X45.7934 Y11.1281
G01 X46.4426 Y10.7971
G02 X45.1468 Y10.7292 I-0.6675 J0.3401
G02 X45.7359 Y11.8853 I0.6283 J0.4080
G02 X46.4426 Y10.7971 I0.0392 J-0.7481
G00 Z5.0000
G00 X45.7938 Y11.1285
G00 Z-23.5000
G01 Z-26.0000 F900
G01 X45.8203 Y11.1550 F1800
G01 X45.7663 Y11.1010
G01 X45.7938 Y11.1285
G01 X46.4626 Y10.8396
G02 X45.1737 Y10.6905 I-0.6875 J0.2975
G02 X45.6890 Y11.8813 I0.6014 J0.4466
G02 X46.4626 Y10.8396 I0.0861 J-0.7442
G00 Z5.0000
G00 X45.7939 Y11.1286
G00 Z-25.5000
G01 Z-28.0000 F900
G01 X45.8203 Y11.1550 F1800
G01 X45.7663 Y11.1010
G01 X45.7939 Y11.1286
G01 X46.4626 Y10.8396
G02 X45.1737 Y10.6905 I-0.6875 J0.2975
G02 X45.6890 Y11.8813 I0.6014 J0.4466
G02 X46.4626 Y10.8396 I0.0861 J-0.7442
G00 Z5.0000


(No. 9: Taglio 32)
G00 X20.2426 Y11.1281 Z5.0000
G00 Z-21.5000
G01 Z-24.0000 F900
G01 X20.2696 Y11.1550 F1800
G01 X20.2156 Y11.1010
G01 X20.2426 Y11.1281
G01 X20.8919 Y10.7971
G02 X19.5961 Y10.7292 I-0.6675 J0.3401
G02 X20.1852 Y11.8853 I0.6283 J0.4080
G02 X20.8919 Y10.7971 I0.0392 J-0.7481
G00 Z5.0000
G00 X20.2431 Y11.1285
G00 Z-23.5000
G01 Z-26.0000 F900
G01 X20.2696 Y11.1550 F1800
G01 X20.2156 Y11.1010
G01 X20.2431 Y11.1285
G01 X20.9119 Y10.8396
G02 X19.6230 Y10.6905 I-0.6875 J0.2975
G02 X20.1383 Y11.8813 I0.6014 J0.4466
G02 X20.9119 Y10.8396 I0.0861 J-0.7442
G00 Z5.0000
G00 X20.2431 Y11.1286
G00 Z-25.5000
G01 Z-28.0000 F900
G01 X20.2696 Y11.1550 F1800
G01 X20.2156 Y11.1010
G01 X20.2431 Y11.1286
G01 X20.9119 Y10.8396
G02 X19.6230 Y10.6905 I-0.6875 J0.2975
G02 X20.1383 Y11.8813 I0.6014 J0.4466
G02 X20.9119 Y10.8396 I0.0861 J-0.7442
G00 Z5.0000


(No. 10: Taglio 31)
G00 X20.2426 Y36.6787 Z5.0000
G00 Z-21.5000
G01 Z-24.0000 F900
G01 X20.2696 Y36.7057 F1800
G01 X20.2156 Y36.6517
G01 X20.2426 Y36.6787
G01 X20.8919 Y36.3478
G02 X19.5961 Y36.2799 I-0.6675 J0.3401
G02 X20.1852 Y37.4360 I0.6283 J0.4080
G02 X20.8919 Y36.3478 I0.0392 J-0.7481
G00 Z5.0000
G00 X20.2431 Y36.6792
G00 Z-23.5000
G01 Z-26.0000 F900
G01 X20.2696 Y36.7057 F1800
G01 X20.2156 Y36.6517
G01 X20.2431 Y36.6792
G01 X20.9119 Y36.3903
G02 X19.6230 Y36.2412 I-0.6875 J0.2975
G02 X20.1383 Y37.4320 I0.6014 J0.4466
G02 X20.9119 Y36.3903 I0.0861 J-0.7442
G00 Z5.0000
G00 X20.2431 Y36.6793
G00 Z-25.5000
G01 Z-28.0000 F900
G01 X20.2696 Y36.7057 F1800
G01 X20.2156 Y36.6517
G01 X20.2431 Y36.6793
G01 X20.9119 Y36.3903
G02 X19.6230 Y36.2412 I-0.6875 J0.2975
G02 X20.1383 Y37.4320 I0.6014 J0.4466
G02 X20.9119 Y36.3903 I0.0861 J-0.7442
G00 Z5.0000


(No. 11: Parte 2)
G00 X-1.5000 Y22.7500 Z5.0000
G00 Z0.5000
G01 Z0.0000 F900
G01 Z-2.0000
G01 Y0.0000 F1800
G03 X0.0000 Y-1.5000 I1.5000 J0.0000
G01 X28.4760
G01 X28.4708 Y-5.8190
G03 X29.9708 Y-7.3208 I1.5000 J-0.0018
G01 X36.0291
G03 X37.5291 Y-5.8208 I0.0000 J1.5000
G01 Y-1.5000
G01 X66.0000
G03 X67.5000 Y0.0000 I0.0000 J1.5000
G01 Y22.7500
G01 Y27.2500
G01 Y48.6334
G01 Y50.0000
G03 X66.0000 Y51.5000 I-1.5000 J0.0000
G01 X65.2224
G01 X33.7046
G01 X29.2046
G01 X0.0000
G03 X-1.5000 Y50.0000 I0.0000 J-1.5000
G01 Y27.2500
G01 Y22.7500
G01 Z-4.0000 F900
G01 Y0.0000 F1800
G03 X0.0000 Y-1.5000 I1.5000 J0.0000
G01 X28.4760
G01 X28.4708 Y-5.8190
G03 X29.9708 Y-7.3208 I1.5000 J-0.0018
G01 X36.0291
G03 X37.5291 Y-5.8208 I0.0000 J1.5000
G01 Y-1.5000
G01 X66.0000
G03 X67.5000 Y0.0000 I0.0000 J1.5000
G01 Y22.7500
G01 Y27.2500
G01 Y48.6334
G01 Y50.0000
G03 X66.0000 Y51.5000 I-1.5000 J0.0000
G01 X65.2224
G01 X33.7046
G01 X29.2046
G01 X0.0000
G03 X-1.5000 Y50.0000 I0.0000 J-1.5000
G01 Y27.2500
G01 Y22.7500
G01 Z-6.0000 F900
G01 Y0.0000 F1800
G03 X0.0000 Y-1.5000 I1.5000 J0.0000
G01 X28.4760
G01 X28.4708 Y-5.8190
G03 X29.9708 Y-7.3208 I1.5000 J-0.0018
G01 X36.0291
G03 X37.5291 Y-5.8208 I0.0000 J1.5000
G01 Y-1.5000
G01 X66.0000
G03 X67.5000 Y0.0000 I0.0000 J1.5000
G01 Y22.7500
G01 Y27.2500
G01 Y48.6334
G01 Y50.0000
G03 X66.0000 Y51.5000 I-1.5000 J0.0000
G01 X65.2224
G01 X33.7046
G01 X29.2046
G01 X0.0000
G03 X-1.5000 Y50.0000 I0.0000 J-1.5000
G01 Y27.2500
G01 Y22.7500
G01 Z-8.0000 F900
G01 Y0.0000 F1800
G03 X0.0000 Y-1.5000 I1.5000 J0.0000
G01 X28.4760
G01 X28.4708 Y-5.8190
G03 X29.9708 Y-7.3208 I1.5000 J-0.0018
G01 X36.0291
G03 X37.5291 Y-5.8208 I0.0000 J1.5000
G01 Y-1.5000
G01 X66.0000
G03 X67.5000 Y0.0000 I0.0000 J1.5000
G01 Y22.7500
G01 Y27.2500
G01 Y48.6334
G01 Y50.0000
G03 X66.0000 Y51.5000 I-1.5000 J0.0000
G01 X65.2224
G01 X33.7046
G01 X29.2046
G01 X0.0000
G03 X-1.5000 Y50.0000 I0.0000 J-1.5000
G01 Y27.2500
G01 Y22.7500
G01 Z-10.0000 F900
G01 Y0.0000 F1800
G03 X0.0000 Y-1.5000 I1.5000 J0.0000
G01 X28.4760
G01 X28.4708 Y-5.8190
G03 X29.9708 Y-7.3208 I1.5000 J-0.0018
G01 X36.0291
G03 X37.5291 Y-5.8208 I0.0000 J1.5000
G01 Y-1.5000
G01 X66.0000
G03 X67.5000 Y0.0000 I0.0000 J1.5000
G01 Y22.7500
G01 Y27.2500
G01 Y48.6334
G01 Y50.0000
G03 X66.0000 Y51.5000 I-1.5000 J0.0000
G01 X65.2224
G01 X33.7046
G01 X29.2046
G01 X0.0000
G03 X-1.5000 Y50.0000 I0.0000 J-1.5000
G01 Y27.2500
G01 Y22.7500
G01 Z-12.0000 F900
G01 Y0.0000 F1800
G03 X0.0000 Y-1.5000 I1.5000 J0.0000
G01 X28.4760
G01 X28.4708 Y-5.8190
G03 X29.9708 Y-7.3208 I1.5000 J-0.0018
G01 X36.0291
G03 X37.5291 Y-5.8208 I0.0000 J1.5000
G01 Y-1.5000
G01 X66.0000
G03 X67.5000 Y0.0000 I0.0000 J1.5000
G01 Y22.7500
G01 Y27.2500
G01 Y48.6334
G01 Y50.0000
G03 X66.0000 Y51.5000 I-1.5000 J0.0000
G01 X65.2224
G01 X33.7046
G01 X29.2046
G01 X0.0000
G03 X-1.5000 Y50.0000 I0.0000 J-1.5000
G01 Y27.2500
G01 Y22.7500
G01 Z-14.0000 F900
G01 Y0.0000 F1800
G03 X0.0000 Y-1.5000 I1.5000 J0.0000
G01 X28.4760
G01 X28.4708 Y-5.8190
G03 X29.9708 Y-7.3208 I1.5000 J-0.0018
G01 X36.0291
G03 X37.5291 Y-5.8208 I0.0000 J1.5000
G01 Y-1.5000
G01 X66.0000
G03 X67.5000 Y0.0000 I0.0000 J1.5000
G01 Y22.7500
G01 Y27.2500
G01 Y48.6334
G01 Y50.0000
G03 X66.0000 Y51.5000 I-1.5000 J0.0000
G01 X65.2224
G01 X33.7046
G01 X29.2046
G01 X0.0000
G03 X-1.5000 Y50.0000 I0.0000 J-1.5000
G01 Y27.2500
G01 Y22.7500
G01 Z-16.0000 F900
G01 Y0.0000 F1800
G03 X0.0000 Y-1.5000 I1.5000 J0.0000
G01 X28.4760
G01 X28.4708 Y-5.8190
G03 X29.9708 Y-7.3208 I1.5000 J-0.0018
G01 X36.0291
G03 X37.5291 Y-5.8208 I0.0000 J1.5000
G01 Y-1.5000
G01 X66.0000
G03 X67.5000 Y0.0000 I0.0000 J1.5000
G01 Y22.7500
G01 Y27.2500
G01 Y48.6334
G01 Y50.0000
G03 X66.0000 Y51.5000 I-1.5000 J0.0000
G01 X65.2224
G01 X33.7046
G01 X29.2046
G01 X0.0000
G03 X-1.5000 Y50.0000 I0.0000 J-1.5000
G01 Y27.2500
G01 Y22.7500
G01 Z-18.0000 F900
G01 Y0.0000 F1800
G03 X0.0000 Y-1.5000 I1.5000 J0.0000
G01 X28.4760
G01 X28.4708 Y-5.8190
G03 X29.9708 Y-7.3208 I1.5000 J-0.0018
G01 X36.0291
G03 X37.5291 Y-5.8208 I0.0000 J1.5000
G01 Y-1.5000
G01 X66.0000
G03 X67.5000 Y0.0000 I0.0000 J1.5000
G01 Y22.7500
G01 Y27.2500
G01 Y48.6334
G01 Y50.0000
G03 X66.0000 Y51.5000 I-1.5000 J0.0000
G01 X65.2224
G01 X33.7046
G01 X29.2046
G01 X0.0000
G03 X-1.5000 Y50.0000 I0.0000 J-1.5000
G01 Y27.2500
G01 Y22.7500
G01 Z-20.0000 F900
G01 Y0.0000 F1800
G03 X0.0000 Y-1.5000 I1.5000 J0.0000
G01 X28.4760
G01 X28.4708 Y-5.8190
G03 X29.9708 Y-7.3208 I1.5000 J-0.0018
G01 X36.0291
G03 X37.5291 Y-5.8208 I0.0000 J1.5000
G01 Y-1.5000
G01 X66.0000
G03 X67.5000 Y0.0000 I0.0000 J1.5000
G01 Y22.7500
G01 Y27.2500
G01 Y48.6334
G01 Y50.0000
G03 X66.0000 Y51.5000 I-1.5000 J0.0000
G01 X65.2224
G01 X33.7046
G01 X29.2046
G01 X0.0000
G03 X-1.5000 Y50.0000 I0.0000 J-1.5000
G01 Y27.2500
G01 Y22.7500
G01 Z-22.0000 F900
G01 Y0.0000 F1800
G03 X0.0000 Y-1.5000 I1.5000 J0.0000
G01 X28.4760
G01 X28.4708 Y-5.8190
G03 X29.9708 Y-7.3208 I1.5000 J-0.0018
G01 X36.0291
G03 X37.5291 Y-5.8208 I0.0000 J1.5000
G01 Y-1.5000
G01 X66.0000
G03 X67.5000 Y0.0000 I0.0000 J1.5000
G01 Y22.7500
G01 Y27.2500
G01 Y48.6334
G01 Y50.0000
G03 X66.0000 Y51.5000 I-1.5000 J0.0000
G01 X65.2224
G01 X33.7046
G01 X29.2046
G01 X0.0000
G03 X-1.5000 Y50.0000 I0.0000 J-1.5000
G01 Y27.2500
G01 Y22.7500
G01 Z-24.0000 F900
G01 Y0.0000 F1800
G03 X0.0000 Y-1.5000 I1.5000 J0.0000
G01 X28.4760
G01 X28.4708 Y-5.8190
G03 X29.9708 Y-7.3208 I1.5000 J-0.0018
G01 X36.0291
G03 X37.5291 Y-5.8208 I0.0000 J1.5000
G01 Y-1.5000
G01 X66.0000
G03 X67.5000 Y0.0000 I0.0000 J1.5000
G01 Y22.7500
G01 Y27.2500
G01 Y48.6334
G01 Y50.0000
G03 X66.0000 Y51.5000 I-1.5000 J0.0000
G01 X65.2224
G01 X33.7046
G01 X29.2046
G01 X0.0000
G03 X-1.5000 Y50.0000 I0.0000 J-1.5000
G01 Y27.2500
G01 Y22.7500
G01 Z-26.0000 F900
G01 Y0.0000 F1800
G03 X0.0000 Y-1.5000 I1.5000 J0.0000
G01 X28.4760
G01 X28.4708 Y-5.8190
G03 X29.9708 Y-7.3208 I1.5000 J-0.0018
G01 X36.0291
G03 X37.5291 Y-5.8208 I0.0000 J1.5000
G01 Y-1.5000
G01 X66.0000
G03 X67.5000 Y0.0000 I0.0000 J1.5000
G01 Y22.7500
G01 Y27.2500
G01 Y48.6334
G01 Y50.0000
G03 X66.0000 Y51.5000 I-1.5000 J0.0000
G01 X65.2224
G01 X33.7046
G01 X29.2046
G01 X0.0000
G03 X-1.5000 Y50.0000 I0.0000 J-1.5000
G01 Y27.2500
G01 Y22.7500
G01 Z-28.0000 F900
G01 Y0.0000 F1800
G03 X0.0000 Y-1.5000 I1.5000 J0.0000
G01 X28.4760
G01 X28.4708 Y-5.8190
G03 X29.9708 Y-7.3208 I1.5000 J-0.0018
G01 X36.0291
G03 X37.5291 Y-5.8208 I0.0000 J1.5000
G01 Y-1.5000
G01 X66.0000
G03 X67.5000 Y0.0000 I0.0000 J1.5000
G01 Y22.7500
G00 Z-26.5000
G01 Y27.2500
G01 Z-28.0000 F900
G01 Y48.6334 F1800
G00 Z-26.5000
G01 Y50.0000
G03 X66.0000 Y51.5000 I-1.5000 J0.0000
G01 X65.2224
G01 Z-28.0000 F900
G01 X33.7046 F1800
G00 Z-26.5000
G01 X29.2046
G01 Z-28.0000 F900
G01 X0.0000 F1800
G03 X-1.5000 Y50.0000 I0.0000 J-1.5000
G01 Y27.2500
G00 Z-26.5000
G01 Y22.7500
G00 Z5.0000
G00 X0.0000 Y0.0000

M05
M30
