(Project supporto_motore)
(Created by Estlcam version 11 build 11,244)
(Machining time about 00:16:38 hours)

(Required tools:)
(Nuovo utensile 10)

G90
G91.1
M03 S24000
G00 Z5.0000


(No. 1: Taglio 1)
G00 X42.8750 Y37.3015
G00 Z0.5000
G01 Z-2.0000 F1200 S24000
G01 X42.0830 F1000
G01 X41.9750 Y37.7695
G01 X41.9030 Y38.3095
G01 X42.0470 Y38.6695
G01 X43.6670
G01 Y37.3015
G01 X42.8750
G01 X42.8809 Y35.4655
G01 X40.2830
G01 Y36.9415
G01 X39.9590 Y38.2375
G01 X40.3190 Y39.3895
G01 Y40.5055
G01 X45.5030
G01 Y35.4655
G01 X42.8809
G01 X42.8827 Y33.6295
G01 X38.4470
G01 Y36.6175
G01 X38.1230 Y37.7695
G01 X38.0510 Y38.2735
G01 X38.4830 Y39.6775
G01 Y42.3415
G01 X47.3390
G01 Y33.6295
G01 X42.8827
G01 X42.8849 Y31.7935
G01 X36.6470
G01 X36.6110 Y33.2335
G01 Y36.2935
G01 X36.1070 Y38.2015
G01 X36.6470 Y40.0015
G01 Y44.1775
G01 X49.1750
G01 Y31.7935
G01 X42.8849
G01 X42.8862 Y29.9575
G01 X34.8110
G01 X34.7750 Y35.9695
G01 X34.1630 Y38.1295
G01 X34.8110 Y40.3255
G01 Y46.0135
G01 X51.0110
G01 Y29.9575
G01 X42.8862
G01 X42.8870 Y28.1215
G01 X32.9750
G01 X32.9390 Y35.6455
G01 X32.5070 Y37.1575
G01 X32.0750 Y37.9495
G01 Y38.1295
G01 X32.4350 Y38.7415
G01 X32.9750 Y40.6495
G01 Y47.8495
G01 X52.8470
G01 Y28.1215
G01 X42.8870
G01 X42.8876 Y26.2855
G01 X31.1390
G01 X31.1030 Y35.3215
G01 X30.7790 Y36.4735
G01 X29.9150 Y38.0575
G01 X30.7070 Y39.4255
G01 X31.1390 Y40.9735
G01 Y49.6855
G01 X54.6830
G01 Y26.2855
G01 X42.8876
G01 X42.8880 Y24.4495
G01 X29.3030
G01 X29.2670 Y34.9975
G03 X27.3230 Y37.9855 I-4.6752 J-0.9153
G03 X29.3030 Y41.2975 I-3.1969 J4.1591
G01 Y51.5215
G01 X56.5190
G01 Y24.4495
G01 X42.8880
G01 X42.8883 Y22.6135
G01 X27.4670
G01 Y34.3855
G03 X24.6590 Y37.0495 I-2.9756 J-0.3246
G01 X16.4510
G01 Y38.9935
G01 X24.8030
G03 X27.4670 Y41.6575 I-0.3334 J2.9974
G01 Y53.3575
G01 X58.3550
G01 Y22.6135
G01 X42.8883
G01 X42.8884 Y21.6615
G01 X26.5355
G01 Y33.9675
G03 X24.5252 Y36.1100 I-2.0195 J0.1195
G01 X15.4990
G01 Y39.9626
G01 X24.5252
G03 X26.5355 Y42.0812 I-0.0097 J2.0222
G01 Y54.3324
G01 X59.2905
G01 Y21.6615
G01 X42.8884
G00 Z5.0000
G00 X42.8750 Y37.3015
G00 Z-1.5000
G01 Z-4.0000 F1200
G01 X42.0830 F1000
G01 X41.9750 Y37.7695
G01 X41.9030 Y38.3095
G01 X42.0470 Y38.6695
G01 X43.6670
G01 Y37.3015
G01 X42.8750
G01 X42.8810 Y35.4655
G01 X40.2830
G01 Y36.9415
G01 X39.9590 Y38.2375
G01 X40.3190 Y39.3895
G01 Y40.5055
G01 X45.5030
G01 Y35.4655
G01 X42.8810
G01 X42.8827 Y33.6295
G01 X38.4470
G01 Y36.6175
G01 X38.1230 Y37.7695
G01 X38.0510 Y38.2735
G01 X38.4830 Y39.6775
G01 Y42.3415
G01 X47.3390
G01 Y33.6295
G01 X42.8827
G01 X42.8850 Y31.7935
G01 X36.6470
G01 X36.6110 Y33.2335
G01 Y36.2935
G01 X36.1070 Y38.2015
G01 X36.6470 Y40.0015
G01 Y44.1775
G01 X49.1750
G01 Y31.7935
G01 X42.8850
G01 X42.8862 Y29.9575
G01 X34.8110
G01 X34.7750 Y35.9695
G01 X34.1630 Y38.1295
G01 X34.8110 Y40.3255
G01 Y46.0135
G01 X51.0110
G01 Y29.9575
G01 X42.8862
G01 X42.8870 Y28.1215
G01 X32.9750
G01 X32.9390 Y35.6455
G01 X32.5070 Y37.1575
G01 X32.0750 Y37.9495
G01 Y38.1295
G01 X32.4350 Y38.7415
G01 X32.9750 Y40.6495
G01 Y47.8495
G01 X52.8470
G01 Y28.1215
G01 X42.8870
G01 X42.8876 Y26.2855
G01 X31.1390
G01 X31.1030 Y35.3215
G01 X30.7790 Y36.4735
G01 X29.9150 Y38.0575
G01 X30.7070 Y39.4255
G01 X31.1390 Y40.9735
G01 Y49.6855
G01 X54.6830
G01 Y26.2855
G01 X42.8876
G01 X42.8880 Y24.4495
G01 X29.3030
G01 X29.2670 Y34.9975
G03 X27.3230 Y37.9855 I-4.6752 J-0.9153
G03 X29.3030 Y41.2975 I-3.1969 J4.1591
G01 Y51.5215
G01 X56.5190
G01 Y24.4495
G01 X42.8880
G01 X42.8884 Y22.6135
G01 X27.4670
G01 Y34.3855
G03 X24.6590 Y37.0495 I-2.9756 J-0.3246
G01 X16.4510
G01 Y38.9935
G01 X24.8030
G03 X27.4670 Y41.6575 I-0.3334 J2.9974
G01 Y53.3575
G01 X58.3550
G01 Y22.6135
G01 X42.8884
G01 Y21.6615
G01 X26.5355
G01 Y33.9675
G03 X24.5252 Y36.1100 I-2.0195 J0.1195
G01 X15.4990
G01 Y39.9626
G01 X24.5252
G03 X26.5355 Y42.0812 I-0.0097 J2.0222
G01 Y54.3324
G01 X59.2905
G01 Y21.6615
G01 X42.8884
G00 Z5.0000
G00 X42.8750 Y37.3015
G00 Z-3.5000
G01 Z-6.0000 F1200
G01 X42.0830 F1000
G01 X41.9750 Y37.7695
G01 X41.9030 Y38.3095
G01 X42.0470 Y38.6695
G01 X43.6670
G01 Y37.3015
G01 X42.8750
G01 X42.8810 Y35.4655
G01 X40.2830
G01 Y36.9415
G01 X39.9590 Y38.2375
G01 X40.3190 Y39.3895
G01 Y40.5055
G01 X45.5030
G01 Y35.4655
G01 X42.8810
G01 X42.8827 Y33.6295
G01 X38.4470
G01 Y36.6175
G01 X38.1230 Y37.7695
G01 X38.0510 Y38.2735
G01 X38.4830 Y39.6775
G01 Y42.3415
G01 X47.3390
G01 Y33.6295
G01 X42.8827
G01 X42.8850 Y31.7935
G01 X36.6470
G01 X36.6110 Y33.2335
G01 Y36.2935
G01 X36.1070 Y38.2015
G01 X36.6470 Y40.0015
G01 Y44.1775
G01 X49.1750
G01 Y31.7935
G01 X42.8850
G01 X42.8862 Y29.9575
G01 X34.8110
G01 X34.7750 Y35.9695
G01 X34.1630 Y38.1295
G01 X34.8110 Y40.3255
G01 Y46.0135
G01 X51.0110
G01 Y29.9575
G01 X42.8862
G01 X42.8870 Y28.1215
G01 X32.9750
G01 X32.9390 Y35.6455
G01 X32.5070 Y37.1575
G01 X32.0750 Y37.9495
G01 Y38.1295
G01 X32.4350 Y38.7415
G01 X32.9750 Y40.6495
G01 Y47.8495
G01 X52.8470
G01 Y28.1215
G01 X42.8870
G01 X42.8876 Y26.2855
G01 X31.1390
G01 X31.1030 Y35.3215
G01 X30.7790 Y36.4735
G01 X29.9150 Y38.0575
G01 X30.7070 Y39.4255
G01 X31.1390 Y40.9735
G01 Y49.6855
G01 X54.6830
G01 Y26.2855
G01 X42.8876
G01 X42.8880 Y24.4495
G01 X29.3030
G01 X29.2670 Y34.9975
G03 X27.3230 Y37.9855 I-4.6752 J-0.9153
G03 X29.3030 Y41.2975 I-3.1969 J4.1591
G01 Y51.5215
G01 X56.5190
G01 Y24.4495
G01 X42.8880
G01 X42.8884 Y22.6135
G01 X27.4670
G01 Y34.3855
G03 X24.6590 Y37.0495 I-2.9756 J-0.3246
G01 X16.4510
G01 Y38.9935
G01 X24.8030
G03 X27.4670 Y41.6575 I-0.3334 J2.9974
G01 Y53.3575
G01 X58.3550
G01 Y22.6135
G01 X42.8884
G01 Y21.6615
G01 X26.5355
G01 Y33.9675
G03 X24.5252 Y36.1100 I-2.0195 J0.1195
G01 X15.4990
G01 Y39.9626
G01 X24.5252
G03 X26.5355 Y42.0812 I-0.0097 J2.0222
G01 Y54.3324
G01 X59.2905
G01 Y21.6615
G01 X42.8884
G00 Z5.0000
G00 X42.8750 Y37.3015
G00 Z-5.5000
G01 Z-8.0000 F1200
G01 X42.0830 F1000
G01 X41.9750 Y37.7695
G01 X41.9030 Y38.3095
G01 X42.0470 Y38.6695
G01 X43.6670
G01 Y37.3015
G01 X42.8750
G01 X42.8810 Y35.4655
G01 X40.2830
G01 Y36.9415
G01 X39.9590 Y38.2375
G01 X40.3190 Y39.3895
G01 Y40.5055
G01 X45.5030
G01 Y35.4655
G01 X42.8810
G01 X42.8827 Y33.6295
G01 X38.4470
G01 Y36.6175
G01 X38.1230 Y37.7695
G01 X38.0510 Y38.2735
G01 X38.4830 Y39.6775
G01 Y42.3415
G01 X47.3390
G01 Y33.6295
G01 X42.8827
G01 X42.8850 Y31.7935
G01 X36.6470
G01 X36.6110 Y33.2335
G01 Y36.2935
G01 X36.1070 Y38.2015
G01 X36.6470 Y40.0015
G01 Y44.1775
G01 X49.1750
G01 Y31.7935
G01 X42.8850
G01 X42.8862 Y29.9575
G01 X34.8110
G01 X34.7750 Y35.9695
G01 X34.1630 Y38.1295
G01 X34.8110 Y40.3255
G01 Y46.0135
G01 X51.0110
G01 Y29.9575
G01 X42.8862
G01 X42.8870 Y28.1215
G01 X32.9750
G01 X32.9390 Y35.6455
G01 X32.5070 Y37.1575
G01 X32.0750 Y37.9495
G01 Y38.1295
G01 X32.4350 Y38.7415
G01 X32.9750 Y40.6495
G01 Y47.8495
G01 X52.8470
G01 Y28.1215
G01 X42.8870
G01 X42.8876 Y26.2855
G01 X31.1390
G01 X31.1030 Y35.3215
G01 X30.7790 Y36.4735
G01 X29.9150 Y38.0575
G01 X30.7070 Y39.4255
G01 X31.1390 Y40.9735
G01 Y49.6855
G01 X54.6830
G01 Y26.2855
G01 X42.8876
G01 X42.8880 Y24.4495
G01 X29.3030
G01 X29.2670 Y34.9975
G03 X27.3230 Y37.9855 I-4.6752 J-0.9153
G03 X29.3030 Y41.2975 I-3.1969 J4.1591
G01 Y51.5215
G01 X56.5190
G01 Y24.4495
G01 X42.8880
G01 X42.8884 Y22.6135
G01 X27.4670
G01 Y34.3855
G03 X24.6590 Y37.0495 I-2.9756 J-0.3246
G01 X16.4510
G01 Y38.9935
G01 X24.8030
G03 X27.4670 Y41.6575 I-0.3334 J2.9974
G01 Y53.3575
G01 X58.3550
G01 Y22.6135
G01 X42.8884
G01 Y21.6615
G01 X26.5355
G01 Y33.9675
G03 X24.5252 Y36.1100 I-2.0195 J0.1195
G01 X15.4990
G01 Y39.9626
G01 X24.5252
G03 X26.5355 Y42.0812 I-0.0097 J2.0222
G01 Y54.3324
G01 X59.2905
G01 Y21.6615
G01 X42.8884
G00 Z5.0000
G00 X42.8750 Y37.3015
G00 Z-7.5000
G01 Z-10.0000 F1200
G01 X42.0830 F1000
G01 X41.9750 Y37.7695
G01 X41.9030 Y38.3095
G01 X42.0470 Y38.6695
G01 X43.6670
G01 Y37.3015
G01 X42.8750
G01 X42.8810 Y35.4655
G01 X40.2830
G01 Y36.9415
G01 X39.9590 Y38.2375
G01 X40.3190 Y39.3895
G01 Y40.5055
G01 X45.5030
G01 Y35.4655
G01 X42.8810
G01 X42.8827 Y33.6295
G01 X38.4470
G01 Y36.6175
G01 X38.1230 Y37.7695
G01 X38.0510 Y38.2735
G01 X38.4830 Y39.6775
G01 Y42.3415
G01 X47.3390
G01 Y33.6295
G01 X42.8827
G01 X42.8850 Y31.7935
G01 X36.6470
G01 X36.6110 Y33.2335
G01 Y36.2935
G01 X36.1070 Y38.2015
G01 X36.6470 Y40.0015
G01 Y44.1775
G01 X49.1750
G01 Y31.7935
G01 X42.8850
G01 X42.8862 Y29.9575
G01 X34.8110
G01 X34.7750 Y35.9695
G01 X34.1630 Y38.1295
G01 X34.8110 Y40.3255
G01 Y46.0135
G01 X51.0110
G01 Y29.9575
G01 X42.8862
G01 X42.8870 Y28.1215
G01 X32.9750
G01 X32.9390 Y35.6455
G01 X32.5070 Y37.1575
G01 X32.0750 Y37.9495
G01 Y38.1295
G01 X32.4350 Y38.7415
G01 X32.9750 Y40.6495
G01 Y47.8495
G01 X52.8470
G01 Y28.1215
G01 X42.8870
G01 X42.8876 Y26.2855
G01 X31.1390
G01 X31.1030 Y35.3215
G01 X30.7790 Y36.4735
G01 X29.9150 Y38.0575
G01 X30.7070 Y39.4255
G01 X31.1390 Y40.9735
G01 Y49.6855
G01 X54.6830
G01 Y26.2855
G01 X42.8876
G01 X42.8880 Y24.4495
G01 X29.3030
G01 X29.2670 Y34.9975
G03 X27.3230 Y37.9855 I-4.6752 J-0.9153
G03 X29.3030 Y41.2975 I-3.1969 J4.1591
G01 Y51.5215
G01 X56.5190
G01 Y24.4495
G01 X42.8880
G01 X42.8884 Y22.6135
G01 X27.4670
G01 Y34.3855
G03 X24.6590 Y37.0495 I-2.9756 J-0.3246
G01 X16.4510
G01 Y38.9935
G01 X24.8030
G03 X27.4670 Y41.6575 I-0.3334 J2.9974
G01 Y53.3575
G01 X58.3550
G01 Y22.6135
G01 X42.8884
G01 Y21.6615
G01 X26.5355
G01 Y33.9675
G03 X24.5252 Y36.1100 I-2.0195 J0.1195
G01 X15.4990
G01 Y39.9626
G01 X24.5252
G03 X26.5355 Y42.0812 I-0.0097 J2.0222
G01 Y54.3324
G01 X59.2905
G01 Y21.6615
G01 X42.8884
G00 Z5.0000
G00 X42.8750 Y37.3015
G00 Z-9.5000
G01 Z-12.0000 F1200
G01 X42.0830 F1000
G01 X41.9750 Y37.7695
G01 X41.9030 Y38.3095
G01 X42.0470 Y38.6695
G01 X43.6670
G01 Y37.3015
G01 X42.8750
G01 X42.8810 Y35.4655
G01 X40.2830
G01 Y36.9415
G01 X39.9590 Y38.2375
G01 X40.3190 Y39.3895
G01 Y40.5055
G01 X45.5030
G01 Y35.4655
G01 X42.8810
G01 X42.8827 Y33.6295
G01 X38.4470
G01 Y36.6175
G01 X38.1230 Y37.7695
G01 X38.0510 Y38.2735
G01 X38.4830 Y39.6775
G01 Y42.3415
G01 X47.3390
G01 Y33.6295
G01 X42.8827
G01 X42.8850 Y31.7935
G01 X36.6470
G01 X36.6110 Y33.2335
G01 Y36.2935
G01 X36.1070 Y38.2015
G01 X36.6470 Y40.0015
G01 Y44.1775
G01 X49.1750
G01 Y31.7935
G01 X42.8850
G01 X42.8862 Y29.9575
G01 X34.8110
G01 X34.7750 Y35.9695
G01 X34.1630 Y38.1295
G01 X34.8110 Y40.3255
G01 Y46.0135
G01 X51.0110
G01 Y29.9575
G01 X42.8862
G01 X42.8870 Y28.1215
G01 X32.9750
G01 X32.9390 Y35.6455
G01 X32.5070 Y37.1575
G01 X32.0750 Y37.9495
G01 Y38.1295
G01 X32.4350 Y38.7415
G01 X32.9750 Y40.6495
G01 Y47.8495
G01 X52.8470
G01 Y28.1215
G01 X42.8870
G01 X42.8876 Y26.2855
G01 X31.1390
G01 X31.1030 Y35.3215
G01 X30.7790 Y36.4735
G01 X29.9150 Y38.0575
G01 X30.7070 Y39.4255
G01 X31.1390 Y40.9735
G01 Y49.6855
G01 X54.6830
G01 Y26.2855
G01 X42.8876
G01 X42.8880 Y24.4495
G01 X29.3030
G01 X29.2670 Y34.9975
G03 X27.3230 Y37.9855 I-4.6752 J-0.9153
G03 X29.3030 Y41.2975 I-3.1969 J4.1591
G01 Y51.5215
G01 X56.5190
G01 Y24.4495
G01 X42.8880
G01 X42.8884 Y22.6135
G01 X27.4670
G01 Y34.3855
G03 X24.6590 Y37.0495 I-2.9756 J-0.3246
G01 X16.4510
G01 Y38.9935
G01 X24.8030
G03 X27.4670 Y41.6575 I-0.3334 J2.9974
G01 Y53.3575
G01 X58.3550
G01 Y22.6135
G01 X42.8884
G01 Y21.6615
G01 X26.5355
G01 Y33.9675
G03 X24.5252 Y36.1100 I-2.0195 J0.1195
G01 X15.4990
G01 Y39.9626
G01 X24.5252
G03 X26.5355 Y42.0812 I-0.0097 J2.0222
G01 Y54.3324
G01 X59.2905
G01 Y21.6615
G01 X42.8884
G00 Z5.0000
G00 X42.8750 Y37.3015
G00 Z-11.5000
G01 Z-14.0000 F1200
G01 X42.0830 F1000
G01 X41.9750 Y37.7695
G01 X41.9030 Y38.3095
G01 X42.0470 Y38.6695
G01 X43.6670
G01 Y37.3015
G01 X42.8750
G01 X42.8810 Y35.4655
G01 X40.2830
G01 Y36.9415
G01 X39.9590 Y38.2375
G01 X40.3190 Y39.3895
G01 Y40.5055
G01 X45.5030
G01 Y35.4655
G01 X42.8810
G01 X42.8827 Y33.6295
G01 X38.4470
G01 Y36.6175
G01 X38.1230 Y37.7695
G01 X38.0510 Y38.2735
G01 X38.4830 Y39.6775
G01 Y42.3415
G01 X47.3390
G01 Y33.6295
G01 X42.8827
G01 X42.8850 Y31.7935
G01 X36.6470
G01 X36.6110 Y33.2335
G01 Y36.2935
G01 X36.1070 Y38.2015
G01 X36.6470 Y40.0015
G01 Y44.1775
G01 X49.1750
G01 Y31.7935
G01 X42.8850
G01 X42.8862 Y29.9575
G01 X34.8110
G01 X34.7750 Y35.9695
G01 X34.1630 Y38.1295
G01 X34.8110 Y40.3255
G01 Y46.0135
G01 X51.0110
G01 Y29.9575
G01 X42.8862
G01 X42.8870 Y28.1215
G01 X32.9750
G01 X32.9390 Y35.6455
G01 X32.5070 Y37.1575
G01 X32.0750 Y37.9495
G01 Y38.1295
G01 X32.4350 Y38.7415
G01 X32.9750 Y40.6495
G01 Y47.8495
G01 X52.8470
G01 Y28.1215
G01 X42.8870
G01 X42.8876 Y26.2855
G01 X31.1390
G01 X31.1030 Y35.3215
G01 X30.7790 Y36.4735
G01 X29.9150 Y38.0575
G01 X30.7070 Y39.4255
G01 X31.1390 Y40.9735
G01 Y49.6855
G01 X54.6830
G01 Y26.2855
G01 X42.8876
G01 X42.8880 Y24.4495
G01 X29.3030
G01 X29.2670 Y34.9975
G03 X27.3230 Y37.9855 I-4.6752 J-0.9153
G03 X29.3030 Y41.2975 I-3.1969 J4.1591
G01 Y51.5215
G01 X56.5190
G01 Y24.4495
G01 X42.8880
G01 X42.8884 Y22.6135
G01 X27.4670
G01 Y34.3855
G03 X24.6590 Y37.0495 I-2.9756 J-0.3246
G01 X16.4510
G01 Y38.9935
G01 X24.8030
G03 X27.4670 Y41.6575 I-0.3334 J2.9974
G01 Y53.3575
G01 X58.3550
G01 Y22.6135
G01 X42.8884
G01 Y21.6615
G01 X26.5355
G01 Y33.9675
G03 X24.5252 Y36.1100 I-2.0195 J0.1195
G01 X15.4990
G01 Y39.9626
G01 X24.5252
G03 X26.5355 Y42.0812 I-0.0097 J2.0222
G01 Y54.3324
G01 X59.2905
G01 Y21.6615
G01 X42.8884
G00 Z5.0000
G00 X42.8750 Y37.3015
G00 Z-13.5000
G01 Z-16.0000 F1200
G01 X42.0830 F1000
G01 X41.9750 Y37.7695
G01 X41.9030 Y38.3095
G01 X42.0470 Y38.6695
G01 X43.6670
G01 Y37.3015
G01 X42.8750
G01 X42.8810 Y35.4655
G01 X40.2830
G01 Y36.9415
G01 X39.9590 Y38.2375
G01 X40.3190 Y39.3895
G01 Y40.5055
G01 X45.5030
G01 Y35.4655
G01 X42.8810
G01 X42.8827 Y33.6295
G01 X38.4470
G01 Y36.6175
G01 X38.1230 Y37.7695
G01 X38.0510 Y38.2735
G01 X38.4830 Y39.6775
G01 Y42.3415
G01 X47.3390
G01 Y33.6295
G01 X42.8827
G01 X42.8850 Y31.7935
G01 X36.6470
G01 X36.6110 Y33.2335
G01 Y36.2935
G01 X36.1070 Y38.2015
G01 X36.6470 Y40.0015
G01 Y44.1775
G01 X49.1750
G01 Y31.7935
G01 X42.8850
G01 X42.8862 Y29.9575
G01 X34.8110
G01 X34.7750 Y35.9695
G01 X34.1630 Y38.1295
G01 X34.8110 Y40.3255
G01 Y46.0135
G01 X51.0110
G01 Y29.9575
G01 X42.8862
G01 X42.8870 Y28.1215
G01 X32.9750
G01 X32.9390 Y35.6455
G01 X32.5070 Y37.1575
G01 X32.0750 Y37.9495
G01 Y38.1295
G01 X32.4350 Y38.7415
G01 X32.9750 Y40.6495
G01 Y47.8495
G01 X52.8470
G01 Y28.1215
G01 X42.8870
G01 X42.8876 Y26.2855
G01 X31.1390
G01 X31.1030 Y35.3215
G01 X30.7790 Y36.4735
G01 X29.9150 Y38.0575
G01 X30.7070 Y39.4255
G01 X31.1390 Y40.9735
G01 Y49.6855
G01 X54.6830
G01 Y26.2855
G01 X42.8876
G01 X42.8880 Y24.4495
G01 X29.3030
G01 X29.2670 Y34.9975
G03 X27.3230 Y37.9855 I-4.6752 J-0.9153
G03 X29.3030 Y41.2975 I-3.1969 J4.1591
G01 Y51.5215
G01 X56.5190
G01 Y24.4495
G01 X42.8880
G01 X42.8884 Y22.6135
G01 X27.4670
G01 Y34.3855
G03 X24.6590 Y37.0495 I-2.9756 J-0.3246
G01 X16.4510
G01 Y38.9935
G01 X24.8030
G03 X27.4670 Y41.6575 I-0.3334 J2.9974
G01 Y53.3575
G01 X58.3550
G01 Y22.6135
G01 X42.8884
G01 Y21.6615
G01 X26.5355
G01 Y33.9675
G03 X24.5252 Y36.1100 I-2.0195 J0.1195
G01 X15.4990
G01 Y39.9626
G01 X24.5252
G03 X26.5355 Y42.0812 I-0.0097 J2.0222
G01 Y54.3324
G01 X59.2905
G01 Y21.6615
G01 X42.8884
G00 Z5.0000
G00 X42.8750 Y37.3015
G00 Z-15.5000
G01 Z-17.0000 F1200
G01 X42.0830 F1000
G01 X41.9750 Y37.7695
G01 X41.9030 Y38.3095
G01 X42.0470 Y38.6695
G01 X43.6670
G01 Y37.3015
G01 X42.8750
G01 X42.8810 Y35.4655
G01 X40.2830
G01 Y36.9415
G01 X39.9590 Y38.2375
G01 X40.3190 Y39.3895
G01 Y40.5055
G01 X45.5030
G01 Y35.4655
G01 X42.8810
G01 X42.8827 Y33.6295
G01 X38.4470
G01 Y36.6175
G01 X38.1230 Y37.7695
G01 X38.0510 Y38.2735
G01 X38.4830 Y39.6775
G01 Y42.3415
G01 X47.3390
G01 Y33.6295
G01 X42.8827
G01 X42.8850 Y31.7935
G01 X36.6470
G01 X36.6110 Y33.2335
G01 Y36.2935
G01 X36.1070 Y38.2015
G01 X36.6470 Y40.0015
G01 Y44.1775
G01 X49.1750
G01 Y31.7935
G01 X42.8850
G01 X42.8862 Y29.9575
G01 X34.8110
G01 X34.7750 Y35.9695
G01 X34.1630 Y38.1295
G01 X34.8110 Y40.3255
G01 Y46.0135
G01 X51.0110
G01 Y29.9575
G01 X42.8862
G01 X42.8870 Y28.1215
G01 X32.9750
G01 X32.9390 Y35.6455
G01 X32.5070 Y37.1575
G01 X32.0750 Y37.9495
G01 Y38.1295
G01 X32.4350 Y38.7415
G01 X32.9750 Y40.6495
G01 Y47.8495
G01 X52.8470
G01 Y28.1215
G01 X42.8870
G01 X42.8876 Y26.2855
G01 X31.1390
G01 X31.1030 Y35.3215
G01 X30.7790 Y36.4735
G01 X29.9150 Y38.0575
G01 X30.7070 Y39.4255
G01 X31.1390 Y40.9735
G01 Y49.6855
G01 X54.6830
G01 Y26.2855
G01 X42.8876
G01 X42.8880 Y24.4495
G01 X29.3030
G01 X29.2670 Y34.9975
G03 X27.3230 Y37.9855 I-4.6752 J-0.9153
G03 X29.3030 Y41.2975 I-3.1969 J4.1591
G01 Y51.5215
G01 X56.5190
G01 Y24.4495
G01 X42.8880
G01 X42.8884 Y22.6135
G01 X27.4670
G01 Y34.3855
G03 X24.6590 Y37.0495 I-2.9756 J-0.3246
G01 X16.4510
G01 Y38.9935
G01 X24.8030
G03 X27.4670 Y41.6575 I-0.3334 J2.9974
G01 Y53.3575
G01 X58.3550
G01 Y22.6135
G01 X42.8884
G01 Y21.6615
G01 X26.5355
G01 Y33.9675
G03 X24.5252 Y36.1100 I-2.0195 J0.1195
G01 X15.4990
G01 Y39.9626
G01 X24.5252
G03 X26.5355 Y42.0812 I-0.0097 J2.0222
G01 Y54.3324
G01 X59.2905
G01 Y21.6615
G01 X42.8884
G00 Z5.0000


(No. 2: Taglio 2)
G00 X42.8761 Y37.5997 Z5.0000
G00 Z-16.5000
G01 Z-19.0000 F1200
G02 X42.3768 Y38.0105 I-0.0277 J0.4751 F1000
G01 X42.4848 Y38.3705
G01 X42.8808 Y38.5505
G02 X42.8761 Y37.5997 I-0.0318 J-0.4752
G01 X43.0452 Y35.7635
G02 X42.5705 Y40.3587 I-0.2044 J2.3010
G02 X43.0452 Y35.7635 I0.2713 J-2.2941
G01 X43.3164 Y33.9268
G02 X39.0314 Y39.7025 I-0.4752 J4.1248
G02 X46.1758 Y40.5255 I3.8098 J-1.6509
G02 X43.3164 Y33.9268 I-3.3346 J-2.4739
G01 X43.5840 Y32.0901
G02 X41.9050 Y43.9484 I-0.7303 J5.9446
G02 X43.5840 Y32.0901 I0.9528 J-5.9131
G01 X43.5998 Y30.2266
G02 X35.7589 Y41.2877 I-0.7274 J7.7940
G02 X49.2586 Y42.5475 I7.1135 J-3.2671
G02 X43.5998 Y30.2266 I-6.3861 J-4.5269
G01 X43.6918 Y28.3628
G02 X41.7768 Y47.5962 I-0.8204 J9.6303
G02 X43.6918 Y28.3628 I1.0987 J-9.6026
G01 X43.7165 Y27.4478
G02 X33.3131 Y42.5716 I-0.8358 J10.5651
G02 X51.6124 Y44.0192 I9.5675 J-4.5587
G02 X43.7165 Y27.4478 I-8.7318 J-6.0064
G00 Z5.0000
G00 X42.9075 Y37.6026
G00 Z-18.5000
G01 Z-21.0000 F1200
G02 X42.3768 Y38.0105 I-0.0591 J0.4723 F1000
G01 X42.4848 Y38.3705
G01 X42.8808 Y38.5505
G02 X42.9075 Y37.6026 I-0.0318 J-0.4752
G01 X43.1787 Y35.7792
G02 X42.4375 Y40.3390 I-0.3379 J2.2852
G02 X43.1787 Y35.7792 I0.4042 J-2.2744
G01 X43.3177 Y33.9269
G02 X39.0309 Y39.7013 I-0.4765 J4.1247
G02 X46.1751 Y40.5266 I3.8103 J-1.6497
G02 X43.3177 Y33.9269 I-3.3339 J-2.4750
G01 X43.5840 Y32.0901
G02 X41.9050 Y43.9484 I-0.7303 J5.9446
G02 X43.5840 Y32.0901 I0.9528 J-5.9131
G01 X43.5998 Y30.2266
G02 X35.7589 Y41.2877 I-0.7274 J7.7940
G02 X49.2586 Y42.5475 I7.1135 J-3.2671
G02 X43.5998 Y30.2266 I-6.3861 J-4.5269
G01 X43.6918 Y28.3628
G02 X41.7768 Y47.5962 I-0.8204 J9.6303
G02 X43.6918 Y28.3628 I1.0987 J-9.6026
G01 X43.7165 Y27.4478
G02 X33.3131 Y42.5716 I-0.8358 J10.5651
G02 X51.6124 Y44.0192 I9.5675 J-4.5587
G02 X43.7165 Y27.4478 I-8.7318 J-6.0064
G00 Z5.0000
G00 X42.9075 Y37.6026
G00 Z-20.5000
G01 Z-23.0000 F1200
G02 X42.3768 Y38.0105 I-0.0591 J0.4723 F1000
G01 X42.4848 Y38.3705
G01 X42.8808 Y38.5505
G02 X42.9075 Y37.6026 I-0.0318 J-0.4752
G01 X43.1787 Y35.7792
G02 X42.4375 Y40.3390 I-0.3379 J2.2852
G02 X43.1787 Y35.7792 I0.4042 J-2.2744
G01 X43.3177 Y33.9269
G02 X39.0309 Y39.7013 I-0.4765 J4.1247
G02 X46.1751 Y40.5266 I3.8103 J-1.6497
G02 X43.3177 Y33.9269 I-3.3339 J-2.4750
G01 X43.5840 Y32.0901
G02 X41.9050 Y43.9484 I-0.7303 J5.9446
G02 X43.5840 Y32.0901 I0.9528 J-5.9131
G01 X43.5998 Y30.2266
G02 X35.7589 Y41.2877 I-0.7274 J7.7940
G02 X49.2586 Y42.5475 I7.1135 J-3.2671
G02 X43.5998 Y30.2266 I-6.3861 J-4.5269
G01 X43.6918 Y28.3628
G02 X41.7768 Y47.5962 I-0.8204 J9.6303
G02 X43.6918 Y28.3628 I1.0987 J-9.6026
G01 X43.7165 Y27.4478
G02 X33.3131 Y42.5716 I-0.8358 J10.5651
G02 X51.6124 Y44.0192 I9.5675 J-4.5587
G02 X43.7165 Y27.4478 I-8.7318 J-6.0064
G00 Z5.0000
G00 X42.9075 Y37.6026
G00 Z-22.5000
G01 Z-25.0000 F1200
G02 X42.3768 Y38.0105 I-0.0591 J0.4723 F1000
G01 X42.4848 Y38.3705
G01 X42.8808 Y38.5505
G02 X42.9075 Y37.6026 I-0.0318 J-0.4752
G01 X43.1787 Y35.7792
G02 X42.4375 Y40.3390 I-0.3379 J2.2852
G02 X43.1787 Y35.7792 I0.4042 J-2.2744
G01 X43.3177 Y33.9269
G02 X39.0309 Y39.7013 I-0.4765 J4.1247
G02 X46.1751 Y40.5266 I3.8103 J-1.6497
G02 X43.3177 Y33.9269 I-3.3339 J-2.4750
G01 X43.5840 Y32.0901
G02 X41.9050 Y43.9484 I-0.7303 J5.9446
G02 X43.5840 Y32.0901 I0.9528 J-5.9131
G01 X43.5998 Y30.2266
G02 X35.7589 Y41.2877 I-0.7274 J7.7940
G02 X49.2586 Y42.5475 I7.1135 J-3.2671
G02 X43.5998 Y30.2266 I-6.3861 J-4.5269
G01 X43.6918 Y28.3628
G02 X41.7768 Y47.5962 I-0.8204 J9.6303
G02 X43.6918 Y28.3628 I1.0987 J-9.6026
G01 X43.7165 Y27.4478
G02 X33.3131 Y42.5716 I-0.8358 J10.5651
G02 X51.6124 Y44.0192 I9.5675 J-4.5587
G02 X43.7165 Y27.4478 I-8.7318 J-6.0064
G00 Z5.0000
G00 X42.9075 Y37.6026
G00 Z-24.5000
G01 Z-27.0000 F1200
G02 X42.3768 Y38.0105 I-0.0591 J0.4723 F1000
G01 X42.4848 Y38.3705
G01 X42.8808 Y38.5505
G02 X42.9075 Y37.6026 I-0.0318 J-0.4752
G01 X43.1787 Y35.7792
G02 X42.4375 Y40.3390 I-0.3379 J2.2852
G02 X43.1787 Y35.7792 I0.4042 J-2.2744
G01 X43.3177 Y33.9269
G02 X39.0309 Y39.7013 I-0.4765 J4.1247
G02 X46.1751 Y40.5266 I3.8103 J-1.6497
G02 X43.3177 Y33.9269 I-3.3339 J-2.4750
G01 X43.5840 Y32.0901
G02 X41.9050 Y43.9484 I-0.7303 J5.9446
G02 X43.5840 Y32.0901 I0.9528 J-5.9131
G01 X43.5998 Y30.2266
G02 X35.7589 Y41.2877 I-0.7274 J7.7940
G02 X49.2586 Y42.5475 I7.1135 J-3.2671
G02 X43.5998 Y30.2266 I-6.3861 J-4.5269
G01 X43.6918 Y28.3628
G02 X41.7768 Y47.5962 I-0.8204 J9.6303
G02 X43.6918 Y28.3628 I1.0987 J-9.6026
G01 X43.7165 Y27.4478
G02 X33.3131 Y42.5716 I-0.8358 J10.5651
G02 X51.6124 Y44.0192 I9.5675 J-4.5587
G02 X43.7165 Y27.4478 I-8.7318 J-6.0064
G00 Z5.0000
G00 X42.9075 Y37.6026
G00 Z-26.5000
G01 Z-29.0000 F1200
G02 X42.3768 Y38.0105 I-0.0591 J0.4723 F1000
G01 X42.4848 Y38.3705
G01 X42.8808 Y38.5505
G02 X42.9075 Y37.6026 I-0.0318 J-0.4752
G01 X43.1787 Y35.7792
G02 X42.4375 Y40.3390 I-0.3379 J2.2852
G02 X43.1787 Y35.7792 I0.4042 J-2.2744
G01 X43.3177 Y33.9269
G02 X39.0309 Y39.7013 I-0.4765 J4.1247
G02 X46.1751 Y40.5266 I3.8103 J-1.6497
G02 X43.3177 Y33.9269 I-3.3339 J-2.4750
G01 X43.5840 Y32.0901
G02 X41.9050 Y43.9484 I-0.7303 J5.9446
G02 X43.5840 Y32.0901 I0.9528 J-5.9131
G01 X43.5998 Y30.2266
G02 X35.7589 Y41.2877 I-0.7274 J7.7940
G02 X49.2586 Y42.5475 I7.1135 J-3.2671
G02 X43.5998 Y30.2266 I-6.3861 J-4.5269
G01 X43.6918 Y28.3628
G02 X41.7768 Y47.5962 I-0.8204 J9.6303
G02 X43.6918 Y28.3628 I1.0987 J-9.6026
G01 X43.7165 Y27.4478
G02 X33.3131 Y42.5716 I-0.8358 J10.5651
G02 X51.6124 Y44.0192 I9.5675 J-4.5587
G02 X43.7165 Y27.4478 I-8.7318 J-6.0064
G00 Z5.0000
G00 X42.9075 Y37.6026
G00 Z-28.5000
G01 Z-31.0000 F1200
G02 X42.3768 Y38.0105 I-0.0591 J0.4723 F1000
G01 X42.4848 Y38.3705
G01 X42.8808 Y38.5505
G02 X42.9075 Y37.6026 I-0.0318 J-0.4752
G01 X43.1787 Y35.7792
G02 X42.4375 Y40.3390 I-0.3379 J2.2852
G02 X43.1787 Y35.7792 I0.4042 J-2.2744
G01 X43.3177 Y33.9269
G02 X39.0309 Y39.7013 I-0.4765 J4.1247
G02 X46.1751 Y40.5266 I3.8103 J-1.6497
G02 X43.3177 Y33.9269 I-3.3339 J-2.4750
G01 X43.5840 Y32.0901
G02 X41.9050 Y43.9484 I-0.7303 J5.9446
G02 X43.5840 Y32.0901 I0.9528 J-5.9131
G01 X43.5998 Y30.2266
G02 X35.7589 Y41.2877 I-0.7274 J7.7940
G02 X49.2586 Y42.5475 I7.1135 J-3.2671
G02 X43.5998 Y30.2266 I-6.3861 J-4.5269
G01 X43.6918 Y28.3628
G02 X41.7768 Y47.5962 I-0.8204 J9.6303
G02 X43.6918 Y28.3628 I1.0987 J-9.6026
G01 X43.7165 Y27.4478
G02 X33.3131 Y42.5716 I-0.8358 J10.5651
G02 X51.6124 Y44.0192 I9.5675 J-4.5587
G02 X43.7165 Y27.4478 I-8.7318 J-6.0064
G00 Z5.0000
G00 X42.9075 Y37.6026
G00 Z-30.5000
G01 Z-33.0000 F1200
G02 X42.3768 Y38.0105 I-0.0591 J0.4723 F1000
G01 X42.4848 Y38.3705
G01 X42.8808 Y38.5505
G02 X42.9075 Y37.6026 I-0.0318 J-0.4752
G01 X43.1787 Y35.7792
G02 X42.4375 Y40.3390 I-0.3379 J2.2852
G02 X43.1787 Y35.7792 I0.4042 J-2.2744
G01 X43.3177 Y33.9269
G02 X39.0309 Y39.7013 I-0.4765 J4.1247
G02 X46.1751 Y40.5266 I3.8103 J-1.6497
G02 X43.3177 Y33.9269 I-3.3339 J-2.4750
G01 X43.5840 Y32.0901
G02 X41.9050 Y43.9484 I-0.7303 J5.9446
G02 X43.5840 Y32.0901 I0.9528 J-5.9131
G01 X43.5998 Y30.2266
G02 X35.7589 Y41.2877 I-0.7274 J7.7940
G02 X49.2586 Y42.5475 I7.1135 J-3.2671
G02 X43.5998 Y30.2266 I-6.3861 J-4.5269
G01 X43.6918 Y28.3628
G02 X41.7768 Y47.5962 I-0.8204 J9.6303
G02 X43.6918 Y28.3628 I1.0987 J-9.6026
G01 X43.7165 Y27.4478
G02 X33.3131 Y42.5716 I-0.8358 J10.5651
G02 X51.6124 Y44.0192 I9.5675 J-4.5587
G02 X43.7165 Y27.4478 I-8.7318 J-6.0064
G00 Z5.0000
G00 X42.9075 Y37.6026
G00 Z-32.5000
G01 Z-34.0000 F1200
G02 X42.3768 Y38.0105 I-0.0591 J0.4723 F1000
G01 X42.4848 Y38.3705
G01 X42.8808 Y38.5505
G02 X42.9075 Y37.6026 I-0.0318 J-0.4752
G01 X43.1787 Y35.7792
G02 X42.4375 Y40.3390 I-0.3379 J2.2852
G02 X43.1787 Y35.7792 I0.4042 J-2.2744
G01 X43.3177 Y33.9269
G02 X39.0309 Y39.7013 I-0.4765 J4.1247
G02 X46.1751 Y40.5266 I3.8103 J-1.6497
G02 X43.3177 Y33.9269 I-3.3339 J-2.4750
G01 X43.5840 Y32.0901
G02 X41.9050 Y43.9484 I-0.7303 J5.9446
G02 X43.5840 Y32.0901 I0.9528 J-5.9131
G01 X43.5998 Y30.2266
G02 X35.7589 Y41.2877 I-0.7274 J7.7940
G02 X49.2586 Y42.5475 I7.1135 J-3.2671
G02 X43.5998 Y30.2266 I-6.3861 J-4.5269
G01 X43.6918 Y28.3628
G02 X41.7768 Y47.5962 I-0.8204 J9.6303
G02 X43.6918 Y28.3628 I1.0987 J-9.6026
G01 X43.7165 Y27.4478
G02 X33.3131 Y42.5716 I-0.8358 J10.5651
G02 X51.6124 Y44.0192 I9.5675 J-4.5587
G02 X43.7165 Y27.4478 I-8.7318 J-6.0064
G00 Z5.0000


(No. 3: Taglio 3)
G00 X30.4939 Y50.1701 Z5.0000
G00 Z-16.5000
G01 Z-19.0000 F1200
G02 X29.3935 Y50.9018 I-0.3815 J0.6196 F1000
G01 X29.5375 Y51.2258
G01 X29.8975 Y51.4778
G02 X30.4939 Y50.1701 I0.2183 J-0.6903
G01 X31.5270 Y48.6433
G02 X27.5517 Y50.6168 I-1.4180 J2.1343
G02 X31.2484 Y53.0728 I2.5574 J0.1608
G02 X31.5270 Y48.6433 I-1.1394 J-2.2952
G01 X32.0474 Y47.8791
G02 X26.6143 Y50.5589 I-1.9430 J2.9083
G02 X31.6517 Y53.9242 I3.4901 J0.2285
G02 X32.0474 Y47.8791 I-1.5472 J-3.1368
G00 Z5.0000
G00 X30.5262 Y50.1912
G00 Z-18.5000
G01 Z-21.0000 F1200
G02 X29.3935 Y50.9018 I-0.4138 J0.5985 F1000
G01 X29.5375 Y51.2258
G01 X29.8975 Y51.4778
G02 X30.5262 Y50.1912 I0.2184 J-0.6902
G01 X31.6486 Y48.7294
G02 X27.5653 Y50.4684 I-1.5397 J2.0483
G02 X31.1130 Y53.1351 I2.5437 J0.3092
G02 X31.6486 Y48.7294 I-1.0040 J-2.3575
G01 X32.2686 Y48.0397
G02 X26.6427 Y50.2868 I-2.1643 J2.7476
G02 X31.4017 Y54.0354 I3.4616 J0.5005
G02 X32.2686 Y48.0397 I-1.2974 J-3.2481
G00 Z5.0000
G00 X30.5871 Y50.2383
G00 Z-20.5000
G01 Z-22.0000 F1200
G02 X29.3935 Y50.9018 I-0.4748 J0.5513 F1000
G01 X29.5375 Y51.2258
G01 X29.8975 Y51.4778
G02 X30.5871 Y50.2383 I0.2189 J-0.6898
G01 X31.7652 Y48.8224
G02 X27.5876 Y50.3209 I-1.6562 J1.9552
G02 X30.9742 Y53.1895 I2.5214 J0.4567
G02 X31.7652 Y48.8224 I-0.8652 J-2.4119
G01 X32.2711 Y48.0417
G02 X26.6432 Y50.2837 I-2.1668 J2.7456
G02 X31.3988 Y54.0366 I3.4612 J0.5037
G02 X32.2711 Y48.0417 I-1.2944 J-3.2493
G00 Z5.0000


(No. 4: Taglio 4)
G00 X54.9622 Y50.7218 Z5.0000
G00 Z-16.5000
G01 Z-19.0000 F1200
G01 X54.9442 Y50.9018 F1000
G01 X55.0882 Y51.2258
G01 X55.4482 Y51.4778
G02 X55.8878 Y50.0973 I0.2179 J-0.6909
G02 X54.9622 Y50.7218 I-0.2275 J0.6609
G01 X53.1035 Y50.6162
G02 X56.8002 Y53.0722 I2.5574 J0.1609
G02 X57.0788 Y48.6428 I-1.1394 J-2.2952
G02 X53.1035 Y50.6162 I-1.4180 J2.1343
G01 X52.1632 Y50.6471
G02 X57.2854 Y53.8818 I3.4949 J0.1387
G02 X57.5256 Y47.8285 I-1.6273 J-3.0960
G02 X52.1632 Y50.6471 I-1.8675 J2.9573
G00 Z5.0000
G00 X54.9621 Y50.7227
G00 Z-18.5000
G01 Z-21.0000 F1200
G01 X54.9442 Y50.9018 F1000
G01 X55.0882 Y51.2258
G01 X55.4482 Y51.4778
G02 X55.8878 Y50.0973 I0.2179 J-0.6909
G02 X54.9621 Y50.7227 I-0.2275 J0.6610
G01 X53.1035 Y50.6162
G02 X56.8002 Y53.0722 I2.5574 J0.1609
G02 X57.0788 Y48.6428 I-1.1394 J-2.2952
G02 X53.1035 Y50.6162 I-1.4180 J2.1343
G01 X52.1632 Y50.6471
G02 X57.2854 Y53.8818 I3.4949 J0.1387
G02 X57.5256 Y47.8285 I-1.6273 J-3.0960
G02 X52.1632 Y50.6471 I-1.8675 J2.9573
G00 Z5.0000
G00 X54.9621 Y50.7227
G00 Z-20.5000
G01 Z-22.0000 F1200
G01 X54.9442 Y50.9018 F1000
G01 X55.0882 Y51.2258
G01 X55.4482 Y51.4778
G02 X55.8878 Y50.0973 I0.2179 J-0.6909
G02 X54.9621 Y50.7227 I-0.2275 J0.6610
G01 X53.1035 Y50.6162
G02 X56.8002 Y53.0722 I2.5574 J0.1609
G02 X57.0788 Y48.6428 I-1.1394 J-2.2952
G02 X53.1035 Y50.6162 I-1.4180 J2.1343
G01 X52.1632 Y50.6471
G02 X57.2854 Y53.8818 I3.4949 J0.1387
G02 X57.5256 Y47.8285 I-1.6273 J-3.0960
G02 X52.1632 Y50.6471 I-1.8675 J2.9573
G00 Z5.0000


(No. 5: Taglio 6)
G00 X55.5416 Y25.9502 Z5.0000
G00 Z-16.5000
G01 Z-19.0000 F1200
G02 X55.8133 Y24.5267 I0.1240 J-0.7140 F1000
G02 X54.9442 Y25.3511 I-0.1494 J0.7128
G01 X55.0882 Y25.6751
G01 X55.4482 Y25.9271
G02 X55.5416 Y25.9502 I0.1902 J-0.5687
G01 X55.2036 Y27.7470
G02 X56.1900 Y22.7189 I0.4571 J-2.5211
G02 X55.2036 Y27.7470 I-0.5303 J2.5068
G01 X54.9751 Y28.6639
G02 X58.9681 Y24.1080 I0.6813 J-3.4306
G02 X53.0261 Y22.9279 I-3.3117 J1.1252
G02 X54.9751 Y28.6639 I2.6303 J2.3054
G00 Z5.0000
G00 X55.5039 Y25.9424
G00 Z-18.5000
G01 Z-21.0000 F1200
G02 X55.8508 Y24.5357 I0.1620 J-0.7062 F1000
G02 X54.9442 Y25.3511 I-0.1870 J0.7038
G01 X55.0882 Y25.6751
G01 X55.4482 Y25.9271
G01 X55.4851 Y25.9380
G01 X55.5039 Y25.9424
G01 X55.0578 Y27.7162
G02 X56.3349 Y22.7540 I0.6030 J-2.4903
G02 X55.0578 Y27.7162 I-0.6752 J2.4717
G01 X54.7092 Y28.6002
G02 X59.0461 Y24.3704 I0.9474 J-3.3669
G02 X53.2145 Y22.7294 I-3.3895 J0.8630
G02 X54.7092 Y28.6002 I2.4421 J2.5039
G00 Z5.0000
G00 X55.4667 Y25.9325
G00 Z-20.5000
G01 Z-22.0000 F1200
G02 X55.8878 Y24.5466 I0.1995 J-0.6963 F1000
G02 X54.9442 Y25.3511 I-0.2240 J0.6929
G01 X55.0882 Y25.6751
G01 X55.4482 Y25.9271
G01 X55.4667 Y25.9325
G01 X54.9141 Y27.6770
G02 X56.4775 Y22.7974 I0.7467 J-2.4510
G02 X54.9141 Y27.6770 I-0.8178 J2.4282
G01 X54.7063 Y28.5993
G02 X59.0468 Y24.3733 I0.9503 J-3.3660
G02 X53.2167 Y22.7273 I-3.3902 J0.8600
G02 X54.7063 Y28.5993 I2.4399 J2.5060
G00 Z5.0000


(No. 6: Taglio 5)
G00 X30.8310 Y25.3452 Z5.0000
G00 Z-16.5000
G01 Z-19.0000 F1200
G02 X29.4295 Y24.9911 I-0.7183 J-0.1078 F1000
G01 X29.3935 Y25.3511
G01 X29.5375 Y25.6751
G01 X29.8975 Y25.9271
G02 X30.8310 Y25.3452 I0.2208 J-0.6856
G01 X32.6301 Y25.6829
G02 X27.6020 Y24.6964 I-2.5211 J-0.4571
G02 X32.6301 Y25.6829 I2.5068 J0.5303
G01 X33.5343 Y25.9160
G02 X28.9782 Y21.9232 I-3.4306 J-0.6812
G02 X27.7984 Y27.8653 I1.1254 J3.3116
G02 X33.5343 Y25.9160 I2.3052 J-2.6304
G00 Z5.0000
G00 X30.8243 Y25.3831
G00 Z-18.5000
G01 Z-21.0000 F1200
G02 X29.4295 Y24.9911 I-0.7116 J-0.1457 F1000
G01 X29.3935 Y25.3511
G01 X29.5375 Y25.6751
G01 X29.8975 Y25.9271
G02 X30.8243 Y25.3831 I0.2209 J-0.6853
G01 X32.5993 Y25.8286
G02 X27.6371 Y24.5516 I-2.4903 J-0.6030
G02 X32.5993 Y25.8286 I2.4717 J0.6752
G01 X33.5337 Y25.9191
G02 X28.9812 Y21.9222 I-3.4300 J-0.6842
G02 X27.7960 Y27.8632 I1.1224 J3.3126
G02 X33.5337 Y25.9191 I2.3076 J-2.6284
G00 Z5.0000
G00 X30.8243 Y25.3831
G00 Z-20.5000
G01 Z-22.0000 F1200
G02 X29.4295 Y24.9911 I-0.7116 J-0.1457 F1000
G01 X29.3935 Y25.3511
G01 X29.5375 Y25.6751
G01 X29.8975 Y25.9271
G02 X30.8243 Y25.3831 I0.2209 J-0.6853
G01 X32.5993 Y25.8286
G02 X27.6371 Y24.5516 I-2.4903 J-0.6030
G02 X32.5993 Y25.8286 I2.4717 J0.6752
G01 X33.5337 Y25.9191
G02 X28.9812 Y21.9222 I-3.4300 J-0.6842
G02 X27.7960 Y27.8632 I1.1224 J3.3126
G02 X33.5337 Y25.9191 I2.3076 J-2.6284
G00 Z5.0000


(No. 7: Forature 4)
G00 X30.1055 Y25.2351 Z5.0000
G00 Z-21.5000
G01 Z-24.0000 F1200
G00 Z-21.5000
G00 Z-23.5000
G01 Z-26.0000
G00 Z-21.5000
G00 Z-25.5000
G01 Z-28.0000
G00 Z-21.5000
G00 Z-27.5000
G01 Z-30.0000
G00 Z-21.5000
G00 Z-29.5000
G01 Z-32.0000
G00 Z-21.5000
G00 Z-31.5000
G01 Z-34.0000
G00 Z5.0000


(No. 8: Forature 1)
G00 X30.1055 Y50.7858 Z5.0000
G00 Z-21.5000
G01 Z-24.0000 F1200
G00 Z-21.5000
G00 Z-23.5000
G01 Z-26.0000
G00 Z-21.5000
G00 Z-25.5000
G01 Z-28.0000
G00 Z-21.5000
G00 Z-27.5000
G01 Z-30.0000
G00 Z-21.5000
G00 Z-29.5000
G01 Z-32.0000
G00 Z-21.5000
G00 Z-31.5000
G01 Z-34.0000
G00 Z5.0000


(No. 9: Forature 2)
G00 X55.6562 Y50.7858 Z5.0000
G00 Z-21.5000
G01 Z-24.0000 F1200
G00 Z-21.5000
G00 Z-23.5000
G01 Z-26.0000
G00 Z-21.5000
G00 Z-25.5000
G01 Z-28.0000
G00 Z-21.5000
G00 Z-27.5000
G01 Z-30.0000
G00 Z-21.5000
G00 Z-29.5000
G01 Z-32.0000
G00 Z-21.5000
G00 Z-31.5000
G01 Z-34.0000
G00 Z5.0000


(No. 10: Forature 3)
G00 X55.6562 Y25.2351 Z5.0000
G00 Z-21.5000
G01 Z-24.0000 F1200
G00 Z-21.5000
G00 Z-23.5000
G01 Z-26.0000
G00 Z-21.5000
G00 Z-25.5000
G01 Z-28.0000
G00 Z-21.5000
G00 Z-27.5000
G01 Z-30.0000
G00 Z-21.5000
G00 Z-29.5000
G01 Z-32.0000
G00 Z-21.5000
G00 Z-31.5000
G01 Z-34.0000
G00 Z5.0000


(No. 11: Parte 1)
G00 X7.8808 Y37.6856 Z5.0000
G00 Z0.5000
G01 Z0.0000 F1200
G01 Z-2.0000
G01 Y15.6856 F1000
G03 X9.8801 Y13.6856 I2.0000 J0.0000
G01 X38.3853 Y13.6754
G01 X38.3808 Y10.1881
G03 X40.3808 Y8.1856 I2.0000 J-0.0026
G01 X45.3808
G03 X47.3808 Y10.1856 I0.0000 J2.0000
G01 Y13.6856
G01 X75.8808
G03 X77.8808 Y15.6856 I0.0000 J2.0000
G01 Y37.6856
G01 Y43.6856
G01 Y65.6856
G03 X75.8808 Y67.6856 I-2.0000 J0.0000
G01 X9.8808
G03 X7.8808 Y65.6856 I0.0000 J-2.0000
G01 Y43.6856
G01 Y37.6856
G01 Z-4.0000 F1200
G01 Y15.6856 F1000
G03 X9.8801 Y13.6856 I2.0000 J0.0000
G01 X38.3853 Y13.6754
G01 X38.3808 Y10.1881
G03 X40.3808 Y8.1856 I2.0000 J-0.0026
G01 X45.3808
G03 X47.3808 Y10.1856 I0.0000 J2.0000
G01 Y13.6856
G01 X75.8808
G03 X77.8808 Y15.6856 I0.0000 J2.0000
G01 Y37.6856
G01 Y43.6856
G01 Y65.6856
G03 X75.8808 Y67.6856 I-2.0000 J0.0000
G01 X9.8808
G03 X7.8808 Y65.6856 I0.0000 J-2.0000
G01 Y43.6856
G01 Y37.6856
G01 Z-6.0000 F1200
G01 Y15.6856 F1000
G03 X9.8801 Y13.6856 I2.0000 J0.0000
G01 X38.3853 Y13.6754
G01 X38.3808 Y10.1881
G03 X40.3808 Y8.1856 I2.0000 J-0.0026
G01 X45.3808
G03 X47.3808 Y10.1856 I0.0000 J2.0000
G01 Y13.6856
G01 X75.8808
G03 X77.8808 Y15.6856 I0.0000 J2.0000
G01 Y37.6856
G01 Y43.6856
G01 Y65.6856
G03 X75.8808 Y67.6856 I-2.0000 J0.0000
G01 X9.8808
G03 X7.8808 Y65.6856 I0.0000 J-2.0000
G01 Y43.6856
G01 Y37.6856
G01 Z-8.0000 F1200
G01 Y15.6856 F1000
G03 X9.8801 Y13.6856 I2.0000 J0.0000
G01 X38.3853 Y13.6754
G01 X38.3808 Y10.1881
G03 X40.3808 Y8.1856 I2.0000 J-0.0026
G01 X45.3808
G03 X47.3808 Y10.1856 I0.0000 J2.0000
G01 Y13.6856
G01 X75.8808
G03 X77.8808 Y15.6856 I0.0000 J2.0000
G01 Y37.6856
G01 Y43.6856
G01 Y65.6856
G03 X75.8808 Y67.6856 I-2.0000 J0.0000
G01 X9.8808
G03 X7.8808 Y65.6856 I0.0000 J-2.0000
G01 Y43.6856
G01 Y37.6856
G01 Z-10.0000 F1200
G01 Y15.6856 F1000
G03 X9.8801 Y13.6856 I2.0000 J0.0000
G01 X38.3853 Y13.6754
G01 X38.3808 Y10.1881
G03 X40.3808 Y8.1856 I2.0000 J-0.0026
G01 X45.3808
G03 X47.3808 Y10.1856 I0.0000 J2.0000
G01 Y13.6856
G01 X75.8808
G03 X77.8808 Y15.6856 I0.0000 J2.0000
G01 Y37.6856
G01 Y43.6856
G01 Y65.6856
G03 X75.8808 Y67.6856 I-2.0000 J0.0000
G01 X9.8808
G03 X7.8808 Y65.6856 I0.0000 J-2.0000
G01 Y43.6856
G01 Y37.6856
G01 Z-12.0000 F1200
G01 Y15.6856 F1000
G03 X9.8801 Y13.6856 I2.0000 J0.0000
G01 X38.3853 Y13.6754
G01 X38.3808 Y10.1881
G03 X40.3808 Y8.1856 I2.0000 J-0.0026
G01 X45.3808
G03 X47.3808 Y10.1856 I0.0000 J2.0000
G01 Y13.6856
G01 X75.8808
G03 X77.8808 Y15.6856 I0.0000 J2.0000
G01 Y37.6856
G01 Y43.6856
G01 Y65.6856
G03 X75.8808 Y67.6856 I-2.0000 J0.0000
G01 X9.8808
G03 X7.8808 Y65.6856 I0.0000 J-2.0000
G01 Y43.6856
G01 Y37.6856
G01 Z-14.0000 F1200
G01 Y15.6856 F1000
G03 X9.8801 Y13.6856 I2.0000 J0.0000
G01 X38.3853 Y13.6754
G01 X38.3808 Y10.1881
G03 X40.3808 Y8.1856 I2.0000 J-0.0026
G01 X45.3808
G03 X47.3808 Y10.1856 I0.0000 J2.0000
G01 Y13.6856
G01 X75.8808
G03 X77.8808 Y15.6856 I0.0000 J2.0000
G01 Y37.6856
G01 Y43.6856
G01 Y65.6856
G03 X75.8808 Y67.6856 I-2.0000 J0.0000
G01 X9.8808
G03 X7.8808 Y65.6856 I0.0000 J-2.0000
G01 Y43.6856
G01 Y37.6856
G01 Z-16.0000 F1200
G01 Y15.6856 F1000
G03 X9.8801 Y13.6856 I2.0000 J0.0000
G01 X38.3853 Y13.6754
G01 X38.3808 Y10.1881
G03 X40.3808 Y8.1856 I2.0000 J-0.0026
G01 X45.3808
G03 X47.3808 Y10.1856 I0.0000 J2.0000
G01 Y13.6856
G01 X75.8808
G03 X77.8808 Y15.6856 I0.0000 J2.0000
G01 Y37.6856
G01 Y43.6856
G01 Y65.6856
G03 X75.8808 Y67.6856 I-2.0000 J0.0000
G01 X9.8808
G03 X7.8808 Y65.6856 I0.0000 J-2.0000
G01 Y43.6856
G01 Y37.6856
G01 Z-18.0000 F1200
G01 Y15.6856 F1000
G03 X9.8801 Y13.6856 I2.0000 J0.0000
G01 X38.3853 Y13.6754
G01 X38.3808 Y10.1881
G03 X40.3808 Y8.1856 I2.0000 J-0.0026
G01 X45.3808
G03 X47.3808 Y10.1856 I0.0000 J2.0000
G01 Y13.6856
G01 X75.8808
G03 X77.8808 Y15.6856 I0.0000 J2.0000
G01 Y37.6856
G01 Y43.6856
G01 Y65.6856
G03 X75.8808 Y67.6856 I-2.0000 J0.0000
G01 X9.8808
G03 X7.8808 Y65.6856 I0.0000 J-2.0000
G01 Y43.6856
G01 Y37.6856
G01 Z-20.0000 F1200
G01 Y15.6856 F1000
G03 X9.8801 Y13.6856 I2.0000 J0.0000
G01 X38.3853 Y13.6754
G01 X38.3808 Y10.1881
G03 X40.3808 Y8.1856 I2.0000 J-0.0026
G01 X45.3808
G03 X47.3808 Y10.1856 I0.0000 J2.0000
G01 Y13.6856
G01 X75.8808
G03 X77.8808 Y15.6856 I0.0000 J2.0000
G01 Y37.6856
G01 Y43.6856
G01 Y65.6856
G03 X75.8808 Y67.6856 I-2.0000 J0.0000
G01 X9.8808
G03 X7.8808 Y65.6856 I0.0000 J-2.0000
G01 Y43.6856
G01 Y37.6856
G01 Z-22.0000 F1200
G01 Y15.6856 F1000
G03 X9.8801 Y13.6856 I2.0000 J0.0000
G01 X38.3853 Y13.6754
G01 X38.3808 Y10.1881
G03 X40.3808 Y8.1856 I2.0000 J-0.0026
G01 X45.3808
G03 X47.3808 Y10.1856 I0.0000 J2.0000
G01 Y13.6856
G01 X75.8808
G03 X77.8808 Y15.6856 I0.0000 J2.0000
G01 Y37.6856
G01 Y43.6856
G01 Y65.6856
G03 X75.8808 Y67.6856 I-2.0000 J0.0000
G01 X9.8808
G03 X7.8808 Y65.6856 I0.0000 J-2.0000
G01 Y43.6856
G01 Y37.6856
G01 Z-24.0000 F1200
G01 Y15.6856 F1000
G03 X9.8801 Y13.6856 I2.0000 J0.0000
G01 X38.3853 Y13.6754
G01 X38.3808 Y10.1881
G03 X40.3808 Y8.1856 I2.0000 J-0.0026
G01 X45.3808
G03 X47.3808 Y10.1856 I0.0000 J2.0000
G01 Y13.6856
G01 X75.8808
G03 X77.8808 Y15.6856 I0.0000 J2.0000
G01 Y37.6856
G01 Y43.6856
G01 Y65.6856
G03 X75.8808 Y67.6856 I-2.0000 J0.0000
G01 X9.8808
G03 X7.8808 Y65.6856 I0.0000 J-2.0000
G01 Y43.6856
G01 Y37.6856
G01 Z-26.0000 F1200
G01 Y15.6856 F1000
G03 X9.8801 Y13.6856 I2.0000 J0.0000
G01 X38.3853 Y13.6754
G01 X38.3808 Y10.1881
G03 X40.3808 Y8.1856 I2.0000 J-0.0026
G01 X45.3808
G03 X47.3808 Y10.1856 I0.0000 J2.0000
G01 Y13.6856
G01 X75.8808
G03 X77.8808 Y15.6856 I0.0000 J2.0000
G01 Y37.6856
G01 Y43.6856
G01 Y65.6856
G03 X75.8808 Y67.6856 I-2.0000 J0.0000
G01 X9.8808
G03 X7.8808 Y65.6856 I0.0000 J-2.0000
G01 Y43.6856
G01 Y37.6856
G01 Z-28.0000 F1200
G01 Y15.6856 F1000
G03 X9.8801 Y13.6856 I2.0000 J0.0000
G01 X38.3853 Y13.6754
G01 X38.3808 Y10.1881
G03 X40.3808 Y8.1856 I2.0000 J-0.0026
G01 X45.3808
G03 X47.3808 Y10.1856 I0.0000 J2.0000
G01 Y13.6856
G01 X75.8808
G03 X77.8808 Y15.6856 I0.0000 J2.0000
G01 Y37.6856
G01 Y43.6856
G01 Y65.6856
G03 X75.8808 Y67.6856 I-2.0000 J0.0000
G01 X9.8808
G03 X7.8808 Y65.6856 I0.0000 J-2.0000
G01 Y43.6856
G01 Y37.6856
G01 Z-30.0000 F1200
G01 Y15.6856 F1000
G03 X9.8801 Y13.6856 I2.0000 J0.0000
G01 X38.3853 Y13.6754
G01 X38.3808 Y10.1881
G03 X40.3808 Y8.1856 I2.0000 J-0.0026
G01 X45.3808
G03 X47.3808 Y10.1856 I0.0000 J2.0000
G01 Y13.6856
G01 X75.8808
G03 X77.8808 Y15.6856 I0.0000 J2.0000
G01 Y37.6856
G01 Y43.6856
G01 Y65.6856
G03 X75.8808 Y67.6856 I-2.0000 J0.0000
G01 X9.8808
G03 X7.8808 Y65.6856 I0.0000 J-2.0000
G01 Y43.6856
G01 Y37.6856
G01 Z-32.0000 F1200
G01 Y15.6856 F1000
G03 X9.8801 Y13.6856 I2.0000 J0.0000
G01 X38.3853 Y13.6754
G01 X38.3808 Y10.1881
G03 X40.3808 Y8.1856 I2.0000 J-0.0026
G01 X45.3808
G03 X47.3808 Y10.1856 I0.0000 J2.0000
G01 Y13.6856
G01 X75.8808
G03 X77.8808 Y15.6856 I0.0000 J2.0000
G01 Y37.6856
G01 Y43.6856
G01 Y65.6856
G03 X75.8808 Y67.6856 I-2.0000 J0.0000
G01 X9.8808
G03 X7.8808 Y65.6856 I0.0000 J-2.0000
G01 Y43.6856
G01 Y37.6856
G01 Z-34.0000 F1200
G01 Y15.6856 F1000
G03 X9.8801 Y13.6856 I2.0000 J0.0000
G01 X38.3853 Y13.6754
G01 X38.3808 Y10.1881
G03 X40.3808 Y8.1856 I2.0000 J-0.0026
G01 X45.3808
G03 X47.3808 Y10.1856 I0.0000 J2.0000
G01 Y13.6856
G01 X75.8808
G03 X77.8808 Y15.6856 I0.0000 J2.0000
G01 Y37.6856
G00 Z-32.0000
G01 Y43.6856
G01 Z-34.0000 F1200
G01 Y65.6856 F1000
G03 X75.8808 Y67.6856 I-2.0000 J0.0000
G01 X9.8808
G03 X7.8808 Y65.6856 I0.0000 J-2.0000
G01 Y43.6856
G00 Z-32.0000
G01 Y37.6856
G00 Z5.0000
G00 X0.0000 Y0.0000

M05
M30
